( Made using CamBam - http://www.cambam.co.uk )
( xaxis_base_plate 11/17/2011 9:24:53 PM )
( T0 : 0.125 )
G20 G90 G64 G40
G0 Z0.125
( T0 : 0.125 )
T0 M6
( MotorCSKs )
G17
M3 S1000
G0 X0.43272 Y3.04586
G1 F10.0 Z0.0
G3 F40.0 X0.39 Y3.105 Z-0.015 I-0.04272 J0.01414
G1 X0.19
G3 Y3.015 I0.0 J-0.045
G1 X0.39
G3 Y3.105 I0.0 J0.045
G1 F10.0 Y3.155
G1 F40.0 X0.19
G3 Y2.965 I0.0 J-0.095
G1 X0.39
G3 Y3.155 I0.0 J0.095
G0 Z0.125
G0 X0.43272 Y3.04586
G1 F10.0 Z-0.015
G3 F40.0 X0.39 Y3.105 Z-0.03 I-0.04272 J0.01414
G1 X0.19
G3 Y3.015 I0.0 J-0.045
G1 X0.39
G3 Y3.105 I0.0 J0.045
G1 F10.0 Y3.155
G1 F40.0 X0.19
G3 Y2.965 I0.0 J-0.095
G1 X0.39
G3 Y3.155 I0.0 J0.095
G0 Z0.125
G0 X0.43272 Y3.04586
G1 F10.0 Z-0.03
G3 F40.0 X0.39 Y3.105 Z-0.045 I-0.04272 J0.01414
G1 X0.19
G3 Y3.015 I0.0 J-0.045
G1 X0.39
G3 Y3.105 I0.0 J0.045
G1 F10.0 Y3.155
G1 F40.0 X0.19
G3 Y2.965 I0.0 J-0.095
G1 X0.39
G3 Y3.155 I0.0 J0.095
G0 Z0.125
G0 X0.43272 Y3.04586
G1 F10.0 Z-0.045
G3 F40.0 X0.39 Y3.105 Z-0.06 I-0.04272 J0.01414
G1 X0.19
G3 Y3.015 I0.0 J-0.045
G1 X0.39
G3 Y3.105 I0.0 J0.045
G1 F10.0 Y3.155
G1 F40.0 X0.19
G3 Y2.965 I0.0 J-0.095
G1 X0.39
G3 Y3.155 I0.0 J0.095
G0 Z0.125
G0 X0.43272 Y3.04586
G1 F10.0 Z-0.06
G3 F40.0 X0.39 Y3.105 Z-0.075 I-0.04272 J0.01414
G1 X0.19
G3 Y3.015 I0.0 J-0.045
G1 X0.39
G3 Y3.105 I0.0 J0.045
G1 F10.0 Y3.155
G1 F40.0 X0.19
G3 Y2.965 I0.0 J-0.095
G1 X0.39
G3 Y3.155 I0.0 J0.095
G0 Z0.125
G0 X0.43272 Y3.04586
G1 F10.0 Z-0.075
G3 F40.0 X0.39 Y3.105 Z-0.09 I-0.04272 J0.01414
G1 X0.19
G3 Y3.015 I0.0 J-0.045
G1 X0.39
G3 Y3.105 I0.0 J0.045
G1 F10.0 Y3.155
G1 F40.0 X0.19
G3 Y2.965 I0.0 J-0.095
G1 X0.39
G3 Y3.155 I0.0 J0.095
G0 Z0.125
G0 X0.43272 Y3.04586
G1 F10.0 Z-0.09
G3 F40.0 X0.39 Y3.105 Z-0.105 I-0.04272 J0.01414
G1 X0.19
G3 Y3.015 I0.0 J-0.045
G1 X0.39
G3 Y3.105 I0.0 J0.045
G1 F10.0 Y3.155
G1 F40.0 X0.19
G3 Y2.965 I0.0 J-0.095
G1 X0.39
G3 Y3.155 I0.0 J0.095
G0 Z0.125
G0 X0.43272 Y3.04586
G1 F10.0 Z-0.105
G3 F40.0 X0.39 Y3.105 Z-0.12 I-0.04272 J0.01414
G1 X0.19
G3 Y3.015 I0.0 J-0.045
G1 X0.39
G3 Y3.105 I0.0 J0.045
G1 F10.0 Y3.155
G1 F40.0 X0.19
G3 Y2.965 I0.0 J-0.095
G1 X0.39
G3 Y3.155 I0.0 J0.095
G0 Z0.125
G0 X0.43272 Y3.04586
G1 F10.0 Z-0.12
G3 F40.0 X0.39 Y3.105 Z-0.135 I-0.04272 J0.01414
G1 X0.19
G3 Y3.015 I0.0 J-0.045
G1 X0.39
G3 Y3.105 I0.0 J0.045
G1 F10.0 Y3.155
G1 F40.0 X0.19
G3 Y2.965 I0.0 J-0.095
G1 X0.39
G3 Y3.155 I0.0 J0.095
G0 Z0.125
G0 X0.43272 Y3.04586
G1 F10.0 Z-0.135
G3 F40.0 X0.39 Y3.105 Z-0.15 I-0.04272 J0.01414
G1 X0.19
G3 Y3.015 I0.0 J-0.045
G1 X0.39
G3 Y3.105 I0.0 J0.045
G1 F10.0 Y3.155
G1 F40.0 X0.19
G3 Y2.965 I0.0 J-0.095
G1 X0.39
G3 Y3.155 I0.0 J0.095
G0 Z0.125
G0 X0.43272 Y3.04586
G1 F10.0 Z-0.15
G3 F40.0 X0.39 Y3.105 Z-0.165 I-0.04272 J0.01414
G1 X0.19
G3 Y3.015 I0.0 J-0.045
G1 X0.39
G3 Y3.105 I0.0 J0.045
G1 F10.0 Y3.155
G1 F40.0 X0.19
G3 Y2.965 I0.0 J-0.095
G1 X0.39
G3 Y3.155 I0.0 J0.095
G0 Z0.125
G0 X0.43272 Y3.04586
G1 F10.0 Z-0.165
G3 F40.0 X0.39 Y3.105 Z-0.18 I-0.04272 J0.01414
G1 X0.19
G3 Y3.015 I0.0 J-0.045
G1 X0.39
G3 Y3.105 I0.0 J0.045
G1 F10.0 Y3.155
G1 F40.0 X0.19
G3 Y2.965 I0.0 J-0.095
G1 X0.39
G3 Y3.155 I0.0 J0.095
G0 Z0.125
G0 X0.43272 Y3.04586
G1 F10.0 Z-0.18
G3 F40.0 X0.39 Y3.105 Z-0.195 I-0.04272 J0.01414
G1 X0.19
G3 Y3.015 I0.0 J-0.045
G1 X0.39
G3 Y3.105 I0.0 J0.045
G1 F10.0 Y3.155
G1 F40.0 X0.19
G3 Y2.965 I0.0 J-0.095
G1 X0.39
G3 Y3.155 I0.0 J0.095
G0 Z0.125
G0 X0.43272 Y3.04586
G1 F10.0 Z-0.195
G3 F40.0 X0.39 Y3.105 Z-0.21 I-0.04272 J0.01414
G1 X0.19
G3 Y3.015 I0.0 J-0.045
G1 X0.39
G3 Y3.105 I0.0 J0.045
G1 F10.0 Y3.155
G1 F40.0 X0.19
G3 Y2.965 I0.0 J-0.095
G1 X0.39
G3 Y3.155 I0.0 J0.095
G0 Z0.125
G0 X0.43272 Y3.04586
G1 F10.0 Z-0.21
G3 F40.0 X0.39 Y3.105 Z-0.225 I-0.04272 J0.01414
G1 X0.19
G3 Y3.015 I0.0 J-0.045
G1 X0.39
G3 Y3.105 I0.0 J0.045
G1 F10.0 Y3.155
G1 F40.0 X0.19
G3 Y2.965 I0.0 J-0.095
G1 X0.39
G3 Y3.155 I0.0 J0.095
G0 Z0.125
G0 X0.43272 Y3.04586
G1 F10.0 Z-0.225
G3 F40.0 X0.39 Y3.105 Z-0.24 I-0.04272 J0.01414
G1 X0.19
G3 Y3.015 I0.0 J-0.045
G1 X0.39
G3 Y3.105 I0.0 J0.045
G1 F10.0 Y3.155
G1 F40.0 X0.19
G3 Y2.965 I0.0 J-0.095
G1 X0.39
G3 Y3.155 I0.0 J0.095
G1 F10.0 X0.41652 Y3.09636
G3 F40.0 X0.39 Y3.105 Z-0.245 I-0.02652 J-0.03636
G1 X0.19
G3 Y3.015 I0.0 J-0.045
G1 X0.39
G3 Y3.105 I0.0 J0.045
G1 F10.0 Y3.155
G1 F40.0 X0.19
G3 Y2.965 I0.0 J-0.095
G1 X0.39
G3 Y3.155 I0.0 J0.095
G1 F10.0 X0.41652 Y3.09636
G3 F40.0 X0.39 Y3.105 Z-0.25 I-0.02652 J-0.03636
G1 X0.19
G3 Y3.015 I0.0 J-0.045
G1 X0.39
G3 Y3.105 I0.0 J0.045
G1 F10.0 Y3.155
G1 F40.0 X0.19
G3 Y2.965 I0.0 J-0.095
G1 X0.39
G3 Y3.155 I0.0 J0.095
G1 F10.0 Y3.16
G1 F40.0 X0.19
G3 Y2.96 I0.0 J-0.1
G1 X0.39
G3 Y3.16 I0.0 J0.1
G0 Z0.125
G0 X1.42902 Y3.105
G1 F10.0 Z0.0
G1 F40.0 X1.41024 Z-0.00331
G3 X1.36545 Y3.06439 Z-0.015 I0.0 J-0.045
G3 X1.41024 Y3.015 I0.04479 J-0.00439
G1 X1.61024
G3 Y3.105 I0.0 J0.045
G1 X1.41024
G3 X1.36545 Y3.06439 I0.0 J-0.045
G1 F10.0 X1.31569 Y3.06927
G3 F40.0 X1.41024 Y2.965 I0.09455 J-0.00927
G1 X1.61024
G3 Y3.155 I0.0 J0.095
G1 X1.41024
G3 X1.31569 Y3.06927 I0.0 J-0.095
G0 Z0.125
G0 X1.42902 Y3.105
G1 F10.0 Z-0.015
G1 F40.0 X1.41024 Z-0.01831
G3 X1.36545 Y3.06439 Z-0.03 I0.0 J-0.045
G3 X1.41024 Y3.015 I0.04479 J-0.00439
G1 X1.61024
G3 Y3.105 I0.0 J0.045
G1 X1.41024
G3 X1.36545 Y3.06439 I0.0 J-0.045
G1 F10.0 X1.31569 Y3.06927
G3 F40.0 X1.41024 Y2.965 I0.09455 J-0.00927
G1 X1.61024
G3 Y3.155 I0.0 J0.095
G1 X1.41024
G3 X1.31569 Y3.06927 I0.0 J-0.095
G0 Z0.125
G0 X1.42902 Y3.105
G1 F10.0 Z-0.03
G1 F40.0 X1.41024 Z-0.03331
G3 X1.36545 Y3.06439 Z-0.045 I0.0 J-0.045
G3 X1.41024 Y3.015 I0.04479 J-0.00439
G1 X1.61024
G3 Y3.105 I0.0 J0.045
G1 X1.41024
G3 X1.36545 Y3.06439 I0.0 J-0.045
G1 F10.0 X1.31569 Y3.06927
G3 F40.0 X1.41024 Y2.965 I0.09455 J-0.00927
G1 X1.61024
G3 Y3.155 I0.0 J0.095
G1 X1.41024
G3 X1.31569 Y3.06927 I0.0 J-0.095
G0 Z0.125
G0 X1.42902 Y3.105
G1 F10.0 Z-0.045
G1 F40.0 X1.41024 Z-0.04831
G3 X1.36545 Y3.06439 Z-0.06 I0.0 J-0.045
G3 X1.41024 Y3.015 I0.04479 J-0.00439
G1 X1.61024
G3 Y3.105 I0.0 J0.045
G1 X1.41024
G3 X1.36545 Y3.06439 I0.0 J-0.045
G1 F10.0 X1.31569 Y3.06927
G3 F40.0 X1.41024 Y2.965 I0.09455 J-0.00927
G1 X1.61024
G3 Y3.155 I0.0 J0.095
G1 X1.41024
G3 X1.31569 Y3.06927 I0.0 J-0.095
G0 Z0.125
G0 X1.42902 Y3.105
G1 F10.0 Z-0.06
G1 F40.0 X1.41024 Z-0.06331
G3 X1.36545 Y3.06439 Z-0.075 I0.0 J-0.045
G3 X1.41024 Y3.015 I0.04479 J-0.00439
G1 X1.61024
G3 Y3.105 I0.0 J0.045
G1 X1.41024
G3 X1.36545 Y3.06439 I0.0 J-0.045
G1 F10.0 X1.31569 Y3.06927
G3 F40.0 X1.41024 Y2.965 I0.09455 J-0.00927
G1 X1.61024
G3 Y3.155 I0.0 J0.095
G1 X1.41024
G3 X1.31569 Y3.06927 I0.0 J-0.095
G0 Z0.125
G0 X1.42902 Y3.105
G1 F10.0 Z-0.075
G1 F40.0 X1.41024 Z-0.07831
G3 X1.36545 Y3.06439 Z-0.09 I0.0 J-0.045
G3 X1.41024 Y3.015 I0.04479 J-0.00439
G1 X1.61024
G3 Y3.105 I0.0 J0.045
G1 X1.41024
G3 X1.36545 Y3.06439 I0.0 J-0.045
G1 F10.0 X1.31569 Y3.06927
G3 F40.0 X1.41024 Y2.965 I0.09455 J-0.00927
G1 X1.61024
G3 Y3.155 I0.0 J0.095
G1 X1.41024
G3 X1.31569 Y3.06927 I0.0 J-0.095
G0 Z0.125
G0 X1.42902 Y3.105
G1 F10.0 Z-0.09
G1 F40.0 X1.41024 Z-0.09331
G3 X1.36545 Y3.06439 Z-0.105 I0.0 J-0.045
G3 X1.41024 Y3.015 I0.04479 J-0.00439
G1 X1.61024
G3 Y3.105 I0.0 J0.045
G1 X1.41024
G3 X1.36545 Y3.06439 I0.0 J-0.045
G1 F10.0 X1.31569 Y3.06927
G3 F40.0 X1.41024 Y2.965 I0.09455 J-0.00927
G1 X1.61024
G3 Y3.155 I0.0 J0.095
G1 X1.41024
G3 X1.31569 Y3.06927 I0.0 J-0.095
G0 Z0.125
G0 X1.42902 Y3.105
G1 F10.0 Z-0.105
G1 F40.0 X1.41024 Z-0.10831
G3 X1.36545 Y3.06439 Z-0.12 I0.0 J-0.045
G3 X1.41024 Y3.015 I0.04479 J-0.00439
G1 X1.61024
G3 Y3.105 I0.0 J0.045
G1 X1.41024
G3 X1.36545 Y3.06439 I0.0 J-0.045
G1 F10.0 X1.31569 Y3.06927
G3 F40.0 X1.41024 Y2.965 I0.09455 J-0.00927
G1 X1.61024
G3 Y3.155 I0.0 J0.095
G1 X1.41024
G3 X1.31569 Y3.06927 I0.0 J-0.095
G0 Z0.125
G0 X1.42902 Y3.105
G1 F10.0 Z-0.12
G1 F40.0 X1.41024 Z-0.12331
G3 X1.36545 Y3.06439 Z-0.135 I0.0 J-0.045
G3 X1.41024 Y3.015 I0.04479 J-0.00439
G1 X1.61024
G3 Y3.105 I0.0 J0.045
G1 X1.41024
G3 X1.36545 Y3.06439 I0.0 J-0.045
G1 F10.0 X1.31569 Y3.06927
G3 F40.0 X1.41024 Y2.965 I0.09455 J-0.00927
G1 X1.61024
G3 Y3.155 I0.0 J0.095
G1 X1.41024
G3 X1.31569 Y3.06927 I0.0 J-0.095
G0 Z0.125
G0 X1.42902 Y3.105
G1 F10.0 Z-0.135
G1 F40.0 X1.41024 Z-0.13831
G3 X1.36545 Y3.06439 Z-0.15 I0.0 J-0.045
G3 X1.41024 Y3.015 I0.04479 J-0.00439
G1 X1.61024
G3 Y3.105 I0.0 J0.045
G1 X1.41024
G3 X1.36545 Y3.06439 I0.0 J-0.045
G1 F10.0 X1.31569 Y3.06927
G3 F40.0 X1.41024 Y2.965 I0.09455 J-0.00927
G1 X1.61024
G3 Y3.155 I0.0 J0.095
G1 X1.41024
G3 X1.31569 Y3.06927 I0.0 J-0.095
G0 Z0.125
G0 X1.42902 Y3.105
G1 F10.0 Z-0.15
G1 F40.0 X1.41024 Z-0.15331
G3 X1.36545 Y3.06439 Z-0.165 I0.0 J-0.045
G3 X1.41024 Y3.015 I0.04479 J-0.00439
G1 X1.61024
G3 Y3.105 I0.0 J0.045
G1 X1.41024
G3 X1.36545 Y3.06439 I0.0 J-0.045
G1 F10.0 X1.31569 Y3.06927
G3 F40.0 X1.41024 Y2.965 I0.09455 J-0.00927
G1 X1.61024
G3 Y3.155 I0.0 J0.095
G1 X1.41024
G3 X1.31569 Y3.06927 I0.0 J-0.095
G0 Z0.125
G0 X1.42902 Y3.105
G1 F10.0 Z-0.165
G1 F40.0 X1.41024 Z-0.16831
G3 X1.36545 Y3.06439 Z-0.18 I0.0 J-0.045
G3 X1.41024 Y3.015 I0.04479 J-0.00439
G1 X1.61024
G3 Y3.105 I0.0 J0.045
G1 X1.41024
G3 X1.36545 Y3.06439 I0.0 J-0.045
G1 F10.0 X1.31569 Y3.06927
G3 F40.0 X1.41024 Y2.965 I0.09455 J-0.00927
G1 X1.61024
G3 Y3.155 I0.0 J0.095
G1 X1.41024
G3 X1.31569 Y3.06927 I0.0 J-0.095
G0 Z0.125
G0 X1.42902 Y3.105
G1 F10.0 Z-0.18
G1 F40.0 X1.41024 Z-0.18331
G3 X1.36545 Y3.06439 Z-0.195 I0.0 J-0.045
G3 X1.41024 Y3.015 I0.04479 J-0.00439
G1 X1.61024
G3 Y3.105 I0.0 J0.045
G1 X1.41024
G3 X1.36545 Y3.06439 I0.0 J-0.045
G1 F10.0 X1.31569 Y3.06927
G3 F40.0 X1.41024 Y2.965 I0.09455 J-0.00927
G1 X1.61024
G3 Y3.155 I0.0 J0.095
G1 X1.41024
G3 X1.31569 Y3.06927 I0.0 J-0.095
G0 Z0.125
G0 X1.42902 Y3.105
G1 F10.0 Z-0.195
G1 F40.0 X1.41024 Z-0.19831
G3 X1.36545 Y3.06439 Z-0.21 I0.0 J-0.045
G3 X1.41024 Y3.015 I0.04479 J-0.00439
G1 X1.61024
G3 Y3.105 I0.0 J0.045
G1 X1.41024
G3 X1.36545 Y3.06439 I0.0 J-0.045
G1 F10.0 X1.31569 Y3.06927
G3 F40.0 X1.41024 Y2.965 I0.09455 J-0.00927
G1 X1.61024
G3 Y3.155 I0.0 J0.095
G1 X1.41024
G3 X1.31569 Y3.06927 I0.0 J-0.095
G0 Z0.125
G0 X1.42902 Y3.105
G1 F10.0 Z-0.21
G1 F40.0 X1.41024 Z-0.21331
G3 X1.36545 Y3.06439 Z-0.225 I0.0 J-0.045
G3 X1.41024 Y3.015 I0.04479 J-0.00439
G1 X1.61024
G3 Y3.105 I0.0 J0.045
G1 X1.41024
G3 X1.36545 Y3.06439 I0.0 J-0.045
G1 F10.0 X1.31569 Y3.06927
G3 F40.0 X1.41024 Y2.965 I0.09455 J-0.00927
G1 X1.61024
G3 Y3.155 I0.0 J0.095
G1 X1.41024
G3 X1.31569 Y3.06927 I0.0 J-0.095
G0 Z0.125
G0 X1.42902 Y3.105
G1 F10.0 Z-0.225
G1 F40.0 X1.41024 Z-0.22831
G3 X1.36545 Y3.06439 Z-0.24 I0.0 J-0.045
G3 X1.41024 Y3.015 I0.04479 J-0.00439
G1 X1.61024
G3 Y3.105 I0.0 J0.045
G1 X1.41024
G3 X1.36545 Y3.06439 I0.0 J-0.045
G1 F10.0 X1.31569 Y3.06927
G3 F40.0 X1.41024 Y2.965 I0.09455 J-0.00927
G1 X1.61024
G3 Y3.155 I0.0 J0.095
G1 X1.41024
G3 X1.31569 Y3.06927 I0.0 J-0.095
G1 F10.0 X1.37664 Y3.08994
G3 F40.0 X1.36545 Y3.06439 Z-0.245 I0.0336 J-0.02994
G3 X1.41024 Y3.015 I0.04479 J-0.00439
G1 X1.61024
G3 Y3.105 I0.0 J0.045
G1 X1.41024
G3 X1.36545 Y3.06439 I0.0 J-0.045
G1 F10.0 X1.31569 Y3.06927
G3 F40.0 X1.41024 Y2.965 I0.09455 J-0.00927
G1 X1.61024
G3 Y3.155 I0.0 J0.095
G1 X1.41024
G3 X1.31569 Y3.06927 I0.0 J-0.095
G1 F10.0 X1.37664 Y3.08994
G3 F40.0 X1.36545 Y3.06439 Z-0.25 I0.0336 J-0.02994
G3 X1.41024 Y3.015 I0.04479 J-0.00439
G1 X1.61024
G3 Y3.105 I0.0 J0.045
G1 X1.41024
G3 X1.36545 Y3.06439 I0.0 J-0.045
G1 F10.0 X1.31569 Y3.06927
G3 F40.0 X1.41024 Y2.965 I0.09455 J-0.00927
G1 X1.61024
G3 Y3.155 I0.0 J0.095
G1 X1.41024
G3 X1.31569 Y3.06927 I0.0 J-0.095
G1 F10.0 X1.31071 Y3.06975
G3 F40.0 X1.41024 Y2.96 I0.09952 J-0.00975
G1 X1.61024
G3 Y3.16 I0.0 J0.1
G1 X1.41024
G3 X1.31071 Y3.06975 I0.0 J-0.1
G0 Z0.125
G0 X1.49167 Y1.885
G1 F10.0 Z0.0
G1 F40.0 X1.41024 Z-0.01436
G3 X1.40661 Y1.88485 Z-0.015 I0.0 J-0.045
G3 X1.41024 Y1.795 I0.00363 J-0.04485
G1 X1.61024
G3 Y1.885 I0.0 J0.045
G1 X1.41024
G3 X1.40661 Y1.88485 I0.0 J-0.045
G1 F10.0 X1.40257 Y1.93469
G3 F40.0 X1.41024 Y1.745 I0.00766 J-0.09469
G1 X1.61024
G3 Y1.935 I0.0 J0.095
G1 X1.41024
G3 X1.40257 Y1.93469 I0.0 J-0.095
G0 Z0.125
G0 X1.49167 Y1.885
G1 F10.0 Z-0.015
G1 F40.0 X1.41024 Z-0.02936
G3 X1.40661 Y1.88485 Z-0.03 I0.0 J-0.045
G3 X1.41024 Y1.795 I0.00363 J-0.04485
G1 X1.61024
G3 Y1.885 I0.0 J0.045
G1 X1.41024
G3 X1.40661 Y1.88485 I0.0 J-0.045
G1 F10.0 X1.40257 Y1.93469
G3 F40.0 X1.41024 Y1.745 I0.00766 J-0.09469
G1 X1.61024
G3 Y1.935 I0.0 J0.095
G1 X1.41024
G3 X1.40257 Y1.93469 I0.0 J-0.095
G0 Z0.125
G0 X1.49167 Y1.885
G1 F10.0 Z-0.03
G1 F40.0 X1.41024 Z-0.04436
G3 X1.40661 Y1.88485 Z-0.045 I0.0 J-0.045
G3 X1.41024 Y1.795 I0.00363 J-0.04485
G1 X1.61024
G3 Y1.885 I0.0 J0.045
G1 X1.41024
G3 X1.40661 Y1.88485 I0.0 J-0.045
G1 F10.0 X1.40257 Y1.93469
G3 F40.0 X1.41024 Y1.745 I0.00766 J-0.09469
G1 X1.61024
G3 Y1.935 I0.0 J0.095
G1 X1.41024
G3 X1.40257 Y1.93469 I0.0 J-0.095
G0 Z0.125
G0 X1.49167 Y1.885
G1 F10.0 Z-0.045
G1 F40.0 X1.41024 Z-0.05936
G3 X1.40661 Y1.88485 Z-0.06 I0.0 J-0.045
G3 X1.41024 Y1.795 I0.00363 J-0.04485
G1 X1.61024
G3 Y1.885 I0.0 J0.045
G1 X1.41024
G3 X1.40661 Y1.88485 I0.0 J-0.045
G1 F10.0 X1.40257 Y1.93469
G3 F40.0 X1.41024 Y1.745 I0.00766 J-0.09469
G1 X1.61024
G3 Y1.935 I0.0 J0.095
G1 X1.41024
G3 X1.40257 Y1.93469 I0.0 J-0.095
G0 Z0.125
G0 X1.49167 Y1.885
G1 F10.0 Z-0.06
G1 F40.0 X1.41024 Z-0.07436
G3 X1.40661 Y1.88485 Z-0.075 I0.0 J-0.045
G3 X1.41024 Y1.795 I0.00363 J-0.04485
G1 X1.61024
G3 Y1.885 I0.0 J0.045
G1 X1.41024
G3 X1.40661 Y1.88485 I0.0 J-0.045
G1 F10.0 X1.40257 Y1.93469
G3 F40.0 X1.41024 Y1.745 I0.00766 J-0.09469
G1 X1.61024
G3 Y1.935 I0.0 J0.095
G1 X1.41024
G3 X1.40257 Y1.93469 I0.0 J-0.095
G0 Z0.125
G0 X1.49167 Y1.885
G1 F10.0 Z-0.075
G1 F40.0 X1.41024 Z-0.08936
G3 X1.40661 Y1.88485 Z-0.09 I0.0 J-0.045
G3 X1.41024 Y1.795 I0.00363 J-0.04485
G1 X1.61024
G3 Y1.885 I0.0 J0.045
G1 X1.41024
G3 X1.40661 Y1.88485 I0.0 J-0.045
G1 F10.0 X1.40257 Y1.93469
G3 F40.0 X1.41024 Y1.745 I0.00766 J-0.09469
G1 X1.61024
G3 Y1.935 I0.0 J0.095
G1 X1.41024
G3 X1.40257 Y1.93469 I0.0 J-0.095
G0 Z0.125
G0 X1.49167 Y1.885
G1 F10.0 Z-0.09
G1 F40.0 X1.41024 Z-0.10436
G3 X1.40661 Y1.88485 Z-0.105 I0.0 J-0.045
G3 X1.41024 Y1.795 I0.00363 J-0.04485
G1 X1.61024
G3 Y1.885 I0.0 J0.045
G1 X1.41024
G3 X1.40661 Y1.88485 I0.0 J-0.045
G1 F10.0 X1.40257 Y1.93469
G3 F40.0 X1.41024 Y1.745 I0.00766 J-0.09469
G1 X1.61024
G3 Y1.935 I0.0 J0.095
G1 X1.41024
G3 X1.40257 Y1.93469 I0.0 J-0.095
G0 Z0.125
G0 X1.49167 Y1.885
G1 F10.0 Z-0.105
G1 F40.0 X1.41024 Z-0.11936
G3 X1.40661 Y1.88485 Z-0.12 I0.0 J-0.045
G3 X1.41024 Y1.795 I0.00363 J-0.04485
G1 X1.61024
G3 Y1.885 I0.0 J0.045
G1 X1.41024
G3 X1.40661 Y1.88485 I0.0 J-0.045
G1 F10.0 X1.40257 Y1.93469
G3 F40.0 X1.41024 Y1.745 I0.00766 J-0.09469
G1 X1.61024
G3 Y1.935 I0.0 J0.095
G1 X1.41024
G3 X1.40257 Y1.93469 I0.0 J-0.095
G0 Z0.125
G0 X1.49167 Y1.885
G1 F10.0 Z-0.12
G1 F40.0 X1.41024 Z-0.13436
G3 X1.40661 Y1.88485 Z-0.135 I0.0 J-0.045
G3 X1.41024 Y1.795 I0.00363 J-0.04485
G1 X1.61024
G3 Y1.885 I0.0 J0.045
G1 X1.41024
G3 X1.40661 Y1.88485 I0.0 J-0.045
G1 F10.0 X1.40257 Y1.93469
G3 F40.0 X1.41024 Y1.745 I0.00766 J-0.09469
G1 X1.61024
G3 Y1.935 I0.0 J0.095
G1 X1.41024
G3 X1.40257 Y1.93469 I0.0 J-0.095
G0 Z0.125
G0 X1.49167 Y1.885
G1 F10.0 Z-0.135
G1 F40.0 X1.41024 Z-0.14936
G3 X1.40661 Y1.88485 Z-0.15 I0.0 J-0.045
G3 X1.41024 Y1.795 I0.00363 J-0.04485
G1 X1.61024
G3 Y1.885 I0.0 J0.045
G1 X1.41024
G3 X1.40661 Y1.88485 I0.0 J-0.045
G1 F10.0 X1.40257 Y1.93469
G3 F40.0 X1.41024 Y1.745 I0.00766 J-0.09469
G1 X1.61024
G3 Y1.935 I0.0 J0.095
G1 X1.41024
G3 X1.40257 Y1.93469 I0.0 J-0.095
G0 Z0.125
G0 X1.49167 Y1.885
G1 F10.0 Z-0.15
G1 F40.0 X1.41024 Z-0.16436
G3 X1.40661 Y1.88485 Z-0.165 I0.0 J-0.045
G3 X1.41024 Y1.795 I0.00363 J-0.04485
G1 X1.61024
G3 Y1.885 I0.0 J0.045
G1 X1.41024
G3 X1.40661 Y1.88485 I0.0 J-0.045
G1 F10.0 X1.40257 Y1.93469
G3 F40.0 X1.41024 Y1.745 I0.00766 J-0.09469
G1 X1.61024
G3 Y1.935 I0.0 J0.095
G1 X1.41024
G3 X1.40257 Y1.93469 I0.0 J-0.095
G0 Z0.125
G0 X1.49167 Y1.885
G1 F10.0 Z-0.165
G1 F40.0 X1.41024 Z-0.17936
G3 X1.40661 Y1.88485 Z-0.18 I0.0 J-0.045
G3 X1.41024 Y1.795 I0.00363 J-0.04485
G1 X1.61024
G3 Y1.885 I0.0 J0.045
G1 X1.41024
G3 X1.40661 Y1.88485 I0.0 J-0.045
G1 F10.0 X1.40257 Y1.93469
G3 F40.0 X1.41024 Y1.745 I0.00766 J-0.09469
G1 X1.61024
G3 Y1.935 I0.0 J0.095
G1 X1.41024
G3 X1.40257 Y1.93469 I0.0 J-0.095
G0 Z0.125
G0 X1.49167 Y1.885
G1 F10.0 Z-0.18
G1 F40.0 X1.41024 Z-0.19436
G3 X1.40661 Y1.88485 Z-0.195 I0.0 J-0.045
G3 X1.41024 Y1.795 I0.00363 J-0.04485
G1 X1.61024
G3 Y1.885 I0.0 J0.045
G1 X1.41024
G3 X1.40661 Y1.88485 I0.0 J-0.045
G1 F10.0 X1.40257 Y1.93469
G3 F40.0 X1.41024 Y1.745 I0.00766 J-0.09469
G1 X1.61024
G3 Y1.935 I0.0 J0.095
G1 X1.41024
G3 X1.40257 Y1.93469 I0.0 J-0.095
G0 Z0.125
G0 X1.49167 Y1.885
G1 F10.0 Z-0.195
G1 F40.0 X1.41024 Z-0.20936
G3 X1.40661 Y1.88485 Z-0.21 I0.0 J-0.045
G3 X1.41024 Y1.795 I0.00363 J-0.04485
G1 X1.61024
G3 Y1.885 I0.0 J0.045
G1 X1.41024
G3 X1.40661 Y1.88485 I0.0 J-0.045
G1 F10.0 X1.40257 Y1.93469
G3 F40.0 X1.41024 Y1.745 I0.00766 J-0.09469
G1 X1.61024
G3 Y1.935 I0.0 J0.095
G1 X1.41024
G3 X1.40257 Y1.93469 I0.0 J-0.095
G0 Z0.125
G0 X1.49167 Y1.885
G1 F10.0 Z-0.21
G1 F40.0 X1.41024 Z-0.22436
G3 X1.40661 Y1.88485 Z-0.225 I0.0 J-0.045
G3 X1.41024 Y1.795 I0.00363 J-0.04485
G1 X1.61024
G3 Y1.885 I0.0 J0.045
G1 X1.41024
G3 X1.40661 Y1.88485 I0.0 J-0.045
G1 F10.0 X1.40257 Y1.93469
G3 F40.0 X1.41024 Y1.745 I0.00766 J-0.09469
G1 X1.61024
G3 Y1.935 I0.0 J0.095
G1 X1.41024
G3 X1.40257 Y1.93469 I0.0 J-0.095
G0 Z0.125
G0 X1.49167 Y1.885
G1 F10.0 Z-0.225
G1 F40.0 X1.41024 Z-0.23936
G3 X1.40661 Y1.88485 Z-0.24 I0.0 J-0.045
G3 X1.41024 Y1.795 I0.00363 J-0.04485
G1 X1.61024
G3 Y1.885 I0.0 J0.045
G1 X1.41024
G3 X1.40661 Y1.88485 I0.0 J-0.045
G1 F10.0 X1.40257 Y1.93469
G3 F40.0 X1.41024 Y1.745 I0.00766 J-0.09469
G1 X1.61024
G3 Y1.935 I0.0 J0.095
G1 X1.41024
G3 X1.40257 Y1.93469 I0.0 J-0.095
G1 F10.0 X1.43496 Y1.885
G1 F40.0 X1.41024 Z-0.24436
G3 X1.40661 Y1.88485 Z-0.245 I0.0 J-0.045
G3 X1.41024 Y1.795 I0.00363 J-0.04485
G1 X1.61024
G3 Y1.885 I0.0 J0.045
G1 X1.41024
G3 X1.40661 Y1.88485 I0.0 J-0.045
G1 F10.0 X1.40257 Y1.93469
G3 F40.0 X1.41024 Y1.745 I0.00766 J-0.09469
G1 X1.61024
G3 Y1.935 I0.0 J0.095
G1 X1.41024
G3 X1.40257 Y1.93469 I0.0 J-0.095
G1 F10.0 X1.43496 Y1.885
G1 F40.0 X1.41024 Z-0.24936
G3 X1.40661 Y1.88485 Z-0.25 I0.0 J-0.045
G3 X1.41024 Y1.795 I0.00363 J-0.04485
G1 X1.61024
G3 Y1.885 I0.0 J0.045
G1 X1.41024
G3 X1.40661 Y1.88485 I0.0 J-0.045
G1 F10.0 X1.40257 Y1.93469
G3 F40.0 X1.41024 Y1.745 I0.00766 J-0.09469
G1 X1.61024
G3 Y1.935 I0.0 J0.095
G1 X1.41024
G3 X1.40257 Y1.93469 I0.0 J-0.095
G1 F10.0 X1.40217 Y1.93967
G3 F40.0 X1.41024 Y1.74 I0.00807 J-0.09967
G1 X1.61024
G3 Y1.94 I0.0 J0.1
G1 X1.41024
G3 X1.40217 Y1.93967 I0.0 J-0.1
G0 Z0.125
G0 X0.38003 Y1.795
G1 F10.0 Z0.0
G1 F40.0 X0.39 Z-0.00176
G3 X0.43478 Y1.84441 Z-0.015 I0.0 J0.045
G3 X0.39 Y1.885 I-0.04478 J-0.00441
G1 X0.19
G3 Y1.795 I0.0 J-0.045
G1 X0.39
G3 X0.43478 Y1.84441 I0.0 J0.045
G1 F10.0 X0.48454 Y1.84931
G3 F40.0 X0.39 Y1.935 I-0.09454 J-0.00931
G1 X0.19
G3 Y1.745 I0.0 J-0.095
G1 X0.39
G3 X0.48454 Y1.84931 I0.0 J0.095
G0 Z0.125
G0 X0.38003 Y1.795
G1 F10.0 Z-0.015
G1 F40.0 X0.39 Z-0.01676
G3 X0.43478 Y1.84441 Z-0.03 I0.0 J0.045
G3 X0.39 Y1.885 I-0.04478 J-0.00441
G1 X0.19
G3 Y1.795 I0.0 J-0.045
G1 X0.39
G3 X0.43478 Y1.84441 I0.0 J0.045
G1 F10.0 X0.48454 Y1.84931
G3 F40.0 X0.39 Y1.935 I-0.09454 J-0.00931
G1 X0.19
G3 Y1.745 I0.0 J-0.095
G1 X0.39
G3 X0.48454 Y1.84931 I0.0 J0.095
G0 Z0.125
G0 X0.38003 Y1.795
G1 F10.0 Z-0.03
G1 F40.0 X0.39 Z-0.03176
G3 X0.43478 Y1.84441 Z-0.045 I0.0 J0.045
G3 X0.39 Y1.885 I-0.04478 J-0.00441
G1 X0.19
G3 Y1.795 I0.0 J-0.045
G1 X0.39
G3 X0.43478 Y1.84441 I0.0 J0.045
G1 F10.0 X0.48454 Y1.84931
G3 F40.0 X0.39 Y1.935 I-0.09454 J-0.00931
G1 X0.19
G3 Y1.745 I0.0 J-0.095
G1 X0.39
G3 X0.48454 Y1.84931 I0.0 J0.095
G0 Z0.125
G0 X0.38003 Y1.795
G1 F10.0 Z-0.045
G1 F40.0 X0.39 Z-0.04676
G3 X0.43478 Y1.84441 Z-0.06 I0.0 J0.045
G3 X0.39 Y1.885 I-0.04478 J-0.00441
G1 X0.19
G3 Y1.795 I0.0 J-0.045
G1 X0.39
G3 X0.43478 Y1.84441 I0.0 J0.045
G1 F10.0 X0.48454 Y1.84931
G3 F40.0 X0.39 Y1.935 I-0.09454 J-0.00931
G1 X0.19
G3 Y1.745 I0.0 J-0.095
G1 X0.39
G3 X0.48454 Y1.84931 I0.0 J0.095
G0 Z0.125
G0 X0.38003 Y1.795
G1 F10.0 Z-0.06
G1 F40.0 X0.39 Z-0.06176
G3 X0.43478 Y1.84441 Z-0.075 I0.0 J0.045
G3 X0.39 Y1.885 I-0.04478 J-0.00441
G1 X0.19
G3 Y1.795 I0.0 J-0.045
G1 X0.39
G3 X0.43478 Y1.84441 I0.0 J0.045
G1 F10.0 X0.48454 Y1.84931
G3 F40.0 X0.39 Y1.935 I-0.09454 J-0.00931
G1 X0.19
G3 Y1.745 I0.0 J-0.095
G1 X0.39
G3 X0.48454 Y1.84931 I0.0 J0.095
G0 Z0.125
G0 X0.38003 Y1.795
G1 F10.0 Z-0.075
G1 F40.0 X0.39 Z-0.07676
G3 X0.43478 Y1.84441 Z-0.09 I0.0 J0.045
G3 X0.39 Y1.885 I-0.04478 J-0.00441
G1 X0.19
G3 Y1.795 I0.0 J-0.045
G1 X0.39
G3 X0.43478 Y1.84441 I0.0 J0.045
G1 F10.0 X0.48454 Y1.84931
G3 F40.0 X0.39 Y1.935 I-0.09454 J-0.00931
G1 X0.19
G3 Y1.745 I0.0 J-0.095
G1 X0.39
G3 X0.48454 Y1.84931 I0.0 J0.095
G0 Z0.125
G0 X0.38003 Y1.795
G1 F10.0 Z-0.09
G1 F40.0 X0.39 Z-0.09176
G3 X0.43478 Y1.84441 Z-0.105 I0.0 J0.045
G3 X0.39 Y1.885 I-0.04478 J-0.00441
G1 X0.19
G3 Y1.795 I0.0 J-0.045
G1 X0.39
G3 X0.43478 Y1.84441 I0.0 J0.045
G1 F10.0 X0.48454 Y1.84931
G3 F40.0 X0.39 Y1.935 I-0.09454 J-0.00931
G1 X0.19
G3 Y1.745 I0.0 J-0.095
G1 X0.39
G3 X0.48454 Y1.84931 I0.0 J0.095
G0 Z0.125
G0 X0.38003 Y1.795
G1 F10.0 Z-0.105
G1 F40.0 X0.39 Z-0.10676
G3 X0.43478 Y1.84441 Z-0.12 I0.0 J0.045
G3 X0.39 Y1.885 I-0.04478 J-0.00441
G1 X0.19
G3 Y1.795 I0.0 J-0.045
G1 X0.39
G3 X0.43478 Y1.84441 I0.0 J0.045
G1 F10.0 X0.48454 Y1.84931
G3 F40.0 X0.39 Y1.935 I-0.09454 J-0.00931
G1 X0.19
G3 Y1.745 I0.0 J-0.095
G1 X0.39
G3 X0.48454 Y1.84931 I0.0 J0.095
G0 Z0.125
G0 X0.38003 Y1.795
G1 F10.0 Z-0.12
G1 F40.0 X0.39 Z-0.12176
G3 X0.43478 Y1.84441 Z-0.135 I0.0 J0.045
G3 X0.39 Y1.885 I-0.04478 J-0.00441
G1 X0.19
G3 Y1.795 I0.0 J-0.045
G1 X0.39
G3 X0.43478 Y1.84441 I0.0 J0.045
G1 F10.0 X0.48454 Y1.84931
G3 F40.0 X0.39 Y1.935 I-0.09454 J-0.00931
G1 X0.19
G3 Y1.745 I0.0 J-0.095
G1 X0.39
G3 X0.48454 Y1.84931 I0.0 J0.095
G0 Z0.125
G0 X0.38003 Y1.795
G1 F10.0 Z-0.135
G1 F40.0 X0.39 Z-0.13676
G3 X0.43478 Y1.84441 Z-0.15 I0.0 J0.045
G3 X0.39 Y1.885 I-0.04478 J-0.00441
G1 X0.19
G3 Y1.795 I0.0 J-0.045
G1 X0.39
G3 X0.43478 Y1.84441 I0.0 J0.045
G1 F10.0 X0.48454 Y1.84931
G3 F40.0 X0.39 Y1.935 I-0.09454 J-0.00931
G1 X0.19
G3 Y1.745 I0.0 J-0.095
G1 X0.39
G3 X0.48454 Y1.84931 I0.0 J0.095
G0 Z0.125
G0 X0.38003 Y1.795
G1 F10.0 Z-0.15
G1 F40.0 X0.39 Z-0.15176
G3 X0.43478 Y1.84441 Z-0.165 I0.0 J0.045
G3 X0.39 Y1.885 I-0.04478 J-0.00441
G1 X0.19
G3 Y1.795 I0.0 J-0.045
G1 X0.39
G3 X0.43478 Y1.84441 I0.0 J0.045
G1 F10.0 X0.48454 Y1.84931
G3 F40.0 X0.39 Y1.935 I-0.09454 J-0.00931
G1 X0.19
G3 Y1.745 I0.0 J-0.095
G1 X0.39
G3 X0.48454 Y1.84931 I0.0 J0.095
G0 Z0.125
G0 X0.38003 Y1.795
G1 F10.0 Z-0.165
G1 F40.0 X0.39 Z-0.16676
G3 X0.43478 Y1.84441 Z-0.18 I0.0 J0.045
G3 X0.39 Y1.885 I-0.04478 J-0.00441
G1 X0.19
G3 Y1.795 I0.0 J-0.045
G1 X0.39
G3 X0.43478 Y1.84441 I0.0 J0.045
G1 F10.0 X0.48454 Y1.84931
G3 F40.0 X0.39 Y1.935 I-0.09454 J-0.00931
G1 X0.19
G3 Y1.745 I0.0 J-0.095
G1 X0.39
G3 X0.48454 Y1.84931 I0.0 J0.095
G0 Z0.125
G0 X0.38003 Y1.795
G1 F10.0 Z-0.18
G1 F40.0 X0.39 Z-0.18176
G3 X0.43478 Y1.84441 Z-0.195 I0.0 J0.045
G3 X0.39 Y1.885 I-0.04478 J-0.00441
G1 X0.19
G3 Y1.795 I0.0 J-0.045
G1 X0.39
G3 X0.43478 Y1.84441 I0.0 J0.045
G1 F10.0 X0.48454 Y1.84931
G3 F40.0 X0.39 Y1.935 I-0.09454 J-0.00931
G1 X0.19
G3 Y1.745 I0.0 J-0.095
G1 X0.39
G3 X0.48454 Y1.84931 I0.0 J0.095
G0 Z0.125
G0 X0.38003 Y1.795
G1 F10.0 Z-0.195
G1 F40.0 X0.39 Z-0.19676
G3 X0.43478 Y1.84441 Z-0.21 I0.0 J0.045
G3 X0.39 Y1.885 I-0.04478 J-0.00441
G1 X0.19
G3 Y1.795 I0.0 J-0.045
G1 X0.39
G3 X0.43478 Y1.84441 I0.0 J0.045
G1 F10.0 X0.48454 Y1.84931
G3 F40.0 X0.39 Y1.935 I-0.09454 J-0.00931
G1 X0.19
G3 Y1.745 I0.0 J-0.095
G1 X0.39
G3 X0.48454 Y1.84931 I0.0 J0.095
G0 Z0.125
G0 X0.38003 Y1.795
G1 F10.0 Z-0.21
G1 F40.0 X0.39 Z-0.21176
G3 X0.43478 Y1.84441 Z-0.225 I0.0 J0.045
G3 X0.39 Y1.885 I-0.04478 J-0.00441
G1 X0.19
G3 Y1.795 I0.0 J-0.045
G1 X0.39
G3 X0.43478 Y1.84441 I0.0 J0.045
G1 F10.0 X0.48454 Y1.84931
G3 F40.0 X0.39 Y1.935 I-0.09454 J-0.00931
G1 X0.19
G3 Y1.745 I0.0 J-0.095
G1 X0.39
G3 X0.48454 Y1.84931 I0.0 J0.095
G0 Z0.125
G0 X0.38003 Y1.795
G1 F10.0 Z-0.225
G1 F40.0 X0.39 Z-0.22676
G3 X0.43478 Y1.84441 Z-0.24 I0.0 J0.045
G3 X0.39 Y1.885 I-0.04478 J-0.00441
G1 X0.19
G3 Y1.795 I0.0 J-0.045
G1 X0.39
G3 X0.43478 Y1.84441 I0.0 J0.045
G1 F10.0 X0.48454 Y1.84931
G3 F40.0 X0.39 Y1.935 I-0.09454 J-0.00931
G1 X0.19
G3 Y1.745 I0.0 J-0.095
G1 X0.39
G3 X0.48454 Y1.84931 I0.0 J0.095
G1 F10.0 X0.42878 Y1.81717
G3 F40.0 X0.43478 Y1.84441 Z-0.245 I-0.03878 J0.02283
G3 X0.39 Y1.885 I-0.04478 J-0.00441
G1 X0.19
G3 Y1.795 I0.0 J-0.045
G1 X0.39
G3 X0.43478 Y1.84441 I0.0 J0.045
G1 F10.0 X0.48454 Y1.84931
G3 F40.0 X0.39 Y1.935 I-0.09454 J-0.00931
G1 X0.19
G3 Y1.745 I0.0 J-0.095
G1 X0.39
G3 X0.48454 Y1.84931 I0.0 J0.095
G1 F10.0 X0.42878 Y1.81717
G3 F40.0 X0.43478 Y1.84441 Z-0.25 I-0.03878 J0.02283
G3 X0.39 Y1.885 I-0.04478 J-0.00441
G1 X0.19
G3 Y1.795 I0.0 J-0.045
G1 X0.39
G3 X0.43478 Y1.84441 I0.0 J0.045
G1 F10.0 X0.48454 Y1.84931
G3 F40.0 X0.39 Y1.935 I-0.09454 J-0.00931
G1 X0.19
G3 Y1.745 I0.0 J-0.095
G1 X0.39
G3 X0.48454 Y1.84931 I0.0 J0.095
G1 F10.0 X0.48952 Y1.8498
G3 F40.0 X0.39 Y1.94 I-0.09952 J-0.0098
G1 X0.19
G3 Y1.74 I0.0 J-0.1
G1 X0.39
G3 X0.48952 Y1.8498 I0.0 J0.1
G0 Z0.125
G0 X11.61815 Y1.85624
G1 F10.0 Z0.0
G3 F40.0 X11.57375 Y1.86815 Z-0.009 I-0.02815 J-0.01624
G3 X11.5575 Y1.84003 Z-0.015 I0.01625 J-0.02815
G3 X11.57375 Y1.81185 I0.0325 J-0.00003
G3 X11.6225 Y1.84 I0.01625 J0.02815
G3 X11.57375 Y1.86815 I-0.0325 J0.0
G3 X11.5575 Y1.84003 I0.01625 J-0.02815
G1 F10.0 X11.5075 Y1.84007
G3 F40.0 X11.54875 Y1.76855 I0.0825 J-0.00007
G3 X11.6725 Y1.84 I0.04125 J0.07145
G3 X11.54875 Y1.91145 I-0.0825 J0.0
G3 X11.5075 Y1.84007 I0.04125 J-0.07145
G0 Z0.125
G0 X11.61815 Y1.85624
G1 F10.0 Z-0.015
G3 F40.0 X11.57375 Y1.86815 Z-0.024 I-0.02815 J-0.01624
G3 X11.5575 Y1.84003 Z-0.03 I0.01625 J-0.02815
G3 X11.57375 Y1.81185 I0.0325 J-0.00003
G3 X11.6225 Y1.84 I0.01625 J0.02815
G3 X11.57375 Y1.86815 I-0.0325 J0.0
G3 X11.5575 Y1.84003 I0.01625 J-0.02815
G1 F10.0 X11.5075 Y1.84007
G3 F40.0 X11.54875 Y1.76855 I0.0825 J-0.00007
G3 X11.6725 Y1.84 I0.04125 J0.07145
G3 X11.54875 Y1.91145 I-0.0825 J0.0
G3 X11.5075 Y1.84007 I0.04125 J-0.07145
G0 Z0.125
G0 X11.61815 Y1.85624
G1 F10.0 Z-0.03
G3 F40.0 X11.57375 Y1.86815 Z-0.039 I-0.02815 J-0.01624
G3 X11.5575 Y1.84003 Z-0.045 I0.01625 J-0.02815
G3 X11.57375 Y1.81185 I0.0325 J-0.00003
G3 X11.6225 Y1.84 I0.01625 J0.02815
G3 X11.57375 Y1.86815 I-0.0325 J0.0
G3 X11.5575 Y1.84003 I0.01625 J-0.02815
G1 F10.0 X11.5075 Y1.84007
G3 F40.0 X11.54875 Y1.76855 I0.0825 J-0.00007
G3 X11.6725 Y1.84 I0.04125 J0.07145
G3 X11.54875 Y1.91145 I-0.0825 J0.0
G3 X11.5075 Y1.84007 I0.04125 J-0.07145
G0 Z0.125
G0 X11.61815 Y1.85624
G1 F10.0 Z-0.045
G3 F40.0 X11.57375 Y1.86815 Z-0.054 I-0.02815 J-0.01624
G3 X11.5575 Y1.84003 Z-0.06 I0.01625 J-0.02815
G3 X11.57375 Y1.81185 I0.0325 J-0.00003
G3 X11.6225 Y1.84 I0.01625 J0.02815
G3 X11.57375 Y1.86815 I-0.0325 J0.0
G3 X11.5575 Y1.84003 I0.01625 J-0.02815
G1 F10.0 X11.5075 Y1.84007
G3 F40.0 X11.54875 Y1.76855 I0.0825 J-0.00007
G3 X11.6725 Y1.84 I0.04125 J0.07145
G3 X11.54875 Y1.91145 I-0.0825 J0.0
G3 X11.5075 Y1.84007 I0.04125 J-0.07145
G0 Z0.125
G0 X11.61815 Y1.85624
G1 F10.0 Z-0.06
G3 F40.0 X11.57375 Y1.86815 Z-0.069 I-0.02815 J-0.01624
G3 X11.5575 Y1.84003 Z-0.075 I0.01625 J-0.02815
G3 X11.57375 Y1.81185 I0.0325 J-0.00003
G3 X11.6225 Y1.84 I0.01625 J0.02815
G3 X11.57375 Y1.86815 I-0.0325 J0.0
G3 X11.5575 Y1.84003 I0.01625 J-0.02815
G1 F10.0 X11.5075 Y1.84007
G3 F40.0 X11.54875 Y1.76855 I0.0825 J-0.00007
G3 X11.6725 Y1.84 I0.04125 J0.07145
G3 X11.54875 Y1.91145 I-0.0825 J0.0
G3 X11.5075 Y1.84007 I0.04125 J-0.07145
G0 Z0.125
G0 X11.61815 Y1.85624
G1 F10.0 Z-0.075
G3 F40.0 X11.57375 Y1.86815 Z-0.084 I-0.02815 J-0.01624
G3 X11.5575 Y1.84003 Z-0.09 I0.01625 J-0.02815
G3 X11.57375 Y1.81185 I0.0325 J-0.00003
G3 X11.6225 Y1.84 I0.01625 J0.02815
G3 X11.57375 Y1.86815 I-0.0325 J0.0
G3 X11.5575 Y1.84003 I0.01625 J-0.02815
G1 F10.0 X11.5075 Y1.84007
G3 F40.0 X11.54875 Y1.76855 I0.0825 J-0.00007
G3 X11.6725 Y1.84 I0.04125 J0.07145
G3 X11.54875 Y1.91145 I-0.0825 J0.0
G3 X11.5075 Y1.84007 I0.04125 J-0.07145
G0 Z0.125
G0 X11.61815 Y1.85624
G1 F10.0 Z-0.09
G3 F40.0 X11.57375 Y1.86815 Z-0.099 I-0.02815 J-0.01624
G3 X11.5575 Y1.84003 Z-0.105 I0.01625 J-0.02815
G3 X11.57375 Y1.81185 I0.0325 J-0.00003
G3 X11.6225 Y1.84 I0.01625 J0.02815
G3 X11.57375 Y1.86815 I-0.0325 J0.0
G3 X11.5575 Y1.84003 I0.01625 J-0.02815
G1 F10.0 X11.5075 Y1.84007
G3 F40.0 X11.54875 Y1.76855 I0.0825 J-0.00007
G3 X11.6725 Y1.84 I0.04125 J0.07145
G3 X11.54875 Y1.91145 I-0.0825 J0.0
G3 X11.5075 Y1.84007 I0.04125 J-0.07145
G0 Z0.125
G0 X11.61815 Y1.85624
G1 F10.0 Z-0.105
G3 F40.0 X11.57375 Y1.86815 Z-0.114 I-0.02815 J-0.01624
G3 X11.5575 Y1.84003 Z-0.12 I0.01625 J-0.02815
G3 X11.57375 Y1.81185 I0.0325 J-0.00003
G3 X11.6225 Y1.84 I0.01625 J0.02815
G3 X11.57375 Y1.86815 I-0.0325 J0.0
G3 X11.5575 Y1.84003 I0.01625 J-0.02815
G1 F10.0 X11.5075 Y1.84007
G3 F40.0 X11.54875 Y1.76855 I0.0825 J-0.00007
G3 X11.6725 Y1.84 I0.04125 J0.07145
G3 X11.54875 Y1.91145 I-0.0825 J0.0
G3 X11.5075 Y1.84007 I0.04125 J-0.07145
G0 Z0.125
G0 X11.61815 Y1.85624
G1 F10.0 Z-0.12
G3 F40.0 X11.57375 Y1.86815 Z-0.129 I-0.02815 J-0.01624
G3 X11.5575 Y1.84003 Z-0.135 I0.01625 J-0.02815
G3 X11.57375 Y1.81185 I0.0325 J-0.00003
G3 X11.6225 Y1.84 I0.01625 J0.02815
G3 X11.57375 Y1.86815 I-0.0325 J0.0
G3 X11.5575 Y1.84003 I0.01625 J-0.02815
G1 F10.0 X11.5075 Y1.84007
G3 F40.0 X11.54875 Y1.76855 I0.0825 J-0.00007
G3 X11.6725 Y1.84 I0.04125 J0.07145
G3 X11.54875 Y1.91145 I-0.0825 J0.0
G3 X11.5075 Y1.84007 I0.04125 J-0.07145
G0 Z0.125
G0 X11.61815 Y1.85624
G1 F10.0 Z-0.135
G3 F40.0 X11.57375 Y1.86815 Z-0.144 I-0.02815 J-0.01624
G3 X11.5575 Y1.84003 Z-0.15 I0.01625 J-0.02815
G3 X11.57375 Y1.81185 I0.0325 J-0.00003
G3 X11.6225 Y1.84 I0.01625 J0.02815
G3 X11.57375 Y1.86815 I-0.0325 J0.0
G3 X11.5575 Y1.84003 I0.01625 J-0.02815
G1 F10.0 X11.5075 Y1.84007
G3 F40.0 X11.54875 Y1.76855 I0.0825 J-0.00007
G3 X11.6725 Y1.84 I0.04125 J0.07145
G3 X11.54875 Y1.91145 I-0.0825 J0.0
G3 X11.5075 Y1.84007 I0.04125 J-0.07145
G0 Z0.125
G0 X11.61815 Y1.85624
G1 F10.0 Z-0.15
G3 F40.0 X11.57375 Y1.86815 Z-0.159 I-0.02815 J-0.01624
G3 X11.5575 Y1.84003 Z-0.165 I0.01625 J-0.02815
G3 X11.57375 Y1.81185 I0.0325 J-0.00003
G3 X11.6225 Y1.84 I0.01625 J0.02815
G3 X11.57375 Y1.86815 I-0.0325 J0.0
G3 X11.5575 Y1.84003 I0.01625 J-0.02815
G1 F10.0 X11.5075 Y1.84007
G3 F40.0 X11.54875 Y1.76855 I0.0825 J-0.00007
G3 X11.6725 Y1.84 I0.04125 J0.07145
G3 X11.54875 Y1.91145 I-0.0825 J0.0
G3 X11.5075 Y1.84007 I0.04125 J-0.07145
G0 Z0.125
G0 X11.61815 Y1.85624
G1 F10.0 Z-0.165
G3 F40.0 X11.57375 Y1.86815 Z-0.174 I-0.02815 J-0.01624
G3 X11.5575 Y1.84003 Z-0.18 I0.01625 J-0.02815
G3 X11.57375 Y1.81185 I0.0325 J-0.00003
G3 X11.6225 Y1.84 I0.01625 J0.02815
G3 X11.57375 Y1.86815 I-0.0325 J0.0
G3 X11.5575 Y1.84003 I0.01625 J-0.02815
G1 F10.0 X11.5075 Y1.84007
G3 F40.0 X11.54875 Y1.76855 I0.0825 J-0.00007
G3 X11.6725 Y1.84 I0.04125 J0.07145
G3 X11.54875 Y1.91145 I-0.0825 J0.0
G3 X11.5075 Y1.84007 I0.04125 J-0.07145
G0 Z0.125
G0 X11.61815 Y1.85624
G1 F10.0 Z-0.18
G3 F40.0 X11.57375 Y1.86815 Z-0.189 I-0.02815 J-0.01624
G3 X11.5575 Y1.84003 Z-0.195 I0.01625 J-0.02815
G3 X11.57375 Y1.81185 I0.0325 J-0.00003
G3 X11.6225 Y1.84 I0.01625 J0.02815
G3 X11.57375 Y1.86815 I-0.0325 J0.0
G3 X11.5575 Y1.84003 I0.01625 J-0.02815
G1 F10.0 X11.5075 Y1.84007
G3 F40.0 X11.54875 Y1.76855 I0.0825 J-0.00007
G3 X11.6725 Y1.84 I0.04125 J0.07145
G3 X11.54875 Y1.91145 I-0.0825 J0.0
G3 X11.5075 Y1.84007 I0.04125 J-0.07145
G0 Z0.125
G0 X11.61815 Y1.85624
G1 F10.0 Z-0.195
G3 F40.0 X11.57375 Y1.86815 Z-0.204 I-0.02815 J-0.01624
G3 X11.5575 Y1.84003 Z-0.21 I0.01625 J-0.02815
G3 X11.57375 Y1.81185 I0.0325 J-0.00003
G3 X11.6225 Y1.84 I0.01625 J0.02815
G3 X11.57375 Y1.86815 I-0.0325 J0.0
G3 X11.5575 Y1.84003 I0.01625 J-0.02815
G1 F10.0 X11.5075 Y1.84007
G3 F40.0 X11.54875 Y1.76855 I0.0825 J-0.00007
G3 X11.6725 Y1.84 I0.04125 J0.07145
G3 X11.54875 Y1.91145 I-0.0825 J0.0
G3 X11.5075 Y1.84007 I0.04125 J-0.07145
G0 Z0.125
G0 X11.61815 Y1.85624
G1 F10.0 Z-0.21
G3 F40.0 X11.57375 Y1.86815 Z-0.219 I-0.02815 J-0.01624
G3 X11.5575 Y1.84003 Z-0.225 I0.01625 J-0.02815
G3 X11.57375 Y1.81185 I0.0325 J-0.00003
G3 X11.6225 Y1.84 I0.01625 J0.02815
G3 X11.57375 Y1.86815 I-0.0325 J0.0
G3 X11.5575 Y1.84003 I0.01625 J-0.02815
G1 F10.0 X11.5075 Y1.84007
G3 F40.0 X11.54875 Y1.76855 I0.0825 J-0.00007
G3 X11.6725 Y1.84 I0.04125 J0.07145
G3 X11.54875 Y1.91145 I-0.0825 J0.0
G3 X11.5075 Y1.84007 I0.04125 J-0.07145
G0 Z0.125
G0 X11.61815 Y1.85624
G1 F10.0 Z-0.225
G3 F40.0 X11.57375 Y1.86815 Z-0.234 I-0.02815 J-0.01624
G3 X11.5575 Y1.84003 Z-0.24 I0.01625 J-0.02815
G3 X11.57375 Y1.81185 I0.0325 J-0.00003
G3 X11.6225 Y1.84 I0.01625 J0.02815
G3 X11.57375 Y1.86815 I-0.0325 J0.0
G3 X11.5575 Y1.84003 I0.01625 J-0.02815
G1 F10.0 X11.5075 Y1.84007
G3 F40.0 X11.54875 Y1.76855 I0.0825 J-0.00007
G3 X11.6725 Y1.84 I0.04125 J0.07145
G3 X11.54875 Y1.91145 I-0.0825 J0.0
G3 X11.5075 Y1.84007 I0.04125 J-0.07145
G1 F10.0 X11.56913 Y1.86491
G3 F40.0 X11.5575 Y1.84003 Z-0.245 I0.02087 J-0.02491
G3 X11.57375 Y1.81185 I0.0325 J-0.00003
G3 X11.6225 Y1.84 I0.01625 J0.02815
G3 X11.57375 Y1.86815 I-0.0325 J0.0
G3 X11.5575 Y1.84003 I0.01625 J-0.02815
G1 F10.0 X11.5075 Y1.84007
G3 F40.0 X11.54875 Y1.76855 I0.0825 J-0.00007
G3 X11.6725 Y1.84 I0.04125 J0.07145
G3 X11.54875 Y1.91145 I-0.0825 J0.0
G3 X11.5075 Y1.84007 I0.04125 J-0.07145
G1 F10.0 X11.56913 Y1.86491
G3 F40.0 X11.5575 Y1.84003 Z-0.25 I0.02087 J-0.02491
G3 X11.57375 Y1.81185 I0.0325 J-0.00003
G3 X11.6225 Y1.84 I0.01625 J0.02815
G3 X11.57375 Y1.86815 I-0.0325 J0.0
G3 X11.5575 Y1.84003 I0.01625 J-0.02815
G1 F10.0 X11.5075 Y1.84007
G3 F40.0 X11.54875 Y1.76855 I0.0825 J-0.00007
G3 X11.6725 Y1.84 I0.04125 J0.07145
G3 X11.54875 Y1.91145 I-0.0825 J0.0
G3 X11.5075 Y1.84007 I0.04125 J-0.07145
G1 F10.0 X11.5025 Y1.84008
G3 F40.0 X11.54625 Y1.76422 I0.0875 J-0.00008
G3 X11.6775 Y1.84 I0.04375 J0.07578
G3 X11.54625 Y1.91578 I-0.0875 J0.0
G3 X11.5025 Y1.84008 I0.04375 J-0.07578
G0 Z0.125
G0 X11.57579 Y3.08923
G1 F10.0 Z0.0
G3 F40.0 X11.57375 Y3.08815 Z-0.00041 I0.01421 J-0.02923
G3 Y3.03185 Z-0.01241 I0.01625 J-0.02815
G3 X11.58767 Y3.02758 Z-0.015 I0.01625 J0.02815
G3 X11.6225 Y3.06 I0.00233 J0.03242
G3 X11.57375 Y3.08815 I-0.0325 J0.0
G3 Y3.03185 I0.01625 J-0.02815
G3 X11.58767 Y3.02758 I0.01625 J0.02815
G1 F10.0 X11.5841 Y2.97771
G3 F40.0 X11.6725 Y3.06 I0.0059 J0.08229
G3 X11.54875 Y3.13145 I-0.0825 J0.0
G3 Y2.98855 I0.04125 J-0.07145
G3 X11.5841 Y2.97771 I0.04125 J0.07145
G0 Z0.125
G0 X11.57579 Y3.08923
G1 F10.0 Z-0.015
G3 F40.0 X11.57375 Y3.08815 Z-0.01541 I0.01421 J-0.02923
G3 Y3.03185 Z-0.02741 I0.01625 J-0.02815
G3 X11.58767 Y3.02758 Z-0.03 I0.01625 J0.02815
G3 X11.6225 Y3.06 I0.00233 J0.03242
G3 X11.57375 Y3.08815 I-0.0325 J0.0
G3 Y3.03185 I0.01625 J-0.02815
G3 X11.58767 Y3.02758 I0.01625 J0.02815
G1 F10.0 X11.5841 Y2.97771
G3 F40.0 X11.6725 Y3.06 I0.0059 J0.08229
G3 X11.54875 Y3.13145 I-0.0825 J0.0
G3 Y2.98855 I0.04125 J-0.07145
G3 X11.5841 Y2.97771 I0.04125 J0.07145
G0 Z0.125
G0 X11.57579 Y3.08923
G1 F10.0 Z-0.03
G3 F40.0 X11.57375 Y3.08815 Z-0.03041 I0.01421 J-0.02923
G3 Y3.03185 Z-0.04241 I0.01625 J-0.02815
G3 X11.58767 Y3.02758 Z-0.045 I0.01625 J0.02815
G3 X11.6225 Y3.06 I0.00233 J0.03242
G3 X11.57375 Y3.08815 I-0.0325 J0.0
G3 Y3.03185 I0.01625 J-0.02815
G3 X11.58767 Y3.02758 I0.01625 J0.02815
G1 F10.0 X11.5841 Y2.97771
G3 F40.0 X11.6725 Y3.06 I0.0059 J0.08229
G3 X11.54875 Y3.13145 I-0.0825 J0.0
G3 Y2.98855 I0.04125 J-0.07145
G3 X11.5841 Y2.97771 I0.04125 J0.07145
G0 Z0.125
G0 X11.57579 Y3.08923
G1 F10.0 Z-0.045
G3 F40.0 X11.57375 Y3.08815 Z-0.04541 I0.01421 J-0.02923
G3 Y3.03185 Z-0.05741 I0.01625 J-0.02815
G3 X11.58767 Y3.02758 Z-0.06 I0.01625 J0.02815
G3 X11.6225 Y3.06 I0.00233 J0.03242
G3 X11.57375 Y3.08815 I-0.0325 J0.0
G3 Y3.03185 I0.01625 J-0.02815
G3 X11.58767 Y3.02758 I0.01625 J0.02815
G1 F10.0 X11.5841 Y2.97771
G3 F40.0 X11.6725 Y3.06 I0.0059 J0.08229
G3 X11.54875 Y3.13145 I-0.0825 J0.0
G3 Y2.98855 I0.04125 J-0.07145
G3 X11.5841 Y2.97771 I0.04125 J0.07145
G0 Z0.125
G0 X11.57579 Y3.08923
G1 F10.0 Z-0.06
G3 F40.0 X11.57375 Y3.08815 Z-0.06041 I0.01421 J-0.02923
G3 Y3.03185 Z-0.07241 I0.01625 J-0.02815
G3 X11.58767 Y3.02758 Z-0.075 I0.01625 J0.02815
G3 X11.6225 Y3.06 I0.00233 J0.03242
G3 X11.57375 Y3.08815 I-0.0325 J0.0
G3 Y3.03185 I0.01625 J-0.02815
G3 X11.58767 Y3.02758 I0.01625 J0.02815
G1 F10.0 X11.5841 Y2.97771
G3 F40.0 X11.6725 Y3.06 I0.0059 J0.08229
G3 X11.54875 Y3.13145 I-0.0825 J0.0
G3 Y2.98855 I0.04125 J-0.07145
G3 X11.5841 Y2.97771 I0.04125 J0.07145
G0 Z0.125
G0 X11.57579 Y3.08923
G1 F10.0 Z-0.075
G3 F40.0 X11.57375 Y3.08815 Z-0.07541 I0.01421 J-0.02923
G3 Y3.03185 Z-0.08741 I0.01625 J-0.02815
G3 X11.58767 Y3.02758 Z-0.09 I0.01625 J0.02815
G3 X11.6225 Y3.06 I0.00233 J0.03242
G3 X11.57375 Y3.08815 I-0.0325 J0.0
G3 Y3.03185 I0.01625 J-0.02815
G3 X11.58767 Y3.02758 I0.01625 J0.02815
G1 F10.0 X11.5841 Y2.97771
G3 F40.0 X11.6725 Y3.06 I0.0059 J0.08229
G3 X11.54875 Y3.13145 I-0.0825 J0.0
G3 Y2.98855 I0.04125 J-0.07145
G3 X11.5841 Y2.97771 I0.04125 J0.07145
G0 Z0.125
G0 X11.57579 Y3.08923
G1 F10.0 Z-0.09
G3 F40.0 X11.57375 Y3.08815 Z-0.09041 I0.01421 J-0.02923
G3 Y3.03185 Z-0.10241 I0.01625 J-0.02815
G3 X11.58767 Y3.02758 Z-0.105 I0.01625 J0.02815
G3 X11.6225 Y3.06 I0.00233 J0.03242
G3 X11.57375 Y3.08815 I-0.0325 J0.0
G3 Y3.03185 I0.01625 J-0.02815
G3 X11.58767 Y3.02758 I0.01625 J0.02815
G1 F10.0 X11.5841 Y2.97771
G3 F40.0 X11.6725 Y3.06 I0.0059 J0.08229
G3 X11.54875 Y3.13145 I-0.0825 J0.0
G3 Y2.98855 I0.04125 J-0.07145
G3 X11.5841 Y2.97771 I0.04125 J0.07145
G0 Z0.125
G0 X11.57579 Y3.08923
G1 F10.0 Z-0.105
G3 F40.0 X11.57375 Y3.08815 Z-0.10541 I0.01421 J-0.02923
G3 Y3.03185 Z-0.11741 I0.01625 J-0.02815
G3 X11.58767 Y3.02758 Z-0.12 I0.01625 J0.02815
G3 X11.6225 Y3.06 I0.00233 J0.03242
G3 X11.57375 Y3.08815 I-0.0325 J0.0
G3 Y3.03185 I0.01625 J-0.02815
G3 X11.58767 Y3.02758 I0.01625 J0.02815
G1 F10.0 X11.5841 Y2.97771
G3 F40.0 X11.6725 Y3.06 I0.0059 J0.08229
G3 X11.54875 Y3.13145 I-0.0825 J0.0
G3 Y2.98855 I0.04125 J-0.07145
G3 X11.5841 Y2.97771 I0.04125 J0.07145
G0 Z0.125
G0 X11.57579 Y3.08923
G1 F10.0 Z-0.12
G3 F40.0 X11.57375 Y3.08815 Z-0.12041 I0.01421 J-0.02923
G3 Y3.03185 Z-0.13241 I0.01625 J-0.02815
G3 X11.58767 Y3.02758 Z-0.135 I0.01625 J0.02815
G3 X11.6225 Y3.06 I0.00233 J0.03242
G3 X11.57375 Y3.08815 I-0.0325 J0.0
G3 Y3.03185 I0.01625 J-0.02815
G3 X11.58767 Y3.02758 I0.01625 J0.02815
G1 F10.0 X11.5841 Y2.97771
G3 F40.0 X11.6725 Y3.06 I0.0059 J0.08229
G3 X11.54875 Y3.13145 I-0.0825 J0.0
G3 Y2.98855 I0.04125 J-0.07145
G3 X11.5841 Y2.97771 I0.04125 J0.07145
G0 Z0.125
G0 X11.57579 Y3.08923
G1 F10.0 Z-0.135
G3 F40.0 X11.57375 Y3.08815 Z-0.13541 I0.01421 J-0.02923
G3 Y3.03185 Z-0.14741 I0.01625 J-0.02815
G3 X11.58767 Y3.02758 Z-0.15 I0.01625 J0.02815
G3 X11.6225 Y3.06 I0.00233 J0.03242
G3 X11.57375 Y3.08815 I-0.0325 J0.0
G3 Y3.03185 I0.01625 J-0.02815
G3 X11.58767 Y3.02758 I0.01625 J0.02815
G1 F10.0 X11.5841 Y2.97771
G3 F40.0 X11.6725 Y3.06 I0.0059 J0.08229
G3 X11.54875 Y3.13145 I-0.0825 J0.0
G3 Y2.98855 I0.04125 J-0.07145
G3 X11.5841 Y2.97771 I0.04125 J0.07145
G0 Z0.125
G0 X11.57579 Y3.08923
G1 F10.0 Z-0.15
G3 F40.0 X11.57375 Y3.08815 Z-0.15041 I0.01421 J-0.02923
G3 Y3.03185 Z-0.16241 I0.01625 J-0.02815
G3 X11.58767 Y3.02758 Z-0.165 I0.01625 J0.02815
G3 X11.6225 Y3.06 I0.00233 J0.03242
G3 X11.57375 Y3.08815 I-0.0325 J0.0
G3 Y3.03185 I0.01625 J-0.02815
G3 X11.58767 Y3.02758 I0.01625 J0.02815
G1 F10.0 X11.5841 Y2.97771
G3 F40.0 X11.6725 Y3.06 I0.0059 J0.08229
G3 X11.54875 Y3.13145 I-0.0825 J0.0
G3 Y2.98855 I0.04125 J-0.07145
G3 X11.5841 Y2.97771 I0.04125 J0.07145
G0 Z0.125
G0 X11.57579 Y3.08923
G1 F10.0 Z-0.165
G3 F40.0 X11.57375 Y3.08815 Z-0.16541 I0.01421 J-0.02923
G3 Y3.03185 Z-0.17741 I0.01625 J-0.02815
G3 X11.58767 Y3.02758 Z-0.18 I0.01625 J0.02815
G3 X11.6225 Y3.06 I0.00233 J0.03242
G3 X11.57375 Y3.08815 I-0.0325 J0.0
G3 Y3.03185 I0.01625 J-0.02815
G3 X11.58767 Y3.02758 I0.01625 J0.02815
G1 F10.0 X11.5841 Y2.97771
G3 F40.0 X11.6725 Y3.06 I0.0059 J0.08229
G3 X11.54875 Y3.13145 I-0.0825 J0.0
G3 Y2.98855 I0.04125 J-0.07145
G3 X11.5841 Y2.97771 I0.04125 J0.07145
G0 Z0.125
G0 X11.57579 Y3.08923
G1 F10.0 Z-0.18
G3 F40.0 X11.57375 Y3.08815 Z-0.18041 I0.01421 J-0.02923
G3 Y3.03185 Z-0.19241 I0.01625 J-0.02815
G3 X11.58767 Y3.02758 Z-0.195 I0.01625 J0.02815
G3 X11.6225 Y3.06 I0.00233 J0.03242
G3 X11.57375 Y3.08815 I-0.0325 J0.0
G3 Y3.03185 I0.01625 J-0.02815
G3 X11.58767 Y3.02758 I0.01625 J0.02815
G1 F10.0 X11.5841 Y2.97771
G3 F40.0 X11.6725 Y3.06 I0.0059 J0.08229
G3 X11.54875 Y3.13145 I-0.0825 J0.0
G3 Y2.98855 I0.04125 J-0.07145
G3 X11.5841 Y2.97771 I0.04125 J0.07145
G0 Z0.125
G0 X11.57579 Y3.08923
G1 F10.0 Z-0.195
G3 F40.0 X11.57375 Y3.08815 Z-0.19541 I0.01421 J-0.02923
G3 Y3.03185 Z-0.20741 I0.01625 J-0.02815
G3 X11.58767 Y3.02758 Z-0.21 I0.01625 J0.02815
G3 X11.6225 Y3.06 I0.00233 J0.03242
G3 X11.57375 Y3.08815 I-0.0325 J0.0
G3 Y3.03185 I0.01625 J-0.02815
G3 X11.58767 Y3.02758 I0.01625 J0.02815
G1 F10.0 X11.5841 Y2.97771
G3 F40.0 X11.6725 Y3.06 I0.0059 J0.08229
G3 X11.54875 Y3.13145 I-0.0825 J0.0
G3 Y2.98855 I0.04125 J-0.07145
G3 X11.5841 Y2.97771 I0.04125 J0.07145
G0 Z0.125
G0 X11.57579 Y3.08923
G1 F10.0 Z-0.21
G3 F40.0 X11.57375 Y3.08815 Z-0.21041 I0.01421 J-0.02923
G3 Y3.03185 Z-0.22241 I0.01625 J-0.02815
G3 X11.58767 Y3.02758 Z-0.225 I0.01625 J0.02815
G3 X11.6225 Y3.06 I0.00233 J0.03242
G3 X11.57375 Y3.08815 I-0.0325 J0.0
G3 Y3.03185 I0.01625 J-0.02815
G3 X11.58767 Y3.02758 I0.01625 J0.02815
G1 F10.0 X11.5841 Y2.97771
G3 F40.0 X11.6725 Y3.06 I0.0059 J0.08229
G3 X11.54875 Y3.13145 I-0.0825 J0.0
G3 Y2.98855 I0.04125 J-0.07145
G3 X11.5841 Y2.97771 I0.04125 J0.07145
G0 Z0.125
G0 X11.57579 Y3.08923
G1 F10.0 Z-0.225
G3 F40.0 X11.57375 Y3.08815 Z-0.22541 I0.01421 J-0.02923
G3 Y3.03185 Z-0.23741 I0.01625 J-0.02815
G3 X11.58767 Y3.02758 Z-0.24 I0.01625 J0.02815
G3 X11.6225 Y3.06 I0.00233 J0.03242
G3 X11.57375 Y3.08815 I-0.0325 J0.0
G3 Y3.03185 I0.01625 J-0.02815
G3 X11.58767 Y3.02758 I0.01625 J0.02815
G1 F10.0 X11.5841 Y2.97771
G3 F40.0 X11.6725 Y3.06 I0.0059 J0.08229
G3 X11.54875 Y3.13145 I-0.0825 J0.0
G3 Y2.98855 I0.04125 J-0.07145
G3 X11.5841 Y2.97771 I0.04125 J0.07145
G1 F10.0 X11.56368 Y3.04094
G3 F40.0 X11.57375 Y3.03185 Z-0.24241 I0.02632 J0.01906
G3 X11.58767 Y3.02758 Z-0.245 I0.01625 J0.02815
G3 X11.6225 Y3.06 I0.00233 J0.03242
G3 X11.57375 Y3.08815 I-0.0325 J0.0
G3 Y3.03185 I0.01625 J-0.02815
G3 X11.58767 Y3.02758 I0.01625 J0.02815
G1 F10.0 X11.5841 Y2.97771
G3 F40.0 X11.6725 Y3.06 I0.0059 J0.08229
G3 X11.54875 Y3.13145 I-0.0825 J0.0
G3 Y2.98855 I0.04125 J-0.07145
G3 X11.5841 Y2.97771 I0.04125 J0.07145
G1 F10.0 X11.56368 Y3.04094
G3 F40.0 X11.57375 Y3.03185 Z-0.24741 I0.02632 J0.01906
G3 X11.58767 Y3.02758 Z-0.25 I0.01625 J0.02815
G3 X11.6225 Y3.06 I0.00233 J0.03242
G3 X11.57375 Y3.08815 I-0.0325 J0.0
G3 Y3.03185 I0.01625 J-0.02815
G3 X11.58767 Y3.02758 I0.01625 J0.02815
G1 F10.0 X11.5841 Y2.97771
G3 F40.0 X11.6725 Y3.06 I0.0059 J0.08229
G3 X11.54875 Y3.13145 I-0.0825 J0.0
G3 Y2.98855 I0.04125 J-0.07145
G3 X11.5841 Y2.97771 I0.04125 J0.07145
G1 F10.0 X11.58374 Y2.97272
G3 F40.0 X11.6775 Y3.06 I0.00626 J0.08728
G3 X11.54625 Y3.13578 I-0.0875 J0.0
G3 Y2.98422 I0.04375 J-0.07578
G3 X11.58374 Y2.97272 I0.04375 J0.07578
G0 Z0.125
G0 X12.83691 Y3.07822
G1 F10.0 Z0.0
G3 F40.0 X12.79375 Y3.08815 Z-0.00859 I-0.02691 J-0.01822
G3 X12.77758 Y3.05769 Z-0.015 I0.01625 J-0.02815
G3 X12.79375 Y3.03185 I0.03242 J0.00231
G3 X12.8425 Y3.06 I0.01625 J0.02815
G3 X12.79375 Y3.08815 I-0.0325 J0.0
G3 X12.77758 Y3.05769 I0.01625 J-0.02815
G1 F10.0 X12.72771 Y3.05414
G3 F40.0 X12.76875 Y2.98855 I0.08229 J0.00586
G3 X12.8925 Y3.06 I0.04125 J0.07145
G3 X12.76875 Y3.13145 I-0.0825 J0.0
G3 X12.72771 Y3.05414 I0.04125 J-0.07145
G0 Z0.125
G0 X12.83691 Y3.07822
G1 F10.0 Z-0.015
G3 F40.0 X12.79375 Y3.08815 Z-0.02359 I-0.02691 J-0.01822
G3 X12.77758 Y3.05769 Z-0.03 I0.01625 J-0.02815
G3 X12.79375 Y3.03185 I0.03242 J0.00231
G3 X12.8425 Y3.06 I0.01625 J0.02815
G3 X12.79375 Y3.08815 I-0.0325 J0.0
G3 X12.77758 Y3.05769 I0.01625 J-0.02815
G1 F10.0 X12.72771 Y3.05414
G3 F40.0 X12.76875 Y2.98855 I0.08229 J0.00586
G3 X12.8925 Y3.06 I0.04125 J0.07145
G3 X12.76875 Y3.13145 I-0.0825 J0.0
G3 X12.72771 Y3.05414 I0.04125 J-0.07145
G0 Z0.125
G0 X12.83691 Y3.07822
G1 F10.0 Z-0.03
G3 F40.0 X12.79375 Y3.08815 Z-0.03859 I-0.02691 J-0.01822
G3 X12.77758 Y3.05769 Z-0.045 I0.01625 J-0.02815
G3 X12.79375 Y3.03185 I0.03242 J0.00231
G3 X12.8425 Y3.06 I0.01625 J0.02815
G3 X12.79375 Y3.08815 I-0.0325 J0.0
G3 X12.77758 Y3.05769 I0.01625 J-0.02815
G1 F10.0 X12.72771 Y3.05414
G3 F40.0 X12.76875 Y2.98855 I0.08229 J0.00586
G3 X12.8925 Y3.06 I0.04125 J0.07145
G3 X12.76875 Y3.13145 I-0.0825 J0.0
G3 X12.72771 Y3.05414 I0.04125 J-0.07145
G0 Z0.125
G0 X12.83691 Y3.07822
G1 F10.0 Z-0.045
G3 F40.0 X12.79375 Y3.08815 Z-0.05359 I-0.02691 J-0.01822
G3 X12.77758 Y3.05769 Z-0.06 I0.01625 J-0.02815
G3 X12.79375 Y3.03185 I0.03242 J0.00231
G3 X12.8425 Y3.06 I0.01625 J0.02815
G3 X12.79375 Y3.08815 I-0.0325 J0.0
G3 X12.77758 Y3.05769 I0.01625 J-0.02815
G1 F10.0 X12.72771 Y3.05414
G3 F40.0 X12.76875 Y2.98855 I0.08229 J0.00586
G3 X12.8925 Y3.06 I0.04125 J0.07145
G3 X12.76875 Y3.13145 I-0.0825 J0.0
G3 X12.72771 Y3.05414 I0.04125 J-0.07145
G0 Z0.125
G0 X12.83691 Y3.07822
G1 F10.0 Z-0.06
G3 F40.0 X12.79375 Y3.08815 Z-0.06859 I-0.02691 J-0.01822
G3 X12.77758 Y3.05769 Z-0.075 I0.01625 J-0.02815
G3 X12.79375 Y3.03185 I0.03242 J0.00231
G3 X12.8425 Y3.06 I0.01625 J0.02815
G3 X12.79375 Y3.08815 I-0.0325 J0.0
G3 X12.77758 Y3.05769 I0.01625 J-0.02815
G1 F10.0 X12.72771 Y3.05414
G3 F40.0 X12.76875 Y2.98855 I0.08229 J0.00586
G3 X12.8925 Y3.06 I0.04125 J0.07145
G3 X12.76875 Y3.13145 I-0.0825 J0.0
G3 X12.72771 Y3.05414 I0.04125 J-0.07145
G0 Z0.125
G0 X12.83691 Y3.07822
G1 F10.0 Z-0.075
G3 F40.0 X12.79375 Y3.08815 Z-0.08359 I-0.02691 J-0.01822
G3 X12.77758 Y3.05769 Z-0.09 I0.01625 J-0.02815
G3 X12.79375 Y3.03185 I0.03242 J0.00231
G3 X12.8425 Y3.06 I0.01625 J0.02815
G3 X12.79375 Y3.08815 I-0.0325 J0.0
G3 X12.77758 Y3.05769 I0.01625 J-0.02815
G1 F10.0 X12.72771 Y3.05414
G3 F40.0 X12.76875 Y2.98855 I0.08229 J0.00586
G3 X12.8925 Y3.06 I0.04125 J0.07145
G3 X12.76875 Y3.13145 I-0.0825 J0.0
G3 X12.72771 Y3.05414 I0.04125 J-0.07145
G0 Z0.125
G0 X12.83691 Y3.07822
G1 F10.0 Z-0.09
G3 F40.0 X12.79375 Y3.08815 Z-0.09859 I-0.02691 J-0.01822
G3 X12.77758 Y3.05769 Z-0.105 I0.01625 J-0.02815
G3 X12.79375 Y3.03185 I0.03242 J0.00231
G3 X12.8425 Y3.06 I0.01625 J0.02815
G3 X12.79375 Y3.08815 I-0.0325 J0.0
G3 X12.77758 Y3.05769 I0.01625 J-0.02815
G1 F10.0 X12.72771 Y3.05414
G3 F40.0 X12.76875 Y2.98855 I0.08229 J0.00586
G3 X12.8925 Y3.06 I0.04125 J0.07145
G3 X12.76875 Y3.13145 I-0.0825 J0.0
G3 X12.72771 Y3.05414 I0.04125 J-0.07145
G0 Z0.125
G0 X12.83691 Y3.07822
G1 F10.0 Z-0.105
G3 F40.0 X12.79375 Y3.08815 Z-0.11359 I-0.02691 J-0.01822
G3 X12.77758 Y3.05769 Z-0.12 I0.01625 J-0.02815
G3 X12.79375 Y3.03185 I0.03242 J0.00231
G3 X12.8425 Y3.06 I0.01625 J0.02815
G3 X12.79375 Y3.08815 I-0.0325 J0.0
G3 X12.77758 Y3.05769 I0.01625 J-0.02815
G1 F10.0 X12.72771 Y3.05414
G3 F40.0 X12.76875 Y2.98855 I0.08229 J0.00586
G3 X12.8925 Y3.06 I0.04125 J0.07145
G3 X12.76875 Y3.13145 I-0.0825 J0.0
G3 X12.72771 Y3.05414 I0.04125 J-0.07145
G0 Z0.125
G0 X12.83691 Y3.07822
G1 F10.0 Z-0.12
G3 F40.0 X12.79375 Y3.08815 Z-0.12859 I-0.02691 J-0.01822
G3 X12.77758 Y3.05769 Z-0.135 I0.01625 J-0.02815
G3 X12.79375 Y3.03185 I0.03242 J0.00231
G3 X12.8425 Y3.06 I0.01625 J0.02815
G3 X12.79375 Y3.08815 I-0.0325 J0.0
G3 X12.77758 Y3.05769 I0.01625 J-0.02815
G1 F10.0 X12.72771 Y3.05414
G3 F40.0 X12.76875 Y2.98855 I0.08229 J0.00586
G3 X12.8925 Y3.06 I0.04125 J0.07145
G3 X12.76875 Y3.13145 I-0.0825 J0.0
G3 X12.72771 Y3.05414 I0.04125 J-0.07145
G0 Z0.125
G0 X12.83691 Y3.07822
G1 F10.0 Z-0.135
G3 F40.0 X12.79375 Y3.08815 Z-0.14359 I-0.02691 J-0.01822
G3 X12.77758 Y3.05769 Z-0.15 I0.01625 J-0.02815
G3 X12.79375 Y3.03185 I0.03242 J0.00231
G3 X12.8425 Y3.06 I0.01625 J0.02815
G3 X12.79375 Y3.08815 I-0.0325 J0.0
G3 X12.77758 Y3.05769 I0.01625 J-0.02815
G1 F10.0 X12.72771 Y3.05414
G3 F40.0 X12.76875 Y2.98855 I0.08229 J0.00586
G3 X12.8925 Y3.06 I0.04125 J0.07145
G3 X12.76875 Y3.13145 I-0.0825 J0.0
G3 X12.72771 Y3.05414 I0.04125 J-0.07145
G0 Z0.125
G0 X12.83691 Y3.07822
G1 F10.0 Z-0.15
G3 F40.0 X12.79375 Y3.08815 Z-0.15859 I-0.02691 J-0.01822
G3 X12.77758 Y3.05769 Z-0.165 I0.01625 J-0.02815
G3 X12.79375 Y3.03185 I0.03242 J0.00231
G3 X12.8425 Y3.06 I0.01625 J0.02815
G3 X12.79375 Y3.08815 I-0.0325 J0.0
G3 X12.77758 Y3.05769 I0.01625 J-0.02815
G1 F10.0 X12.72771 Y3.05414
G3 F40.0 X12.76875 Y2.98855 I0.08229 J0.00586
G3 X12.8925 Y3.06 I0.04125 J0.07145
G3 X12.76875 Y3.13145 I-0.0825 J0.0
G3 X12.72771 Y3.05414 I0.04125 J-0.07145
G0 Z0.125
G0 X12.83691 Y3.07822
G1 F10.0 Z-0.165
G3 F40.0 X12.79375 Y3.08815 Z-0.17359 I-0.02691 J-0.01822
G3 X12.77758 Y3.05769 Z-0.18 I0.01625 J-0.02815
G3 X12.79375 Y3.03185 I0.03242 J0.00231
G3 X12.8425 Y3.06 I0.01625 J0.02815
G3 X12.79375 Y3.08815 I-0.0325 J0.0
G3 X12.77758 Y3.05769 I0.01625 J-0.02815
G1 F10.0 X12.72771 Y3.05414
G3 F40.0 X12.76875 Y2.98855 I0.08229 J0.00586
G3 X12.8925 Y3.06 I0.04125 J0.07145
G3 X12.76875 Y3.13145 I-0.0825 J0.0
G3 X12.72771 Y3.05414 I0.04125 J-0.07145
G0 Z0.125
G0 X12.83691 Y3.07822
G1 F10.0 Z-0.18
G3 F40.0 X12.79375 Y3.08815 Z-0.18859 I-0.02691 J-0.01822
G3 X12.77758 Y3.05769 Z-0.195 I0.01625 J-0.02815
G3 X12.79375 Y3.03185 I0.03242 J0.00231
G3 X12.8425 Y3.06 I0.01625 J0.02815
G3 X12.79375 Y3.08815 I-0.0325 J0.0
G3 X12.77758 Y3.05769 I0.01625 J-0.02815
G1 F10.0 X12.72771 Y3.05414
G3 F40.0 X12.76875 Y2.98855 I0.08229 J0.00586
G3 X12.8925 Y3.06 I0.04125 J0.07145
G3 X12.76875 Y3.13145 I-0.0825 J0.0
G3 X12.72771 Y3.05414 I0.04125 J-0.07145
G0 Z0.125
G0 X12.83691 Y3.07822
G1 F10.0 Z-0.195
G3 F40.0 X12.79375 Y3.08815 Z-0.20359 I-0.02691 J-0.01822
G3 X12.77758 Y3.05769 Z-0.21 I0.01625 J-0.02815
G3 X12.79375 Y3.03185 I0.03242 J0.00231
G3 X12.8425 Y3.06 I0.01625 J0.02815
G3 X12.79375 Y3.08815 I-0.0325 J0.0
G3 X12.77758 Y3.05769 I0.01625 J-0.02815
G1 F10.0 X12.72771 Y3.05414
G3 F40.0 X12.76875 Y2.98855 I0.08229 J0.00586
G3 X12.8925 Y3.06 I0.04125 J0.07145
G3 X12.76875 Y3.13145 I-0.0825 J0.0
G3 X12.72771 Y3.05414 I0.04125 J-0.07145
G0 Z0.125
G0 X12.83691 Y3.07822
G1 F10.0 Z-0.21
G3 F40.0 X12.79375 Y3.08815 Z-0.21859 I-0.02691 J-0.01822
G3 X12.77758 Y3.05769 Z-0.225 I0.01625 J-0.02815
G3 X12.79375 Y3.03185 I0.03242 J0.00231
G3 X12.8425 Y3.06 I0.01625 J0.02815
G3 X12.79375 Y3.08815 I-0.0325 J0.0
G3 X12.77758 Y3.05769 I0.01625 J-0.02815
G1 F10.0 X12.72771 Y3.05414
G3 F40.0 X12.76875 Y2.98855 I0.08229 J0.00586
G3 X12.8925 Y3.06 I0.04125 J0.07145
G3 X12.76875 Y3.13145 I-0.0825 J0.0
G3 X12.72771 Y3.05414 I0.04125 J-0.07145
G0 Z0.125
G0 X12.83691 Y3.07822
G1 F10.0 Z-0.225
G3 F40.0 X12.79375 Y3.08815 Z-0.23359 I-0.02691 J-0.01822
G3 X12.77758 Y3.05769 Z-0.24 I0.01625 J-0.02815
G3 X12.79375 Y3.03185 I0.03242 J0.00231
G3 X12.8425 Y3.06 I0.01625 J0.02815
G3 X12.79375 Y3.08815 I-0.0325 J0.0
G3 X12.77758 Y3.05769 I0.01625 J-0.02815
G1 F10.0 X12.72771 Y3.05414
G3 F40.0 X12.76875 Y2.98855 I0.08229 J0.00586
G3 X12.8925 Y3.06 I0.04125 J0.07145
G3 X12.76875 Y3.13145 I-0.0825 J0.0
G3 X12.72771 Y3.05414 I0.04125 J-0.07145
G1 F10.0 X12.78739 Y3.08335
G3 F40.0 X12.77758 Y3.05769 Z-0.245 I0.02261 J-0.02335
G3 X12.79375 Y3.03185 I0.03242 J0.00231
G3 X12.8425 Y3.06 I0.01625 J0.02815
G3 X12.79375 Y3.08815 I-0.0325 J0.0
G3 X12.77758 Y3.05769 I0.01625 J-0.02815
G1 F10.0 X12.72771 Y3.05414
G3 F40.0 X12.76875 Y2.98855 I0.08229 J0.00586
G3 X12.8925 Y3.06 I0.04125 J0.07145
G3 X12.76875 Y3.13145 I-0.0825 J0.0
G3 X12.72771 Y3.05414 I0.04125 J-0.07145
G1 F10.0 X12.78739 Y3.08335
G3 F40.0 X12.77758 Y3.05769 Z-0.25 I0.02261 J-0.02335
G3 X12.79375 Y3.03185 I0.03242 J0.00231
G3 X12.8425 Y3.06 I0.01625 J0.02815
G3 X12.79375 Y3.08815 I-0.0325 J0.0
G3 X12.77758 Y3.05769 I0.01625 J-0.02815
G1 F10.0 X12.72771 Y3.05414
G3 F40.0 X12.76875 Y2.98855 I0.08229 J0.00586
G3 X12.8925 Y3.06 I0.04125 J0.07145
G3 X12.76875 Y3.13145 I-0.0825 J0.0
G3 X12.72771 Y3.05414 I0.04125 J-0.07145
G1 F10.0 X12.72272 Y3.05379
G3 F40.0 X12.76625 Y2.98422 I0.08728 J0.00621
G3 X12.8975 Y3.06 I0.04375 J0.07578
G3 X12.76625 Y3.13578 I-0.0875 J0.0
G3 X12.72272 Y3.05379 I0.04375 J-0.07578
G0 Z0.125
G0 X12.82824 Y1.8131
G1 F10.0 Z0.0
G3 F40.0 X12.8425 Y1.84 Z-0.00559 I-0.01824 J0.0269
G3 X12.80767 Y1.87242 Z-0.015 I-0.0325 J0.0
G3 X12.79375 Y1.86815 I0.00233 J-0.03242
G3 Y1.81185 I0.01625 J-0.02815
G3 X12.8425 Y1.84 I0.01625 J0.02815
G3 X12.80767 Y1.87242 I-0.0325 J0.0
G1 F10.0 X12.80408 Y1.92229
G3 F40.0 X12.76875 Y1.91145 I0.00592 J-0.08229
G3 Y1.76855 I0.04125 J-0.07145
G3 X12.8925 Y1.84 I0.04125 J0.07145
G3 X12.80408 Y1.92229 I-0.0825 J0.0
G0 Z0.125
G0 X12.82824 Y1.8131
G1 F10.0 Z-0.015
G3 F40.0 X12.8425 Y1.84 Z-0.02059 I-0.01824 J0.0269
G3 X12.80767 Y1.87242 Z-0.03 I-0.0325 J0.0
G3 X12.79375 Y1.86815 I0.00233 J-0.03242
G3 Y1.81185 I0.01625 J-0.02815
G3 X12.8425 Y1.84 I0.01625 J0.02815
G3 X12.80767 Y1.87242 I-0.0325 J0.0
G1 F10.0 X12.80408 Y1.92229
G3 F40.0 X12.76875 Y1.91145 I0.00592 J-0.08229
G3 Y1.76855 I0.04125 J-0.07145
G3 X12.8925 Y1.84 I0.04125 J0.07145
G3 X12.80408 Y1.92229 I-0.0825 J0.0
G0 Z0.125
G0 X12.82824 Y1.8131
G1 F10.0 Z-0.03
G3 F40.0 X12.8425 Y1.84 Z-0.03559 I-0.01824 J0.0269
G3 X12.80767 Y1.87242 Z-0.045 I-0.0325 J0.0
G3 X12.79375 Y1.86815 I0.00233 J-0.03242
G3 Y1.81185 I0.01625 J-0.02815
G3 X12.8425 Y1.84 I0.01625 J0.02815
G3 X12.80767 Y1.87242 I-0.0325 J0.0
G1 F10.0 X12.80408 Y1.92229
G3 F40.0 X12.76875 Y1.91145 I0.00592 J-0.08229
G3 Y1.76855 I0.04125 J-0.07145
G3 X12.8925 Y1.84 I0.04125 J0.07145
G3 X12.80408 Y1.92229 I-0.0825 J0.0
G0 Z0.125
G0 X12.82824 Y1.8131
G1 F10.0 Z-0.045
G3 F40.0 X12.8425 Y1.84 Z-0.05059 I-0.01824 J0.0269
G3 X12.80767 Y1.87242 Z-0.06 I-0.0325 J0.0
G3 X12.79375 Y1.86815 I0.00233 J-0.03242
G3 Y1.81185 I0.01625 J-0.02815
G3 X12.8425 Y1.84 I0.01625 J0.02815
G3 X12.80767 Y1.87242 I-0.0325 J0.0
G1 F10.0 X12.80408 Y1.92229
G3 F40.0 X12.76875 Y1.91145 I0.00592 J-0.08229
G3 Y1.76855 I0.04125 J-0.07145
G3 X12.8925 Y1.84 I0.04125 J0.07145
G3 X12.80408 Y1.92229 I-0.0825 J0.0
G0 Z0.125
G0 X12.82824 Y1.8131
G1 F10.0 Z-0.06
G3 F40.0 X12.8425 Y1.84 Z-0.06559 I-0.01824 J0.0269
G3 X12.80767 Y1.87242 Z-0.075 I-0.0325 J0.0
G3 X12.79375 Y1.86815 I0.00233 J-0.03242
G3 Y1.81185 I0.01625 J-0.02815
G3 X12.8425 Y1.84 I0.01625 J0.02815
G3 X12.80767 Y1.87242 I-0.0325 J0.0
G1 F10.0 X12.80408 Y1.92229
G3 F40.0 X12.76875 Y1.91145 I0.00592 J-0.08229
G3 Y1.76855 I0.04125 J-0.07145
G3 X12.8925 Y1.84 I0.04125 J0.07145
G3 X12.80408 Y1.92229 I-0.0825 J0.0
G0 Z0.125
G0 X12.82824 Y1.8131
G1 F10.0 Z-0.075
G3 F40.0 X12.8425 Y1.84 Z-0.08059 I-0.01824 J0.0269
G3 X12.80767 Y1.87242 Z-0.09 I-0.0325 J0.0
G3 X12.79375 Y1.86815 I0.00233 J-0.03242
G3 Y1.81185 I0.01625 J-0.02815
G3 X12.8425 Y1.84 I0.01625 J0.02815
G3 X12.80767 Y1.87242 I-0.0325 J0.0
G1 F10.0 X12.80408 Y1.92229
G3 F40.0 X12.76875 Y1.91145 I0.00592 J-0.08229
G3 Y1.76855 I0.04125 J-0.07145
G3 X12.8925 Y1.84 I0.04125 J0.07145
G3 X12.80408 Y1.92229 I-0.0825 J0.0
G0 Z0.125
G0 X12.82824 Y1.8131
G1 F10.0 Z-0.09
G3 F40.0 X12.8425 Y1.84 Z-0.09559 I-0.01824 J0.0269
G3 X12.80767 Y1.87242 Z-0.105 I-0.0325 J0.0
G3 X12.79375 Y1.86815 I0.00233 J-0.03242
G3 Y1.81185 I0.01625 J-0.02815
G3 X12.8425 Y1.84 I0.01625 J0.02815
G3 X12.80767 Y1.87242 I-0.0325 J0.0
G1 F10.0 X12.80408 Y1.92229
G3 F40.0 X12.76875 Y1.91145 I0.00592 J-0.08229
G3 Y1.76855 I0.04125 J-0.07145
G3 X12.8925 Y1.84 I0.04125 J0.07145
G3 X12.80408 Y1.92229 I-0.0825 J0.0
G0 Z0.125
G0 X12.82824 Y1.8131
G1 F10.0 Z-0.105
G3 F40.0 X12.8425 Y1.84 Z-0.11059 I-0.01824 J0.0269
G3 X12.80767 Y1.87242 Z-0.12 I-0.0325 J0.0
G3 X12.79375 Y1.86815 I0.00233 J-0.03242
G3 Y1.81185 I0.01625 J-0.02815
G3 X12.8425 Y1.84 I0.01625 J0.02815
G3 X12.80767 Y1.87242 I-0.0325 J0.0
G1 F10.0 X12.80408 Y1.92229
G3 F40.0 X12.76875 Y1.91145 I0.00592 J-0.08229
G3 Y1.76855 I0.04125 J-0.07145
G3 X12.8925 Y1.84 I0.04125 J0.07145
G3 X12.80408 Y1.92229 I-0.0825 J0.0
G0 Z0.125
G0 X12.82824 Y1.8131
G1 F10.0 Z-0.12
G3 F40.0 X12.8425 Y1.84 Z-0.12559 I-0.01824 J0.0269
G3 X12.80767 Y1.87242 Z-0.135 I-0.0325 J0.0
G3 X12.79375 Y1.86815 I0.00233 J-0.03242
G3 Y1.81185 I0.01625 J-0.02815
G3 X12.8425 Y1.84 I0.01625 J0.02815
G3 X12.80767 Y1.87242 I-0.0325 J0.0
G1 F10.0 X12.80408 Y1.92229
G3 F40.0 X12.76875 Y1.91145 I0.00592 J-0.08229
G3 Y1.76855 I0.04125 J-0.07145
G3 X12.8925 Y1.84 I0.04125 J0.07145
G3 X12.80408 Y1.92229 I-0.0825 J0.0
G0 Z0.125
G0 X12.82824 Y1.8131
G1 F10.0 Z-0.135
G3 F40.0 X12.8425 Y1.84 Z-0.14059 I-0.01824 J0.0269
G3 X12.80767 Y1.87242 Z-0.15 I-0.0325 J0.0
G3 X12.79375 Y1.86815 I0.00233 J-0.03242
G3 Y1.81185 I0.01625 J-0.02815
G3 X12.8425 Y1.84 I0.01625 J0.02815
G3 X12.80767 Y1.87242 I-0.0325 J0.0
G1 F10.0 X12.80408 Y1.92229
G3 F40.0 X12.76875 Y1.91145 I0.00592 J-0.08229
G3 Y1.76855 I0.04125 J-0.07145
G3 X12.8925 Y1.84 I0.04125 J0.07145
G3 X12.80408 Y1.92229 I-0.0825 J0.0
G0 Z0.125
G0 X12.82824 Y1.8131
G1 F10.0 Z-0.15
G3 F40.0 X12.8425 Y1.84 Z-0.15559 I-0.01824 J0.0269
G3 X12.80767 Y1.87242 Z-0.165 I-0.0325 J0.0
G3 X12.79375 Y1.86815 I0.00233 J-0.03242
G3 Y1.81185 I0.01625 J-0.02815
G3 X12.8425 Y1.84 I0.01625 J0.02815
G3 X12.80767 Y1.87242 I-0.0325 J0.0
G1 F10.0 X12.80408 Y1.92229
G3 F40.0 X12.76875 Y1.91145 I0.00592 J-0.08229
G3 Y1.76855 I0.04125 J-0.07145
G3 X12.8925 Y1.84 I0.04125 J0.07145
G3 X12.80408 Y1.92229 I-0.0825 J0.0
G0 Z0.125
G0 X12.82824 Y1.8131
G1 F10.0 Z-0.165
G3 F40.0 X12.8425 Y1.84 Z-0.17059 I-0.01824 J0.0269
G3 X12.80767 Y1.87242 Z-0.18 I-0.0325 J0.0
G3 X12.79375 Y1.86815 I0.00233 J-0.03242
G3 Y1.81185 I0.01625 J-0.02815
G3 X12.8425 Y1.84 I0.01625 J0.02815
G3 X12.80767 Y1.87242 I-0.0325 J0.0
G1 F10.0 X12.80408 Y1.92229
G3 F40.0 X12.76875 Y1.91145 I0.00592 J-0.08229
G3 Y1.76855 I0.04125 J-0.07145
G3 X12.8925 Y1.84 I0.04125 J0.07145
G3 X12.80408 Y1.92229 I-0.0825 J0.0
G0 Z0.125
G0 X12.82824 Y1.8131
G1 F10.0 Z-0.18
G3 F40.0 X12.8425 Y1.84 Z-0.18559 I-0.01824 J0.0269
G3 X12.80767 Y1.87242 Z-0.195 I-0.0325 J0.0
G3 X12.79375 Y1.86815 I0.00233 J-0.03242
G3 Y1.81185 I0.01625 J-0.02815
G3 X12.8425 Y1.84 I0.01625 J0.02815
G3 X12.80767 Y1.87242 I-0.0325 J0.0
G1 F10.0 X12.80408 Y1.92229
G3 F40.0 X12.76875 Y1.91145 I0.00592 J-0.08229
G3 Y1.76855 I0.04125 J-0.07145
G3 X12.8925 Y1.84 I0.04125 J0.07145
G3 X12.80408 Y1.92229 I-0.0825 J0.0
G0 Z0.125
G0 X12.82824 Y1.8131
G1 F10.0 Z-0.195
G3 F40.0 X12.8425 Y1.84 Z-0.20059 I-0.01824 J0.0269
G3 X12.80767 Y1.87242 Z-0.21 I-0.0325 J0.0
G3 X12.79375 Y1.86815 I0.00233 J-0.03242
G3 Y1.81185 I0.01625 J-0.02815
G3 X12.8425 Y1.84 I0.01625 J0.02815
G3 X12.80767 Y1.87242 I-0.0325 J0.0
G1 F10.0 X12.80408 Y1.92229
G3 F40.0 X12.76875 Y1.91145 I0.00592 J-0.08229
G3 Y1.76855 I0.04125 J-0.07145
G3 X12.8925 Y1.84 I0.04125 J0.07145
G3 X12.80408 Y1.92229 I-0.0825 J0.0
G0 Z0.125
G0 X12.82824 Y1.8131
G1 F10.0 Z-0.21
G3 F40.0 X12.8425 Y1.84 Z-0.21559 I-0.01824 J0.0269
G3 X12.80767 Y1.87242 Z-0.225 I-0.0325 J0.0
G3 X12.79375 Y1.86815 I0.00233 J-0.03242
G3 Y1.81185 I0.01625 J-0.02815
G3 X12.8425 Y1.84 I0.01625 J0.02815
G3 X12.80767 Y1.87242 I-0.0325 J0.0
G1 F10.0 X12.80408 Y1.92229
G3 F40.0 X12.76875 Y1.91145 I0.00592 J-0.08229
G3 Y1.76855 I0.04125 J-0.07145
G3 X12.8925 Y1.84 I0.04125 J0.07145
G3 X12.80408 Y1.92229 I-0.0825 J0.0
G0 Z0.125
G0 X12.82824 Y1.8131
G1 F10.0 Z-0.225
G3 F40.0 X12.8425 Y1.84 Z-0.23059 I-0.01824 J0.0269
G3 X12.80767 Y1.87242 Z-0.24 I-0.0325 J0.0
G3 X12.79375 Y1.86815 I0.00233 J-0.03242
G3 Y1.81185 I0.01625 J-0.02815
G3 X12.8425 Y1.84 I0.01625 J0.02815
G3 X12.80767 Y1.87242 I-0.0325 J0.0
G1 F10.0 X12.80408 Y1.92229
G3 F40.0 X12.76875 Y1.91145 I0.00592 J-0.08229
G3 Y1.76855 I0.04125 J-0.07145
G3 X12.8925 Y1.84 I0.04125 J0.07145
G3 X12.80408 Y1.92229 I-0.0825 J0.0
G1 F10.0 X12.83333 Y1.86263
G3 F40.0 X12.80767 Y1.87242 Z-0.245 I-0.02333 J-0.02263
G3 X12.79375 Y1.86815 I0.00233 J-0.03242
G3 Y1.81185 I0.01625 J-0.02815
G3 X12.8425 Y1.84 I0.01625 J0.02815
G3 X12.80767 Y1.87242 I-0.0325 J0.0
G1 F10.0 X12.80408 Y1.92229
G3 F40.0 X12.76875 Y1.91145 I0.00592 J-0.08229
G3 Y1.76855 I0.04125 J-0.07145
G3 X12.8925 Y1.84 I0.04125 J0.07145
G3 X12.80408 Y1.92229 I-0.0825 J0.0
G1 F10.0 X12.83333 Y1.86263
G3 F40.0 X12.80767 Y1.87242 Z-0.25 I-0.02333 J-0.02263
G3 X12.79375 Y1.86815 I0.00233 J-0.03242
G3 Y1.81185 I0.01625 J-0.02815
G3 X12.8425 Y1.84 I0.01625 J0.02815
G3 X12.80767 Y1.87242 I-0.0325 J0.0
G1 F10.0 X12.80408 Y1.92229
G3 F40.0 X12.76875 Y1.91145 I0.00592 J-0.08229
G3 Y1.76855 I0.04125 J-0.07145
G3 X12.8925 Y1.84 I0.04125 J0.07145
G3 X12.80408 Y1.92229 I-0.0825 J0.0
G1 F10.0 X12.80372 Y1.92727
G3 F40.0 X12.76625 Y1.91578 I0.00628 J-0.08727
G3 Y1.76422 I0.04375 J-0.07578
G3 X12.8975 Y1.84 I0.04375 J0.07578
G3 X12.80372 Y1.92727 I-0.0875 J0.0
( MotorSlotsThur )
S1000
G0 Z0.125
G0 X0.34446 Y1.84
G1 F10.0 Z0.0
G1 F40.0 X0.19 Z-0.02723
G1 X0.39 Z-0.0625
G1 X0.19
G1 X0.39
G1 F10.0 X0.34446
G1 F40.0 X0.19 Z-0.08973
G1 X0.39 Z-0.125
G1 X0.19
G1 X0.39
G1 F10.0 X0.34446
G1 F40.0 X0.19 Z-0.15223
G1 X0.39 Z-0.1875
G1 X0.19
G1 X0.39
G1 F10.0 X0.34446
G1 F40.0 X0.19 Z-0.21473
G1 X0.39 Z-0.25
G1 X0.19
G1 X0.39
G1 F10.0 X0.34446
G1 F40.0 X0.19 Z-0.27723
G1 X0.39 Z-0.3125
G1 X0.19
G1 X0.39
G1 F10.0 X0.34446
G1 F40.0 X0.19 Z-0.33973
G1 X0.39 Z-0.375
G1 X0.19
G1 X0.39
G0 Z0.125
G0 X1.45578
G1 F10.0 Z0.0
G1 F40.0 X1.61024 Z-0.02723
G1 X1.41024 Z-0.0625
G1 X1.61024
G1 X1.41024
G1 F10.0 X1.45578
G1 F40.0 X1.61024 Z-0.08973
G1 X1.41024 Z-0.125
G1 X1.61024
G1 X1.41024
G1 F10.0 X1.45578
G1 F40.0 X1.61024 Z-0.15223
G1 X1.41024 Z-0.1875
G1 X1.61024
G1 X1.41024
G1 F10.0 X1.45578
G1 F40.0 X1.61024 Z-0.21473
G1 X1.41024 Z-0.25
G1 X1.61024
G1 X1.41024
G1 F10.0 X1.45578
G1 F40.0 X1.61024 Z-0.27723
G1 X1.41024 Z-0.3125
G1 X1.61024
G1 X1.41024
G1 F10.0 X1.45578
G1 F40.0 X1.61024 Z-0.33973
G1 X1.41024 Z-0.375
G1 X1.61024
G1 X1.41024
G0 Z0.125
G0 X1.45578 Y3.06
G1 F10.0 Z0.0
G1 F40.0 X1.61024 Z-0.02723
G1 X1.41024 Z-0.0625
G1 X1.61024
G1 X1.41024
G1 F10.0 X1.45578
G1 F40.0 X1.61024 Z-0.08973
G1 X1.41024 Z-0.125
G1 X1.61024
G1 X1.41024
G1 F10.0 X1.45578
G1 F40.0 X1.61024 Z-0.15223
G1 X1.41024 Z-0.1875
G1 X1.61024
G1 X1.41024
G1 F10.0 X1.45578
G1 F40.0 X1.61024 Z-0.21473
G1 X1.41024 Z-0.25
G1 X1.61024
G1 X1.41024
G1 F10.0 X1.45578
G1 F40.0 X1.61024 Z-0.27723
G1 X1.41024 Z-0.3125
G1 X1.61024
G1 X1.41024
G1 F10.0 X1.45578
G1 F40.0 X1.61024 Z-0.33973
G1 X1.41024 Z-0.375
G1 X1.61024
G1 X1.41024
G0 Z0.125
G0 X0.34446
G1 F10.0 Z0.0
G1 F40.0 X0.19 Z-0.02723
G1 X0.39 Z-0.0625
G1 X0.19
G1 X0.39
G1 F10.0 X0.34446
G1 F40.0 X0.19 Z-0.08973
G1 X0.39 Z-0.125
G1 X0.19
G1 X0.39
G1 F10.0 X0.34446
G1 F40.0 X0.19 Z-0.15223
G1 X0.39 Z-0.1875
G1 X0.19
G1 X0.39
G1 F10.0 X0.34446
G1 F40.0 X0.19 Z-0.21473
G1 X0.39 Z-0.25
G1 X0.19
G1 X0.39
G1 F10.0 X0.34446
G1 F40.0 X0.19 Z-0.27723
G1 X0.39 Z-0.3125
G1 X0.19
G1 X0.39
G1 F10.0 X0.34446
G1 F40.0 X0.19 Z-0.33973
G1 X0.39 Z-0.375
G1 X0.19
G1 X0.39
( ScrewCSKs )
S1000
G0 Z0.125
G0 X0.74479 Y0.7554
G1 F10.0 Z0.0
G3 F40.0 X0.74625 Y0.7435 Z-0.00245 I0.00521 J-0.0054
G3 X0.7575 Y0.75 Z-0.00522 I0.00375 J0.0065
G3 X0.74625 Y0.7565 Z-0.00799 I-0.0075 J0.0
G3 Y0.7435 Z-0.01076 I0.00375 J-0.0065
G3 X0.7575 Y0.75 Z-0.01353 I0.00375 J0.0065
G3 X0.74625 Y0.7565 Z-0.0163 I-0.0075 J0.0
G3 Y0.7435 Z-0.01907 I0.00375 J-0.0065
G3 X0.7575 Y0.75 Z-0.02184 I0.00375 J0.0065
G3 X0.74625 Y0.7565 Z-0.02461 I-0.0075 J0.0
G3 Y0.7435 Z-0.02737 I0.00375 J-0.0065
G3 X0.7575 Y0.75 Z-0.03014 I0.00375 J0.0065
G3 X0.74625 Y0.7565 Z-0.03291 I-0.0075 J0.0
G3 Y0.7435 Z-0.03568 I0.00375 J-0.0065
G3 X0.7575 Y0.75 Z-0.03845 I0.00375 J0.0065
G3 X0.74625 Y0.7565 Z-0.04122 I-0.0075 J0.0
G3 Y0.7435 Z-0.04399 I0.00375 J-0.0065
G3 X0.7575 Y0.75 Z-0.04676 I0.00375 J0.0065
G3 X0.74625 Y0.7565 Z-0.04953 I-0.0075 J0.0
G3 Y0.7435 Z-0.0523 I0.00375 J-0.0065
G3 X0.7575 Y0.75 Z-0.05507 I0.00375 J0.0065
G3 X0.74625 Y0.7565 Z-0.05784 I-0.0075 J0.0
G3 Y0.7435 Z-0.06061 I0.00375 J-0.0065
G3 X0.7575 Y0.75 Z-0.06338 I0.00375 J0.0065
G3 X0.74625 Y0.7565 Z-0.06615 I-0.0075 J0.0
G3 Y0.7435 Z-0.06892 I0.00375 J-0.0065
G3 X0.7575 Y0.75 Z-0.07169 I0.00375 J0.0065
G3 X0.74625 Y0.7565 Z-0.07446 I-0.0075 J0.0
G3 Y0.7435 Z-0.07723 I0.00375 J-0.0065
G3 X0.7575 Y0.75 Z-0.08 I0.00375 J0.0065
G3 X0.74625 Y0.7565 I-0.0075 J0.0
G3 Y0.7435 I0.00375 J-0.0065
G3 X0.7575 Y0.75 I0.00375 J0.0065
G1 F10.0 X0.8075
G3 F40.0 X0.72125 Y0.7998 I-0.0575 J0.0
G3 Y0.7002 I0.02875 J-0.0498
G3 X0.8075 Y0.75 I0.02875 J0.0498
G1 F10.0 X0.8575
G3 F40.0 X0.69625 Y0.8431 I-0.1075 J0.0
G3 Y0.6569 I0.05375 J-0.0931
G3 X0.8575 Y0.75 I0.05375 J0.0931
G1 F10.0 X0.9075
G3 F40.0 X0.67125 Y0.8864 I-0.1575 J0.0
G3 Y0.6136 I0.07875 J-0.1364
G3 X0.9075 Y0.75 I0.07875 J0.1364
G1 F10.0 X0.9575
G3 F40.0 X0.64625 Y0.9297 I-0.2075 J0.0
G3 Y0.5703 I0.10375 J-0.1797
G3 X0.9575 Y0.75 I0.10375 J0.1797
G0 Z0.125
G0 X0.74479 Y0.7554
G1 F10.0 Z-0.08
G3 F40.0 X0.74625 Y0.7435 Z-0.08245 I0.00521 J-0.0054
G3 X0.7575 Y0.75 Z-0.08522 I0.00375 J0.0065
G3 X0.74625 Y0.7565 Z-0.08799 I-0.0075 J0.0
G3 Y0.7435 Z-0.09076 I0.00375 J-0.0065
G3 X0.7575 Y0.75 Z-0.09353 I0.00375 J0.0065
G3 X0.74625 Y0.7565 Z-0.0963 I-0.0075 J0.0
G3 Y0.7435 Z-0.09907 I0.00375 J-0.0065
G3 X0.7575 Y0.75 Z-0.10184 I0.00375 J0.0065
G3 X0.74625 Y0.7565 Z-0.10461 I-0.0075 J0.0
G3 Y0.7435 Z-0.10737 I0.00375 J-0.0065
G3 X0.7575 Y0.75 Z-0.11014 I0.00375 J0.0065
G3 X0.74625 Y0.7565 Z-0.11291 I-0.0075 J0.0
G3 Y0.7435 Z-0.11568 I0.00375 J-0.0065
G3 X0.7575 Y0.75 Z-0.11845 I0.00375 J0.0065
G3 X0.74625 Y0.7565 Z-0.12122 I-0.0075 J0.0
G3 Y0.7435 Z-0.12399 I0.00375 J-0.0065
G3 X0.7575 Y0.75 Z-0.12676 I0.00375 J0.0065
G3 X0.74625 Y0.7565 Z-0.12953 I-0.0075 J0.0
G3 Y0.7435 Z-0.1323 I0.00375 J-0.0065
G3 X0.7575 Y0.75 Z-0.13507 I0.00375 J0.0065
G3 X0.74625 Y0.7565 Z-0.13784 I-0.0075 J0.0
G3 Y0.7435 Z-0.14061 I0.00375 J-0.0065
G3 X0.7575 Y0.75 Z-0.14338 I0.00375 J0.0065
G3 X0.74625 Y0.7565 Z-0.14615 I-0.0075 J0.0
G3 Y0.7435 Z-0.14892 I0.00375 J-0.0065
G3 X0.7575 Y0.75 Z-0.15169 I0.00375 J0.0065
G3 X0.74625 Y0.7565 Z-0.15446 I-0.0075 J0.0
G3 Y0.7435 Z-0.15723 I0.00375 J-0.0065
G3 X0.7575 Y0.75 Z-0.16 I0.00375 J0.0065
G3 X0.74625 Y0.7565 I-0.0075 J0.0
G3 Y0.7435 I0.00375 J-0.0065
G3 X0.7575 Y0.75 I0.00375 J0.0065
G1 F10.0 X0.8075
G3 F40.0 X0.72125 Y0.7998 I-0.0575 J0.0
G3 Y0.7002 I0.02875 J-0.0498
G3 X0.8075 Y0.75 I0.02875 J0.0498
G1 F10.0 X0.8575
G3 F40.0 X0.69625 Y0.8431 I-0.1075 J0.0
G3 Y0.6569 I0.05375 J-0.0931
G3 X0.8575 Y0.75 I0.05375 J0.0931
G1 F10.0 X0.9075
G3 F40.0 X0.67125 Y0.8864 I-0.1575 J0.0
G3 Y0.6136 I0.07875 J-0.1364
G3 X0.9075 Y0.75 I0.07875 J0.1364
G1 F10.0 X0.9575
G3 F40.0 X0.64625 Y0.9297 I-0.2075 J0.0
G3 Y0.5703 I0.10375 J-0.1797
G3 X0.9575 Y0.75 I0.10375 J0.1797
G0 Z0.125
G0 X0.75255 Y0.75705
G1 F10.0 Z-0.16
G3 F40.0 X0.74625 Y0.7565 Z-0.16115 I-0.00255 J-0.00705
G3 Y0.7435 Z-0.16392 I0.00375 J-0.0065
G3 X0.7575 Y0.75 Z-0.16669 I0.00375 J0.0065
G3 X0.74625 Y0.7565 Z-0.16946 I-0.0075 J0.0
G3 Y0.7435 Z-0.17223 I0.00375 J-0.0065
G3 X0.7575 Y0.75 Z-0.175 I0.00375 J0.0065
G3 X0.74625 Y0.7565 I-0.0075 J0.0
G3 Y0.7435 I0.00375 J-0.0065
G3 X0.7575 Y0.75 I0.00375 J0.0065
G1 F10.0 X0.8075
G3 F40.0 X0.72125 Y0.7998 I-0.0575 J0.0
G3 Y0.7002 I0.02875 J-0.0498
G3 X0.8075 Y0.75 I0.02875 J0.0498
G1 F10.0 X0.8575
G3 F40.0 X0.69625 Y0.8431 I-0.1075 J0.0
G3 Y0.6569 I0.05375 J-0.0931
G3 X0.8575 Y0.75 I0.05375 J0.0931
G1 F10.0 X0.9075
G3 F40.0 X0.67125 Y0.8864 I-0.1575 J0.0
G3 Y0.6136 I0.07875 J-0.1364
G3 X0.9075 Y0.75 I0.07875 J0.1364
G1 F10.0 X0.9575
G3 F40.0 X0.64625 Y0.9297 I-0.2075 J0.0
G3 Y0.5703 I0.10375 J-0.1797
G3 X0.9575 Y0.75 I0.10375 J0.1797
G0 Z0.125
G0 X0.74398 Y0.75447
G1 F10.0 Z-0.175
G3 F40.0 X0.74625 Y0.7435 Z-0.17723 I0.00602 J-0.00447
G3 X0.7575 Y0.75 Z-0.18 I0.00375 J0.0065
G3 X0.74625 Y0.7565 I-0.0075 J0.0
G3 Y0.7435 I0.00375 J-0.0065
G3 X0.7575 Y0.75 I0.00375 J0.0065
G1 F10.0 X0.8075
G3 F40.0 X0.72125 Y0.7998 I-0.0575 J0.0
G3 Y0.7002 I0.02875 J-0.0498
G3 X0.8075 Y0.75 I0.02875 J0.0498
G1 F10.0 X0.8575
G3 F40.0 X0.69625 Y0.8431 I-0.1075 J0.0
G3 Y0.6569 I0.05375 J-0.0931
G3 X0.8575 Y0.75 I0.05375 J0.0931
G1 F10.0 X0.9075
G3 F40.0 X0.67125 Y0.8864 I-0.1575 J0.0
G3 Y0.6136 I0.07875 J-0.1364
G3 X0.9075 Y0.75 I0.07875 J0.1364
G1 F10.0 X0.9575
G3 F40.0 X0.64625 Y0.9297 I-0.2075 J0.0
G3 Y0.5703 I0.10375 J-0.1797
G3 X0.9575 Y0.75 I0.10375 J0.1797
G1 F10.0 X0.9625
G3 F40.0 X0.64375 Y0.93403 I-0.2125 J0.0
G3 Y0.56597 I0.10625 J-0.18403
G3 X0.9625 Y0.75 I0.10625 J0.18403
G0 Z0.125
G0 X3.75521 Y0.7446
G1 F10.0 Z0.0
G3 F40.0 X3.7575 Y0.75 Z-0.00106 I-0.00521 J0.0054
G3 X3.74625 Y0.7565 Z-0.00383 I-0.0075 J0.0
G3 X3.7425 Y0.75 Z-0.00522 I0.00375 J-0.0065
G3 X3.74625 Y0.7435 Z-0.0066 I0.0075 J0.0
G3 X3.7575 Y0.75 Z-0.00937 I0.00375 J0.0065
G3 X3.74625 Y0.7565 Z-0.01214 I-0.0075 J0.0
G3 X3.7425 Y0.75 Z-0.01353 I0.00375 J-0.0065
G3 X3.74625 Y0.7435 Z-0.01491 I0.0075 J0.0
G3 X3.7575 Y0.75 Z-0.01768 I0.00375 J0.0065
G3 X3.74625 Y0.7565 Z-0.02045 I-0.0075 J0.0
G3 X3.7425 Y0.75 Z-0.02184 I0.00375 J-0.0065
G3 X3.74625 Y0.7435 Z-0.02322 I0.0075 J0.0
G3 X3.7575 Y0.75 Z-0.02599 I0.00375 J0.0065
G3 X3.74625 Y0.7565 Z-0.02876 I-0.0075 J0.0
G3 X3.7425 Y0.75 Z-0.03014 I0.00375 J-0.0065
G3 X3.74625 Y0.7435 Z-0.03153 I0.0075 J0.0
G3 X3.7575 Y0.75 Z-0.0343 I0.00375 J0.0065
G3 X3.74625 Y0.7565 Z-0.03707 I-0.0075 J0.0
G3 X3.7425 Y0.75 Z-0.03845 I0.00375 J-0.0065
G3 X3.74625 Y0.7435 Z-0.03984 I0.0075 J0.0
G3 X3.7575 Y0.75 Z-0.04261 I0.00375 J0.0065
G3 X3.74625 Y0.7565 Z-0.04538 I-0.0075 J0.0
G3 X3.7425 Y0.75 Z-0.04676 I0.00375 J-0.0065
G3 X3.74625 Y0.7435 Z-0.04815 I0.0075 J0.0
G3 X3.7575 Y0.75 Z-0.05092 I0.00375 J0.0065
G3 X3.74625 Y0.7565 Z-0.05369 I-0.0075 J0.0
G3 X3.7425 Y0.75 Z-0.05507 I0.00375 J-0.0065
G3 X3.74625 Y0.7435 Z-0.05646 I0.0075 J0.0
G3 X3.7575 Y0.75 Z-0.05923 I0.00375 J0.0065
G3 X3.74625 Y0.7565 Z-0.062 I-0.0075 J0.0
G3 X3.7425 Y0.75 Z-0.06338 I0.00375 J-0.0065
G3 X3.74625 Y0.7435 Z-0.06477 I0.0075 J0.0
G3 X3.7575 Y0.75 Z-0.06754 I0.00375 J0.0065
G3 X3.74625 Y0.7565 Z-0.07031 I-0.0075 J0.0
G3 X3.7425 Y0.75 Z-0.07169 I0.00375 J-0.0065
G3 X3.74625 Y0.7435 Z-0.07308 I0.0075 J0.0
G3 X3.7575 Y0.75 Z-0.07585 I0.00375 J0.0065
G3 X3.74625 Y0.7565 Z-0.07862 I-0.0075 J0.0
G3 X3.7425 Y0.75 Z-0.08 I0.00375 J-0.0065
G3 X3.74625 Y0.7435 I0.0075 J0.0
G3 X3.7575 Y0.75 I0.00375 J0.0065
G3 X3.74625 Y0.7565 I-0.0075 J0.0
G3 X3.7425 Y0.75 I0.00375 J-0.0065
G1 F10.0 X3.6925
G3 F40.0 X3.72125 Y0.7002 I0.0575 J0.0
G3 X3.8075 Y0.75 I0.02875 J0.0498
G3 X3.72125 Y0.7998 I-0.0575 J0.0
G3 X3.6925 Y0.75 I0.02875 J-0.0498
G1 F10.0 X3.6425
G3 F40.0 X3.69625 Y0.6569 I0.1075 J0.0
G3 X3.8575 Y0.75 I0.05375 J0.0931
G3 X3.69625 Y0.8431 I-0.1075 J0.0
G3 X3.6425 Y0.75 I0.05375 J-0.0931
G1 F10.0 X3.5925
G3 F40.0 X3.67125 Y0.6136 I0.1575 J0.0
G3 X3.9075 Y0.75 I0.07875 J0.1364
G3 X3.67125 Y0.8864 I-0.1575 J0.0
G3 X3.5925 Y0.75 I0.07875 J-0.1364
G1 F10.0 X3.5425
G3 F40.0 X3.64625 Y0.5703 I0.2075 J0.0
G3 X3.9575 Y0.75 I0.10375 J0.1797
G3 X3.64625 Y0.9297 I-0.2075 J0.0
G3 X3.5425 Y0.75 I0.10375 J-0.1797
G0 Z0.125
G0 X3.75521 Y0.7446
G1 F10.0 Z-0.08
G3 F40.0 X3.7575 Y0.75 Z-0.08106 I-0.00521 J0.0054
G3 X3.74625 Y0.7565 Z-0.08383 I-0.0075 J0.0
G3 X3.7425 Y0.75 Z-0.08522 I0.00375 J-0.0065
G3 X3.74625 Y0.7435 Z-0.0866 I0.0075 J0.0
G3 X3.7575 Y0.75 Z-0.08937 I0.00375 J0.0065
G3 X3.74625 Y0.7565 Z-0.09214 I-0.0075 J0.0
G3 X3.7425 Y0.75 Z-0.09353 I0.00375 J-0.0065
G3 X3.74625 Y0.7435 Z-0.09491 I0.0075 J0.0
G3 X3.7575 Y0.75 Z-0.09768 I0.00375 J0.0065
G3 X3.74625 Y0.7565 Z-0.10045 I-0.0075 J0.0
G3 X3.7425 Y0.75 Z-0.10184 I0.00375 J-0.0065
G3 X3.74625 Y0.7435 Z-0.10322 I0.0075 J0.0
G3 X3.7575 Y0.75 Z-0.10599 I0.00375 J0.0065
G3 X3.74625 Y0.7565 Z-0.10876 I-0.0075 J0.0
G3 X3.7425 Y0.75 Z-0.11014 I0.00375 J-0.0065
G3 X3.74625 Y0.7435 Z-0.11153 I0.0075 J0.0
G3 X3.7575 Y0.75 Z-0.1143 I0.00375 J0.0065
G3 X3.74625 Y0.7565 Z-0.11707 I-0.0075 J0.0
G3 X3.7425 Y0.75 Z-0.11845 I0.00375 J-0.0065
G3 X3.74625 Y0.7435 Z-0.11984 I0.0075 J0.0
G3 X3.7575 Y0.75 Z-0.12261 I0.00375 J0.0065
G3 X3.74625 Y0.7565 Z-0.12538 I-0.0075 J0.0
G3 X3.7425 Y0.75 Z-0.12676 I0.00375 J-0.0065
G3 X3.74625 Y0.7435 Z-0.12815 I0.0075 J0.0
G3 X3.7575 Y0.75 Z-0.13092 I0.00375 J0.0065
G3 X3.74625 Y0.7565 Z-0.13369 I-0.0075 J0.0
G3 X3.7425 Y0.75 Z-0.13507 I0.00375 J-0.0065
G3 X3.74625 Y0.7435 Z-0.13646 I0.0075 J0.0
G3 X3.7575 Y0.75 Z-0.13923 I0.00375 J0.0065
G3 X3.74625 Y0.7565 Z-0.142 I-0.0075 J0.0
G3 X3.7425 Y0.75 Z-0.14338 I0.00375 J-0.0065
G3 X3.74625 Y0.7435 Z-0.14477 I0.0075 J0.0
G3 X3.7575 Y0.75 Z-0.14754 I0.00375 J0.0065
G3 X3.74625 Y0.7565 Z-0.15031 I-0.0075 J0.0
G3 X3.7425 Y0.75 Z-0.15169 I0.00375 J-0.0065
G3 X3.74625 Y0.7435 Z-0.15308 I0.0075 J0.0
G3 X3.7575 Y0.75 Z-0.15585 I0.00375 J0.0065
G3 X3.74625 Y0.7565 Z-0.15862 I-0.0075 J0.0
G3 X3.7425 Y0.75 Z-0.16 I0.00375 J-0.0065
G3 X3.74625 Y0.7435 I0.0075 J0.0
G3 X3.7575 Y0.75 I0.00375 J0.0065
G3 X3.74625 Y0.7565 I-0.0075 J0.0
G3 X3.7425 Y0.75 I0.00375 J-0.0065
G1 F10.0 X3.6925
G3 F40.0 X3.72125 Y0.7002 I0.0575 J0.0
G3 X3.8075 Y0.75 I0.02875 J0.0498
G3 X3.72125 Y0.7998 I-0.0575 J0.0
G3 X3.6925 Y0.75 I0.02875 J-0.0498
G1 F10.0 X3.6425
G3 F40.0 X3.69625 Y0.6569 I0.1075 J0.0
G3 X3.8575 Y0.75 I0.05375 J0.0931
G3 X3.69625 Y0.8431 I-0.1075 J0.0
G3 X3.6425 Y0.75 I0.05375 J-0.0931
G1 F10.0 X3.5925
G3 F40.0 X3.67125 Y0.6136 I0.1575 J0.0
G3 X3.9075 Y0.75 I0.07875 J0.1364
G3 X3.67125 Y0.8864 I-0.1575 J0.0
G3 X3.5925 Y0.75 I0.07875 J-0.1364
G1 F10.0 X3.5425
G3 F40.0 X3.64625 Y0.5703 I0.2075 J0.0
G3 X3.9575 Y0.75 I0.10375 J0.1797
G3 X3.64625 Y0.9297 I-0.2075 J0.0
G3 X3.5425 Y0.75 I0.10375 J-0.1797
G0 Z0.125
G0 X3.74745 Y0.74295
G1 F10.0 Z-0.16
G3 F40.0 X3.7575 Y0.75 Z-0.16254 I0.00255 J0.00705
G3 X3.74625 Y0.7565 Z-0.16531 I-0.0075 J0.0
G3 X3.7425 Y0.75 Z-0.16669 I0.00375 J-0.0065
G3 X3.74625 Y0.7435 Z-0.16808 I0.0075 J0.0
G3 X3.7575 Y0.75 Z-0.17085 I0.00375 J0.0065
G3 X3.74625 Y0.7565 Z-0.17362 I-0.0075 J0.0
G3 X3.7425 Y0.75 Z-0.175 I0.00375 J-0.0065
G3 X3.74625 Y0.7435 I0.0075 J0.0
G3 X3.7575 Y0.75 I0.00375 J0.0065
G3 X3.74625 Y0.7565 I-0.0075 J0.0
G3 X3.7425 Y0.75 I0.00375 J-0.0065
G1 F10.0 X3.6925
G3 F40.0 X3.72125 Y0.7002 I0.0575 J0.0
G3 X3.8075 Y0.75 I0.02875 J0.0498
G3 X3.72125 Y0.7998 I-0.0575 J0.0
G3 X3.6925 Y0.75 I0.02875 J-0.0498
G1 F10.0 X3.6425
G3 F40.0 X3.69625 Y0.6569 I0.1075 J0.0
G3 X3.8575 Y0.75 I0.05375 J0.0931
G3 X3.69625 Y0.8431 I-0.1075 J0.0
G3 X3.6425 Y0.75 I0.05375 J-0.0931
G1 F10.0 X3.5925
G3 F40.0 X3.67125 Y0.6136 I0.1575 J0.0
G3 X3.9075 Y0.75 I0.07875 J0.1364
G3 X3.67125 Y0.8864 I-0.1575 J0.0
G3 X3.5925 Y0.75 I0.07875 J-0.1364
G1 F10.0 X3.5425
G3 F40.0 X3.64625 Y0.5703 I0.2075 J0.0
G3 X3.9575 Y0.75 I0.10375 J0.1797
G3 X3.64625 Y0.9297 I-0.2075 J0.0
G3 X3.5425 Y0.75 I0.10375 J-0.1797
G0 Z0.125
G0 X3.75602 Y0.74553
G1 F10.0 Z-0.175
G3 F40.0 X3.7575 Y0.75 Z-0.17585 I-0.00602 J0.00447
G3 X3.74625 Y0.7565 Z-0.17862 I-0.0075 J0.0
G3 X3.7425 Y0.75 Z-0.18 I0.00375 J-0.0065
G3 X3.74625 Y0.7435 I0.0075 J0.0
G3 X3.7575 Y0.75 I0.00375 J0.0065
G3 X3.74625 Y0.7565 I-0.0075 J0.0
G3 X3.7425 Y0.75 I0.00375 J-0.0065
G1 F10.0 X3.6925
G3 F40.0 X3.72125 Y0.7002 I0.0575 J0.0
G3 X3.8075 Y0.75 I0.02875 J0.0498
G3 X3.72125 Y0.7998 I-0.0575 J0.0
G3 X3.6925 Y0.75 I0.02875 J-0.0498
G1 F10.0 X3.6425
G3 F40.0 X3.69625 Y0.6569 I0.1075 J0.0
G3 X3.8575 Y0.75 I0.05375 J0.0931
G3 X3.69625 Y0.8431 I-0.1075 J0.0
G3 X3.6425 Y0.75 I0.05375 J-0.0931
G1 F10.0 X3.5925
G3 F40.0 X3.67125 Y0.6136 I0.1575 J0.0
G3 X3.9075 Y0.75 I0.07875 J0.1364
G3 X3.67125 Y0.8864 I-0.1575 J0.0
G3 X3.5925 Y0.75 I0.07875 J-0.1364
G1 F10.0 X3.5425
G3 F40.0 X3.64625 Y0.5703 I0.2075 J0.0
G3 X3.9575 Y0.75 I0.10375 J0.1797
G3 X3.64625 Y0.9297 I-0.2075 J0.0
G3 X3.5425 Y0.75 I0.10375 J-0.1797
G1 F10.0 X3.5375
G3 F40.0 X3.64375 Y0.56597 I0.2125 J0.0
G3 X3.9625 Y0.75 I0.10625 J0.18403
G3 X3.64375 Y0.93403 I-0.2125 J0.0
G3 X3.5375 Y0.75 I0.10625 J-0.18403
G0 Z0.125
G0 X9.25521 Y0.7446
G1 F10.0 Z0.0
G3 F40.0 X9.2575 Y0.75 Z-0.00106 I-0.00521 J0.0054
G3 X9.24625 Y0.7565 Z-0.00383 I-0.0075 J0.0
G3 X9.2425 Y0.75 Z-0.00522 I0.00375 J-0.0065
G3 X9.24625 Y0.7435 Z-0.0066 I0.0075 J0.0
G3 X9.2575 Y0.75 Z-0.00937 I0.00375 J0.0065
G3 X9.24625 Y0.7565 Z-0.01214 I-0.0075 J0.0
G3 X9.2425 Y0.75 Z-0.01353 I0.00375 J-0.0065
G3 X9.24625 Y0.7435 Z-0.01491 I0.0075 J0.0
G3 X9.2575 Y0.75 Z-0.01768 I0.00375 J0.0065
G3 X9.24625 Y0.7565 Z-0.02045 I-0.0075 J0.0
G3 X9.2425 Y0.75 Z-0.02184 I0.00375 J-0.0065
G3 X9.24625 Y0.7435 Z-0.02322 I0.0075 J0.0
G3 X9.2575 Y0.75 Z-0.02599 I0.00375 J0.0065
G3 X9.24625 Y0.7565 Z-0.02876 I-0.0075 J0.0
G3 X9.2425 Y0.75 Z-0.03014 I0.00375 J-0.0065
G3 X9.24625 Y0.7435 Z-0.03153 I0.0075 J0.0
G3 X9.2575 Y0.75 Z-0.0343 I0.00375 J0.0065
G3 X9.24625 Y0.7565 Z-0.03707 I-0.0075 J0.0
G3 X9.2425 Y0.75 Z-0.03845 I0.00375 J-0.0065
G3 X9.24625 Y0.7435 Z-0.03984 I0.0075 J0.0
G3 X9.2575 Y0.75 Z-0.04261 I0.00375 J0.0065
G3 X9.24625 Y0.7565 Z-0.04538 I-0.0075 J0.0
G3 X9.2425 Y0.75 Z-0.04676 I0.00375 J-0.0065
G3 X9.24625 Y0.7435 Z-0.04815 I0.0075 J0.0
G3 X9.2575 Y0.75 Z-0.05092 I0.00375 J0.0065
G3 X9.24625 Y0.7565 Z-0.05369 I-0.0075 J0.0
G3 X9.2425 Y0.75 Z-0.05507 I0.00375 J-0.0065
G3 X9.24625 Y0.7435 Z-0.05646 I0.0075 J0.0
G3 X9.2575 Y0.75 Z-0.05923 I0.00375 J0.0065
G3 X9.24625 Y0.7565 Z-0.062 I-0.0075 J0.0
G3 X9.2425 Y0.75 Z-0.06338 I0.00375 J-0.0065
G3 X9.24625 Y0.7435 Z-0.06477 I0.0075 J0.0
G3 X9.2575 Y0.75 Z-0.06754 I0.00375 J0.0065
G3 X9.24625 Y0.7565 Z-0.07031 I-0.0075 J0.0
G3 X9.2425 Y0.75 Z-0.07169 I0.00375 J-0.0065
G3 X9.24625 Y0.7435 Z-0.07308 I0.0075 J0.0
G3 X9.2575 Y0.75 Z-0.07585 I0.00375 J0.0065
G3 X9.24625 Y0.7565 Z-0.07862 I-0.0075 J0.0
G3 X9.2425 Y0.75 Z-0.08 I0.00375 J-0.0065
G3 X9.24625 Y0.7435 I0.0075 J0.0
G3 X9.2575 Y0.75 I0.00375 J0.0065
G3 X9.24625 Y0.7565 I-0.0075 J0.0
G3 X9.2425 Y0.75 I0.00375 J-0.0065
G1 F10.0 X9.1925
G3 F40.0 X9.22125 Y0.7002 I0.0575 J0.0
G3 X9.3075 Y0.75 I0.02875 J0.0498
G3 X9.22125 Y0.7998 I-0.0575 J0.0
G3 X9.1925 Y0.75 I0.02875 J-0.0498
G1 F10.0 X9.1425
G3 F40.0 X9.19625 Y0.6569 I0.1075 J0.0
G3 X9.3575 Y0.75 I0.05375 J0.0931
G3 X9.19625 Y0.8431 I-0.1075 J0.0
G3 X9.1425 Y0.75 I0.05375 J-0.0931
G1 F10.0 X9.0925
G3 F40.0 X9.17125 Y0.6136 I0.1575 J0.0
G3 X9.4075 Y0.75 I0.07875 J0.1364
G3 X9.17125 Y0.8864 I-0.1575 J0.0
G3 X9.0925 Y0.75 I0.07875 J-0.1364
G1 F10.0 X9.0425
G3 F40.0 X9.14625 Y0.5703 I0.2075 J0.0
G3 X9.4575 Y0.75 I0.10375 J0.1797
G3 X9.14625 Y0.9297 I-0.2075 J0.0
G3 X9.0425 Y0.75 I0.10375 J-0.1797
G0 Z0.125
G0 X9.25521 Y0.7446
G1 F10.0 Z-0.08
G3 F40.0 X9.2575 Y0.75 Z-0.08106 I-0.00521 J0.0054
G3 X9.24625 Y0.7565 Z-0.08383 I-0.0075 J0.0
G3 X9.2425 Y0.75 Z-0.08522 I0.00375 J-0.0065
G3 X9.24625 Y0.7435 Z-0.0866 I0.0075 J0.0
G3 X9.2575 Y0.75 Z-0.08937 I0.00375 J0.0065
G3 X9.24625 Y0.7565 Z-0.09214 I-0.0075 J0.0
G3 X9.2425 Y0.75 Z-0.09353 I0.00375 J-0.0065
G3 X9.24625 Y0.7435 Z-0.09491 I0.0075 J0.0
G3 X9.2575 Y0.75 Z-0.09768 I0.00375 J0.0065
G3 X9.24625 Y0.7565 Z-0.10045 I-0.0075 J0.0
G3 X9.2425 Y0.75 Z-0.10184 I0.00375 J-0.0065
G3 X9.24625 Y0.7435 Z-0.10322 I0.0075 J0.0
G3 X9.2575 Y0.75 Z-0.10599 I0.00375 J0.0065
G3 X9.24625 Y0.7565 Z-0.10876 I-0.0075 J0.0
G3 X9.2425 Y0.75 Z-0.11014 I0.00375 J-0.0065
G3 X9.24625 Y0.7435 Z-0.11153 I0.0075 J0.0
G3 X9.2575 Y0.75 Z-0.1143 I0.00375 J0.0065
G3 X9.24625 Y0.7565 Z-0.11707 I-0.0075 J0.0
G3 X9.2425 Y0.75 Z-0.11845 I0.00375 J-0.0065
G3 X9.24625 Y0.7435 Z-0.11984 I0.0075 J0.0
G3 X9.2575 Y0.75 Z-0.12261 I0.00375 J0.0065
G3 X9.24625 Y0.7565 Z-0.12538 I-0.0075 J0.0
G3 X9.2425 Y0.75 Z-0.12676 I0.00375 J-0.0065
G3 X9.24625 Y0.7435 Z-0.12815 I0.0075 J0.0
G3 X9.2575 Y0.75 Z-0.13092 I0.00375 J0.0065
G3 X9.24625 Y0.7565 Z-0.13369 I-0.0075 J0.0
G3 X9.2425 Y0.75 Z-0.13507 I0.00375 J-0.0065
G3 X9.24625 Y0.7435 Z-0.13646 I0.0075 J0.0
G3 X9.2575 Y0.75 Z-0.13923 I0.00375 J0.0065
G3 X9.24625 Y0.7565 Z-0.142 I-0.0075 J0.0
G3 X9.2425 Y0.75 Z-0.14338 I0.00375 J-0.0065
G3 X9.24625 Y0.7435 Z-0.14477 I0.0075 J0.0
G3 X9.2575 Y0.75 Z-0.14754 I0.00375 J0.0065
G3 X9.24625 Y0.7565 Z-0.15031 I-0.0075 J0.0
G3 X9.2425 Y0.75 Z-0.15169 I0.00375 J-0.0065
G3 X9.24625 Y0.7435 Z-0.15308 I0.0075 J0.0
G3 X9.2575 Y0.75 Z-0.15585 I0.00375 J0.0065
G3 X9.24625 Y0.7565 Z-0.15862 I-0.0075 J0.0
G3 X9.2425 Y0.75 Z-0.16 I0.00375 J-0.0065
G3 X9.24625 Y0.7435 I0.0075 J0.0
G3 X9.2575 Y0.75 I0.00375 J0.0065
G3 X9.24625 Y0.7565 I-0.0075 J0.0
G3 X9.2425 Y0.75 I0.00375 J-0.0065
G1 F10.0 X9.1925
G3 F40.0 X9.22125 Y0.7002 I0.0575 J0.0
G3 X9.3075 Y0.75 I0.02875 J0.0498
G3 X9.22125 Y0.7998 I-0.0575 J0.0
G3 X9.1925 Y0.75 I0.02875 J-0.0498
G1 F10.0 X9.1425
G3 F40.0 X9.19625 Y0.6569 I0.1075 J0.0
G3 X9.3575 Y0.75 I0.05375 J0.0931
G3 X9.19625 Y0.8431 I-0.1075 J0.0
G3 X9.1425 Y0.75 I0.05375 J-0.0931
G1 F10.0 X9.0925
G3 F40.0 X9.17125 Y0.6136 I0.1575 J0.0
G3 X9.4075 Y0.75 I0.07875 J0.1364
G3 X9.17125 Y0.8864 I-0.1575 J0.0
G3 X9.0925 Y0.75 I0.07875 J-0.1364
G1 F10.0 X9.0425
G3 F40.0 X9.14625 Y0.5703 I0.2075 J0.0
G3 X9.4575 Y0.75 I0.10375 J0.1797
G3 X9.14625 Y0.9297 I-0.2075 J0.0
G3 X9.0425 Y0.75 I0.10375 J-0.1797
G0 Z0.125
G0 X9.24745 Y0.74295
G1 F10.0 Z-0.16
G3 F40.0 X9.2575 Y0.75 Z-0.16254 I0.00255 J0.00705
G3 X9.24625 Y0.7565 Z-0.16531 I-0.0075 J0.0
G3 X9.2425 Y0.75 Z-0.16669 I0.00375 J-0.0065
G3 X9.24625 Y0.7435 Z-0.16808 I0.0075 J0.0
G3 X9.2575 Y0.75 Z-0.17085 I0.00375 J0.0065
G3 X9.24625 Y0.7565 Z-0.17362 I-0.0075 J0.0
G3 X9.2425 Y0.75 Z-0.175 I0.00375 J-0.0065
G3 X9.24625 Y0.7435 I0.0075 J0.0
G3 X9.2575 Y0.75 I0.00375 J0.0065
G3 X9.24625 Y0.7565 I-0.0075 J0.0
G3 X9.2425 Y0.75 I0.00375 J-0.0065
G1 F10.0 X9.1925
G3 F40.0 X9.22125 Y0.7002 I0.0575 J0.0
G3 X9.3075 Y0.75 I0.02875 J0.0498
G3 X9.22125 Y0.7998 I-0.0575 J0.0
G3 X9.1925 Y0.75 I0.02875 J-0.0498
G1 F10.0 X9.1425
G3 F40.0 X9.19625 Y0.6569 I0.1075 J0.0
G3 X9.3575 Y0.75 I0.05375 J0.0931
G3 X9.19625 Y0.8431 I-0.1075 J0.0
G3 X9.1425 Y0.75 I0.05375 J-0.0931
G1 F10.0 X9.0925
G3 F40.0 X9.17125 Y0.6136 I0.1575 J0.0
G3 X9.4075 Y0.75 I0.07875 J0.1364
G3 X9.17125 Y0.8864 I-0.1575 J0.0
G3 X9.0925 Y0.75 I0.07875 J-0.1364
G1 F10.0 X9.0425
G3 F40.0 X9.14625 Y0.5703 I0.2075 J0.0
G3 X9.4575 Y0.75 I0.10375 J0.1797
G3 X9.14625 Y0.9297 I-0.2075 J0.0
G3 X9.0425 Y0.75 I0.10375 J-0.1797
G0 Z0.125
G0 X9.25602 Y0.74553
G1 F10.0 Z-0.175
G3 F40.0 X9.2575 Y0.75 Z-0.17585 I-0.00602 J0.00447
G3 X9.24625 Y0.7565 Z-0.17862 I-0.0075 J0.0
G3 X9.2425 Y0.75 Z-0.18 I0.00375 J-0.0065
G3 X9.24625 Y0.7435 I0.0075 J0.0
G3 X9.2575 Y0.75 I0.00375 J0.0065
G3 X9.24625 Y0.7565 I-0.0075 J0.0
G3 X9.2425 Y0.75 I0.00375 J-0.0065
G1 F10.0 X9.1925
G3 F40.0 X9.22125 Y0.7002 I0.0575 J0.0
G3 X9.3075 Y0.75 I0.02875 J0.0498
G3 X9.22125 Y0.7998 I-0.0575 J0.0
G3 X9.1925 Y0.75 I0.02875 J-0.0498
G1 F10.0 X9.1425
G3 F40.0 X9.19625 Y0.6569 I0.1075 J0.0
G3 X9.3575 Y0.75 I0.05375 J0.0931
G3 X9.19625 Y0.8431 I-0.1075 J0.0
G3 X9.1425 Y0.75 I0.05375 J-0.0931
G1 F10.0 X9.0925
G3 F40.0 X9.17125 Y0.6136 I0.1575 J0.0
G3 X9.4075 Y0.75 I0.07875 J0.1364
G3 X9.17125 Y0.8864 I-0.1575 J0.0
G3 X9.0925 Y0.75 I0.07875 J-0.1364
G1 F10.0 X9.0425
G3 F40.0 X9.14625 Y0.5703 I0.2075 J0.0
G3 X9.4575 Y0.75 I0.10375 J0.1797
G3 X9.14625 Y0.9297 I-0.2075 J0.0
G3 X9.0425 Y0.75 I0.10375 J-0.1797
G1 F10.0 X9.0375
G3 F40.0 X9.14375 Y0.56597 I0.2125 J0.0
G3 X9.4625 Y0.75 I0.10625 J0.18403
G3 X9.14375 Y0.93403 I-0.2125 J0.0
G3 X9.0375 Y0.75 I0.10625 J-0.18403
G0 Z0.125
G0 X12.25521 Y0.7446
G1 F10.0 Z0.0
G3 F40.0 X12.2575 Y0.75 Z-0.00106 I-0.00521 J0.0054
G3 X12.24625 Y0.7565 Z-0.00383 I-0.0075 J0.0
G3 X12.2425 Y0.75 Z-0.00522 I0.00375 J-0.0065
G3 X12.24625 Y0.7435 Z-0.0066 I0.0075 J0.0
G3 X12.2575 Y0.75 Z-0.00937 I0.00375 J0.0065
G3 X12.24625 Y0.7565 Z-0.01214 I-0.0075 J0.0
G3 X12.2425 Y0.75 Z-0.01353 I0.00375 J-0.0065
G3 X12.24625 Y0.7435 Z-0.01491 I0.0075 J0.0
G3 X12.2575 Y0.75 Z-0.01768 I0.00375 J0.0065
G3 X12.24625 Y0.7565 Z-0.02045 I-0.0075 J0.0
G3 X12.2425 Y0.75 Z-0.02184 I0.00375 J-0.0065
G3 X12.24625 Y0.7435 Z-0.02322 I0.0075 J0.0
G3 X12.2575 Y0.75 Z-0.02599 I0.00375 J0.0065
G3 X12.24625 Y0.7565 Z-0.02876 I-0.0075 J0.0
G3 X12.2425 Y0.75 Z-0.03014 I0.00375 J-0.0065
G3 X12.24625 Y0.7435 Z-0.03153 I0.0075 J0.0
G3 X12.2575 Y0.75 Z-0.0343 I0.00375 J0.0065
G3 X12.24625 Y0.7565 Z-0.03707 I-0.0075 J0.0
G3 X12.2425 Y0.75 Z-0.03845 I0.00375 J-0.0065
G3 X12.24625 Y0.7435 Z-0.03984 I0.0075 J0.0
G3 X12.2575 Y0.75 Z-0.04261 I0.00375 J0.0065
G3 X12.24625 Y0.7565 Z-0.04538 I-0.0075 J0.0
G3 X12.2425 Y0.75 Z-0.04676 I0.00375 J-0.0065
G3 X12.24625 Y0.7435 Z-0.04815 I0.0075 J0.0
G3 X12.2575 Y0.75 Z-0.05092 I0.00375 J0.0065
G3 X12.24625 Y0.7565 Z-0.05369 I-0.0075 J0.0
G3 X12.2425 Y0.75 Z-0.05507 I0.00375 J-0.0065
G3 X12.24625 Y0.7435 Z-0.05646 I0.0075 J0.0
G3 X12.2575 Y0.75 Z-0.05923 I0.00375 J0.0065
G3 X12.24625 Y0.7565 Z-0.062 I-0.0075 J0.0
G3 X12.2425 Y0.75 Z-0.06338 I0.00375 J-0.0065
G3 X12.24625 Y0.7435 Z-0.06477 I0.0075 J0.0
G3 X12.2575 Y0.75 Z-0.06754 I0.00375 J0.0065
G3 X12.24625 Y0.7565 Z-0.07031 I-0.0075 J0.0
G3 X12.2425 Y0.75 Z-0.07169 I0.00375 J-0.0065
G3 X12.24625 Y0.7435 Z-0.07308 I0.0075 J0.0
G3 X12.2575 Y0.75 Z-0.07585 I0.00375 J0.0065
G3 X12.24625 Y0.7565 Z-0.07862 I-0.0075 J0.0
G3 X12.2425 Y0.75 Z-0.08 I0.00375 J-0.0065
G3 X12.24625 Y0.7435 I0.0075 J0.0
G3 X12.2575 Y0.75 I0.00375 J0.0065
G3 X12.24625 Y0.7565 I-0.0075 J0.0
G3 X12.2425 Y0.75 I0.00375 J-0.0065
G1 F10.0 X12.1925
G3 F40.0 X12.22125 Y0.7002 I0.0575 J0.0
G3 X12.3075 Y0.75 I0.02875 J0.0498
G3 X12.22125 Y0.7998 I-0.0575 J0.0
G3 X12.1925 Y0.75 I0.02875 J-0.0498
G1 F10.0 X12.1425
G3 F40.0 X12.19625 Y0.6569 I0.1075 J0.0
G3 X12.3575 Y0.75 I0.05375 J0.0931
G3 X12.19625 Y0.8431 I-0.1075 J0.0
G3 X12.1425 Y0.75 I0.05375 J-0.0931
G1 F10.0 X12.0925
G3 F40.0 X12.17125 Y0.6136 I0.1575 J0.0
G3 X12.4075 Y0.75 I0.07875 J0.1364
G3 X12.17125 Y0.8864 I-0.1575 J0.0
G3 X12.0925 Y0.75 I0.07875 J-0.1364
G1 F10.0 X12.0425
G3 F40.0 X12.14625 Y0.5703 I0.2075 J0.0
G3 X12.4575 Y0.75 I0.10375 J0.1797
G3 X12.14625 Y0.9297 I-0.2075 J0.0
G3 X12.0425 Y0.75 I0.10375 J-0.1797
G0 Z0.125
G0 X12.25521 Y0.7446
G1 F10.0 Z-0.08
G3 F40.0 X12.2575 Y0.75 Z-0.08106 I-0.00521 J0.0054
G3 X12.24625 Y0.7565 Z-0.08383 I-0.0075 J0.0
G3 X12.2425 Y0.75 Z-0.08522 I0.00375 J-0.0065
G3 X12.24625 Y0.7435 Z-0.0866 I0.0075 J0.0
G3 X12.2575 Y0.75 Z-0.08937 I0.00375 J0.0065
G3 X12.24625 Y0.7565 Z-0.09214 I-0.0075 J0.0
G3 X12.2425 Y0.75 Z-0.09353 I0.00375 J-0.0065
G3 X12.24625 Y0.7435 Z-0.09491 I0.0075 J0.0
G3 X12.2575 Y0.75 Z-0.09768 I0.00375 J0.0065
G3 X12.24625 Y0.7565 Z-0.10045 I-0.0075 J0.0
G3 X12.2425 Y0.75 Z-0.10184 I0.00375 J-0.0065
G3 X12.24625 Y0.7435 Z-0.10322 I0.0075 J0.0
G3 X12.2575 Y0.75 Z-0.10599 I0.00375 J0.0065
G3 X12.24625 Y0.7565 Z-0.10876 I-0.0075 J0.0
G3 X12.2425 Y0.75 Z-0.11014 I0.00375 J-0.0065
G3 X12.24625 Y0.7435 Z-0.11153 I0.0075 J0.0
G3 X12.2575 Y0.75 Z-0.1143 I0.00375 J0.0065
G3 X12.24625 Y0.7565 Z-0.11707 I-0.0075 J0.0
G3 X12.2425 Y0.75 Z-0.11845 I0.00375 J-0.0065
G3 X12.24625 Y0.7435 Z-0.11984 I0.0075 J0.0
G3 X12.2575 Y0.75 Z-0.12261 I0.00375 J0.0065
G3 X12.24625 Y0.7565 Z-0.12538 I-0.0075 J0.0
G3 X12.2425 Y0.75 Z-0.12676 I0.00375 J-0.0065
G3 X12.24625 Y0.7435 Z-0.12815 I0.0075 J0.0
G3 X12.2575 Y0.75 Z-0.13092 I0.00375 J0.0065
G3 X12.24625 Y0.7565 Z-0.13369 I-0.0075 J0.0
G3 X12.2425 Y0.75 Z-0.13507 I0.00375 J-0.0065
G3 X12.24625 Y0.7435 Z-0.13646 I0.0075 J0.0
G3 X12.2575 Y0.75 Z-0.13923 I0.00375 J0.0065
G3 X12.24625 Y0.7565 Z-0.142 I-0.0075 J0.0
G3 X12.2425 Y0.75 Z-0.14338 I0.00375 J-0.0065
G3 X12.24625 Y0.7435 Z-0.14477 I0.0075 J0.0
G3 X12.2575 Y0.75 Z-0.14754 I0.00375 J0.0065
G3 X12.24625 Y0.7565 Z-0.15031 I-0.0075 J0.0
G3 X12.2425 Y0.75 Z-0.15169 I0.00375 J-0.0065
G3 X12.24625 Y0.7435 Z-0.15308 I0.0075 J0.0
G3 X12.2575 Y0.75 Z-0.15585 I0.00375 J0.0065
G3 X12.24625 Y0.7565 Z-0.15862 I-0.0075 J0.0
G3 X12.2425 Y0.75 Z-0.16 I0.00375 J-0.0065
G3 X12.24625 Y0.7435 I0.0075 J0.0
G3 X12.2575 Y0.75 I0.00375 J0.0065
G3 X12.24625 Y0.7565 I-0.0075 J0.0
G3 X12.2425 Y0.75 I0.00375 J-0.0065
G1 F10.0 X12.1925
G3 F40.0 X12.22125 Y0.7002 I0.0575 J0.0
G3 X12.3075 Y0.75 I0.02875 J0.0498
G3 X12.22125 Y0.7998 I-0.0575 J0.0
G3 X12.1925 Y0.75 I0.02875 J-0.0498
G1 F10.0 X12.1425
G3 F40.0 X12.19625 Y0.6569 I0.1075 J0.0
G3 X12.3575 Y0.75 I0.05375 J0.0931
G3 X12.19625 Y0.8431 I-0.1075 J0.0
G3 X12.1425 Y0.75 I0.05375 J-0.0931
G1 F10.0 X12.0925
G3 F40.0 X12.17125 Y0.6136 I0.1575 J0.0
G3 X12.4075 Y0.75 I0.07875 J0.1364
G3 X12.17125 Y0.8864 I-0.1575 J0.0
G3 X12.0925 Y0.75 I0.07875 J-0.1364
G1 F10.0 X12.0425
G3 F40.0 X12.14625 Y0.5703 I0.2075 J0.0
G3 X12.4575 Y0.75 I0.10375 J0.1797
G3 X12.14625 Y0.9297 I-0.2075 J0.0
G3 X12.0425 Y0.75 I0.10375 J-0.1797
G0 Z0.125
G0 X12.24745 Y0.74295
G1 F10.0 Z-0.16
G3 F40.0 X12.2575 Y0.75 Z-0.16254 I0.00255 J0.00705
G3 X12.24625 Y0.7565 Z-0.16531 I-0.0075 J0.0
G3 X12.2425 Y0.75 Z-0.16669 I0.00375 J-0.0065
G3 X12.24625 Y0.7435 Z-0.16808 I0.0075 J0.0
G3 X12.2575 Y0.75 Z-0.17085 I0.00375 J0.0065
G3 X12.24625 Y0.7565 Z-0.17362 I-0.0075 J0.0
G3 X12.2425 Y0.75 Z-0.175 I0.00375 J-0.0065
G3 X12.24625 Y0.7435 I0.0075 J0.0
G3 X12.2575 Y0.75 I0.00375 J0.0065
G3 X12.24625 Y0.7565 I-0.0075 J0.0
G3 X12.2425 Y0.75 I0.00375 J-0.0065
G1 F10.0 X12.1925
G3 F40.0 X12.22125 Y0.7002 I0.0575 J0.0
G3 X12.3075 Y0.75 I0.02875 J0.0498
G3 X12.22125 Y0.7998 I-0.0575 J0.0
G3 X12.1925 Y0.75 I0.02875 J-0.0498
G1 F10.0 X12.1425
G3 F40.0 X12.19625 Y0.6569 I0.1075 J0.0
G3 X12.3575 Y0.75 I0.05375 J0.0931
G3 X12.19625 Y0.8431 I-0.1075 J0.0
G3 X12.1425 Y0.75 I0.05375 J-0.0931
G1 F10.0 X12.0925
G3 F40.0 X12.17125 Y0.6136 I0.1575 J0.0
G3 X12.4075 Y0.75 I0.07875 J0.1364
G3 X12.17125 Y0.8864 I-0.1575 J0.0
G3 X12.0925 Y0.75 I0.07875 J-0.1364
G1 F10.0 X12.0425
G3 F40.0 X12.14625 Y0.5703 I0.2075 J0.0
G3 X12.4575 Y0.75 I0.10375 J0.1797
G3 X12.14625 Y0.9297 I-0.2075 J0.0
G3 X12.0425 Y0.75 I0.10375 J-0.1797
G0 Z0.125
G0 X12.25602 Y0.74553
G1 F10.0 Z-0.175
G3 F40.0 X12.2575 Y0.75 Z-0.17585 I-0.00602 J0.00447
G3 X12.24625 Y0.7565 Z-0.17862 I-0.0075 J0.0
G3 X12.2425 Y0.75 Z-0.18 I0.00375 J-0.0065
G3 X12.24625 Y0.7435 I0.0075 J0.0
G3 X12.2575 Y0.75 I0.00375 J0.0065
G3 X12.24625 Y0.7565 I-0.0075 J0.0
G3 X12.2425 Y0.75 I0.00375 J-0.0065
G1 F10.0 X12.1925
G3 F40.0 X12.22125 Y0.7002 I0.0575 J0.0
G3 X12.3075 Y0.75 I0.02875 J0.0498
G3 X12.22125 Y0.7998 I-0.0575 J0.0
G3 X12.1925 Y0.75 I0.02875 J-0.0498
G1 F10.0 X12.1425
G3 F40.0 X12.19625 Y0.6569 I0.1075 J0.0
G3 X12.3575 Y0.75 I0.05375 J0.0931
G3 X12.19625 Y0.8431 I-0.1075 J0.0
G3 X12.1425 Y0.75 I0.05375 J-0.0931
G1 F10.0 X12.0925
G3 F40.0 X12.17125 Y0.6136 I0.1575 J0.0
G3 X12.4075 Y0.75 I0.07875 J0.1364
G3 X12.17125 Y0.8864 I-0.1575 J0.0
G3 X12.0925 Y0.75 I0.07875 J-0.1364
G1 F10.0 X12.0425
G3 F40.0 X12.14625 Y0.5703 I0.2075 J0.0
G3 X12.4575 Y0.75 I0.10375 J0.1797
G3 X12.14625 Y0.9297 I-0.2075 J0.0
G3 X12.0425 Y0.75 I0.10375 J-0.1797
G1 F10.0 X12.0375
G3 F40.0 X12.14375 Y0.56597 I0.2125 J0.0
G3 X12.4625 Y0.75 I0.10625 J0.18403
G3 X12.14375 Y0.93403 I-0.2125 J0.0
G3 X12.0375 Y0.75 I0.10625 J-0.18403
( ScrewHoles )
S1000
G0 Z0.125
G0 X0.74927 Y0.78874
G1 F10.0 Z0.0
G3 F40.0 X0.73063 Y0.78356 Z-0.00345 I0.00073 J-0.03874
G3 Y0.71644 Z-0.01776 I0.01938 J-0.03356
G3 X0.78875 Y0.75 Z-0.03207 I0.01938 J0.03356
G3 X0.73063 Y0.78356 Z-0.04638 I-0.03875 J0.0
G3 Y0.71644 Z-0.06069 I0.01938 J-0.03356
G3 X0.78875 Y0.75 Z-0.075 I0.01938 J0.03356
G3 X0.73063 Y0.78356 I-0.03875 J0.0
G3 Y0.71644 I0.01938 J-0.03356
G3 X0.78875 Y0.75 I0.01938 J0.03356
G1 F10.0 X0.83875
G3 F40.0 X0.70563 Y0.82686 I-0.08875 J0.0
G3 Y0.67314 I0.04438 J-0.07686
G3 X0.83875 Y0.75 I0.04438 J0.07686
G0 Z0.125
G0 X0.74927 Y0.78874
G1 F10.0 Z-0.075
G3 F40.0 X0.73063 Y0.78356 Z-0.07845 I0.00073 J-0.03874
G3 Y0.71644 Z-0.09276 I0.01938 J-0.03356
G3 X0.78875 Y0.75 Z-0.10707 I0.01938 J0.03356
G3 X0.73063 Y0.78356 Z-0.12138 I-0.03875 J0.0
G3 Y0.71644 Z-0.13569 I0.01938 J-0.03356
G3 X0.78875 Y0.75 Z-0.15 I0.01938 J0.03356
G3 X0.73063 Y0.78356 I-0.03875 J0.0
G3 Y0.71644 I0.01938 J-0.03356
G3 X0.78875 Y0.75 I0.01938 J0.03356
G1 F10.0 X0.83875
G3 F40.0 X0.70563 Y0.82686 I-0.08875 J0.0
G3 Y0.67314 I0.04438 J-0.07686
G3 X0.83875 Y0.75 I0.04438 J0.07686
G0 Z0.125
G0 X0.74927 Y0.78874
G1 F10.0 Z-0.15
G3 F40.0 X0.73063 Y0.78356 Z-0.15345 I0.00073 J-0.03874
G3 Y0.71644 Z-0.16776 I0.01938 J-0.03356
G3 X0.78875 Y0.75 Z-0.18207 I0.01938 J0.03356
G3 X0.73063 Y0.78356 Z-0.19638 I-0.03875 J0.0
G3 Y0.71644 Z-0.21069 I0.01938 J-0.03356
G3 X0.78875 Y0.75 Z-0.225 I0.01938 J0.03356
G3 X0.73063 Y0.78356 I-0.03875 J0.0
G3 Y0.71644 I0.01938 J-0.03356
G3 X0.78875 Y0.75 I0.01938 J0.03356
G1 F10.0 X0.83875
G3 F40.0 X0.70563 Y0.82686 I-0.08875 J0.0
G3 Y0.67314 I0.04438 J-0.07686
G3 X0.83875 Y0.75 I0.04438 J0.07686
G0 Z0.125
G0 X0.74927 Y0.78874
G1 F10.0 Z-0.225
G3 F40.0 X0.73063 Y0.78356 Z-0.22845 I0.00073 J-0.03874
G3 Y0.71644 Z-0.24276 I0.01938 J-0.03356
G3 X0.78875 Y0.75 Z-0.25707 I0.01938 J0.03356
G3 X0.73063 Y0.78356 Z-0.27138 I-0.03875 J0.0
G3 Y0.71644 Z-0.28569 I0.01938 J-0.03356
G3 X0.78875 Y0.75 Z-0.3 I0.01938 J0.03356
G3 X0.73063 Y0.78356 I-0.03875 J0.0
G3 Y0.71644 I0.01938 J-0.03356
G3 X0.78875 Y0.75 I0.01938 J0.03356
G1 F10.0 X0.83875
G3 F40.0 X0.70563 Y0.82686 I-0.08875 J0.0
G3 Y0.67314 I0.04438 J-0.07686
G3 X0.83875 Y0.75 I0.04438 J0.07686
G0 Z0.125
G0 X0.74927 Y0.78874
G1 F10.0 Z-0.3
G3 F40.0 X0.73063 Y0.78356 Z-0.30345 I0.00073 J-0.03874
G3 Y0.71644 Z-0.31776 I0.01938 J-0.03356
G3 X0.78875 Y0.75 Z-0.33207 I0.01938 J0.03356
G3 X0.73063 Y0.78356 Z-0.34638 I-0.03875 J0.0
G3 Y0.71644 Z-0.36069 I0.01938 J-0.03356
G3 X0.78875 Y0.75 Z-0.375 I0.01938 J0.03356
G3 X0.73063 Y0.78356 I-0.03875 J0.0
G3 Y0.71644 I0.01938 J-0.03356
G3 X0.78875 Y0.75 I0.01938 J0.03356
G1 F10.0 X0.83875
G3 F40.0 X0.70563 Y0.82686 I-0.08875 J0.0
G3 Y0.67314 I0.04438 J-0.07686
G3 X0.83875 Y0.75 I0.04438 J0.07686
G1 F10.0 X0.84375
G3 F40.0 X0.70313 Y0.83119 I-0.09375 J0.0
G3 Y0.66881 I0.04688 J-0.08119
G3 X0.84375 Y0.75 I0.04688 J0.08119
G0 Z0.125
G0 X3.75073 Y0.71126
G1 F10.0 Z0.0
G3 F40.0 X3.78875 Y0.75 Z-0.0106 I-0.00073 J0.03874
G3 X3.73063 Y0.78356 Z-0.02491 I-0.03875 J0.0
G3 X3.71125 Y0.75 Z-0.03207 I0.01938 J-0.03356
G3 X3.73063 Y0.71644 Z-0.03922 I0.03875 J0.0
G3 X3.78875 Y0.75 Z-0.05353 I0.01938 J0.03356
G3 X3.73063 Y0.78356 Z-0.06784 I-0.03875 J0.0
G3 X3.71125 Y0.75 Z-0.075 I0.01938 J-0.03356
G3 X3.73063 Y0.71644 I0.03875 J0.0
G3 X3.78875 Y0.75 I0.01938 J0.03356
G3 X3.73063 Y0.78356 I-0.03875 J0.0
G3 X3.71125 Y0.75 I0.01938 J-0.03356
G1 F10.0 X3.66125
G3 F40.0 X3.70563 Y0.67314 I0.08875 J0.0
G3 X3.83875 Y0.75 I0.04438 J0.07686
G3 X3.70563 Y0.82686 I-0.08875 J0.0
G3 X3.66125 Y0.75 I0.04438 J-0.07686
G0 Z0.125
G0 X3.75073 Y0.71126
G1 F10.0 Z-0.075
G3 F40.0 X3.78875 Y0.75 Z-0.0856 I-0.00073 J0.03874
G3 X3.73063 Y0.78356 Z-0.09991 I-0.03875 J0.0
G3 X3.71125 Y0.75 Z-0.10707 I0.01938 J-0.03356
G3 X3.73063 Y0.71644 Z-0.11422 I0.03875 J0.0
G3 X3.78875 Y0.75 Z-0.12853 I0.01938 J0.03356
G3 X3.73063 Y0.78356 Z-0.14284 I-0.03875 J0.0
G3 X3.71125 Y0.75 Z-0.15 I0.01938 J-0.03356
G3 X3.73063 Y0.71644 I0.03875 J0.0
G3 X3.78875 Y0.75 I0.01938 J0.03356
G3 X3.73063 Y0.78356 I-0.03875 J0.0
G3 X3.71125 Y0.75 I0.01938 J-0.03356
G1 F10.0 X3.66125
G3 F40.0 X3.70563 Y0.67314 I0.08875 J0.0
G3 X3.83875 Y0.75 I0.04438 J0.07686
G3 X3.70563 Y0.82686 I-0.08875 J0.0
G3 X3.66125 Y0.75 I0.04438 J-0.07686
G0 Z0.125
G0 X3.75073 Y0.71126
G1 F10.0 Z-0.15
G3 F40.0 X3.78875 Y0.75 Z-0.1606 I-0.00073 J0.03874
G3 X3.73063 Y0.78356 Z-0.17491 I-0.03875 J0.0
G3 X3.71125 Y0.75 Z-0.18207 I0.01938 J-0.03356
G3 X3.73063 Y0.71644 Z-0.18922 I0.03875 J0.0
G3 X3.78875 Y0.75 Z-0.20353 I0.01938 J0.03356
G3 X3.73063 Y0.78356 Z-0.21784 I-0.03875 J0.0
G3 X3.71125 Y0.75 Z-0.225 I0.01938 J-0.03356
G3 X3.73063 Y0.71644 I0.03875 J0.0
G3 X3.78875 Y0.75 I0.01938 J0.03356
G3 X3.73063 Y0.78356 I-0.03875 J0.0
G3 X3.71125 Y0.75 I0.01938 J-0.03356
G1 F10.0 X3.66125
G3 F40.0 X3.70563 Y0.67314 I0.08875 J0.0
G3 X3.83875 Y0.75 I0.04438 J0.07686
G3 X3.70563 Y0.82686 I-0.08875 J0.0
G3 X3.66125 Y0.75 I0.04438 J-0.07686
G0 Z0.125
G0 X3.75073 Y0.71126
G1 F10.0 Z-0.225
G3 F40.0 X3.78875 Y0.75 Z-0.2356 I-0.00073 J0.03874
G3 X3.73063 Y0.78356 Z-0.24991 I-0.03875 J0.0
G3 X3.71125 Y0.75 Z-0.25707 I0.01938 J-0.03356
G3 X3.73063 Y0.71644 Z-0.26422 I0.03875 J0.0
G3 X3.78875 Y0.75 Z-0.27853 I0.01938 J0.03356
G3 X3.73063 Y0.78356 Z-0.29284 I-0.03875 J0.0
G3 X3.71125 Y0.75 Z-0.3 I0.01938 J-0.03356
G3 X3.73063 Y0.71644 I0.03875 J0.0
G3 X3.78875 Y0.75 I0.01938 J0.03356
G3 X3.73063 Y0.78356 I-0.03875 J0.0
G3 X3.71125 Y0.75 I0.01938 J-0.03356
G1 F10.0 X3.66125
G3 F40.0 X3.70563 Y0.67314 I0.08875 J0.0
G3 X3.83875 Y0.75 I0.04438 J0.07686
G3 X3.70563 Y0.82686 I-0.08875 J0.0
G3 X3.66125 Y0.75 I0.04438 J-0.07686
G0 Z0.125
G0 X3.75073 Y0.71126
G1 F10.0 Z-0.3
G3 F40.0 X3.78875 Y0.75 Z-0.3106 I-0.00073 J0.03874
G3 X3.73063 Y0.78356 Z-0.32491 I-0.03875 J0.0
G3 X3.71125 Y0.75 Z-0.33207 I0.01938 J-0.03356
G3 X3.73063 Y0.71644 Z-0.33922 I0.03875 J0.0
G3 X3.78875 Y0.75 Z-0.35353 I0.01938 J0.03356
G3 X3.73063 Y0.78356 Z-0.36784 I-0.03875 J0.0
G3 X3.71125 Y0.75 Z-0.375 I0.01938 J-0.03356
G3 X3.73063 Y0.71644 I0.03875 J0.0
G3 X3.78875 Y0.75 I0.01938 J0.03356
G3 X3.73063 Y0.78356 I-0.03875 J0.0
G3 X3.71125 Y0.75 I0.01938 J-0.03356
G1 F10.0 X3.66125
G3 F40.0 X3.70563 Y0.67314 I0.08875 J0.0
G3 X3.83875 Y0.75 I0.04438 J0.07686
G3 X3.70563 Y0.82686 I-0.08875 J0.0
G3 X3.66125 Y0.75 I0.04438 J-0.07686
G1 F10.0 X3.65625
