( This gcode generated by C:/Program Files/EAGLE-4.16r2/ulp/pcb-gcode.ulp )
( Copyright 2005 by John Johnson. See readme.txt for licensing terms. )

( This file generated from the board d:/projects/eagle/Brushless_ESC_Driver/schematic.brd )
( This file generated  7/04/2007 04:01:53p )

G20

G90
G00 Z0.0500 
G00 X0 Y0
M03
G04 P3.000000
G00 Z0.0200 
G00 X1.3431 Y1.1821 
G01 Z-0.0100 F10.00 
G01 X1.3431 Y1.2178 
G01 X1.3178 Y1.2431 
G01 X1.2821 Y1.2431 
G01 X1.2569 Y1.2178 
G01 X1.2569 Y1.1821 
G01 X1.2799 Y1.1592 
G01 X1.2799 Y0.9908 
G01 X1.2569 Y0.9678 
G01 X1.2569 Y0.9321 
G01 X1.2821 Y0.9069 
G01 X1.3178 Y0.9069 
G01 X1.3431 Y0.9321 
G01 X1.3431 Y0.9678 
G01 X1.3201 Y0.9908 
G01 X1.3201 Y1.1592 
G01 X1.3431 Y1.1821 
G00 Z0.0200 
G00 X0.7501 Y0.5821 
G01 Z-0.0100 F10.00 
G01 X0.7501 Y0.6178 
G01 X0.7248 Y0.6431 
G01 X0.5751 Y0.6431 
G01 X0.5499 Y0.6178 
G01 X0.5499 Y0.5821 
G01 X0.5751 Y0.5569 
G01 X0.7248 Y0.5569 
G01 X0.7501 Y0.5821 
G00 Z0.0200 
G00 X0.7501 Y0.4821 
G01 Z-0.0100 F10.00 
G01 X0.7501 Y0.5178 
G01 X0.7248 Y0.5431 
G01 X0.5751 Y0.5431 
G01 X0.5499 Y0.5178 
G01 X0.5499 Y0.4821 
G01 X0.5751 Y0.4569 
G01 X0.7248 Y0.4569 
G01 X0.7501 Y0.4821 
G00 Z0.0200 
G00 X0.7501 Y0.3821 
G01 Z-0.0100 F10.00 
G01 X0.7501 Y0.4178 
G01 X0.7248 Y0.4431 
G01 X0.5751 Y0.4431 
G01 X0.5499 Y0.4178 
G01 X0.5499 Y0.3821 
G01 X0.5751 Y0.3569 
G01 X0.7248 Y0.3569 
G01 X0.7501 Y0.3821 
G00 Z0.0200 
G00 X1.0248 Y0.4431 
G01 Z-0.0100 F10.00 
G01 X0.8751 Y0.4431 
G01 X0.8499 Y0.4178 
G01 X0.8499 Y0.3821 
G01 X0.8751 Y0.3569 
G01 X1.0248 Y0.3569 
G01 X1.0478 Y0.3799 
G01 X1.2083 Y0.3799 
G01 X1.2201 Y0.3917 
G01 X1.2201 Y0.4083 
G01 X1.2201 Y0.4917 
G01 X1.2494 Y0.5210 
G01 X1.2675 Y0.5029 
G01 X1.4325 Y0.5029 
G01 X1.4601 Y0.5305 
G01 X1.4601 Y0.5695 
G01 X1.4325 Y0.5971 
G01 X1.2675 Y0.5971 
G01 X1.2399 Y0.5695 
G01 X1.2399 Y0.5683 
G01 X1.2299 Y0.5583 
G01 X1.1799 Y0.5083 
G01 X1.1799 Y0.4917 
G01 X1.1799 Y0.4201 
G01 X1.0478 Y0.4201 
G01 X1.0248 Y0.4431 
G00 Z0.0200 
G00 X1.0501 Y0.5821 
G01 Z-0.0100 F10.00 
G01 X1.0501 Y0.6178 
G01 X1.0248 Y0.6431 
G01 X0.8751 Y0.6431 
G01 X0.8499 Y0.6178 
G01 X0.8499 Y0.5821 
G01 X0.8751 Y0.5569 
G01 X1.0248 Y0.5569 
G01 X1.0501 Y0.5821 
G00 Z0.0200 
G00 X1.0501 Y0.7178 
G01 Z-0.0100 F10.00 
G01 X1.0248 Y0.7431 
G01 X1.0201 Y0.7431 
G01 X1.0201 Y0.9092 
G01 X1.0431 Y0.9321 
G01 X1.0431 Y0.9678 
G01 X1.0178 Y0.9931 
G01 X0.9821 Y0.9931 
G01 X0.9569 Y0.9678 
G01 X0.9569 Y0.9321 
G01 X0.9799 Y0.9092 
G01 X0.9799 Y0.7431 
G01 X0.8751 Y0.7431 
G01 X0.8499 Y0.7178 
G01 X0.8499 Y0.6821 
G01 X0.8751 Y0.6569 
G01 X1.0248 Y0.6569 
G01 X1.0395 Y0.6716 
G01 X1.2399 Y0.6315 
G01 X1.2399 Y0.6305 
G01 X1.2675 Y0.6029 
G01 X1.4325 Y0.6029 
G01 X1.4506 Y0.6210 
G01 X1.4799 Y0.5917 
G01 X1.4799 Y0.2201 
G01 X0.2701 Y0.2201 
G01 X0.2701 Y0.4029 
G01 X0.3325 Y0.4029 
G01 X0.3601 Y0.4305 
G01 X0.3601 Y0.4695 
G01 X0.3325 Y0.4971 
G01 X0.1675 Y0.4971 
G01 X0.1399 Y0.4695 
G01 X0.1399 Y0.4305 
G01 X0.1675 Y0.4029 
G01 X0.2299 Y0.4029 
G01 X0.2299 Y0.1917 
G01 X0.2417 Y0.1799 
G01 X0.2583 Y0.1799 
G01 X1.4917 Y0.1799 
G01 X1.5083 Y0.1799 
G01 X1.5201 Y0.1917 
G01 X1.5201 Y0.5917 
G01 X1.5201 Y0.6083 
G01 X1.4701 Y0.6583 
G01 X1.4701 Y0.6583 
G01 X1.4601 Y0.6683 
G01 X1.4601 Y0.6695 
G01 X1.4325 Y0.6971 
G01 X1.4201 Y0.6971 
G01 X1.4201 Y1.3583 
G01 X1.4083 Y1.3701 
G01 X1.3917 Y1.3701 
G01 X0.9083 Y1.3701 
G01 X0.5490 Y1.3701 
G01 X0.5490 Y1.3892 
G01 X0.5194 Y1.4188 
G01 X0.4775 Y1.4188 
G01 X0.4478 Y1.3892 
G01 X0.4478 Y1.2108 
G01 X0.4775 Y1.1812 
G01 X0.5194 Y1.1812 
G01 X0.5490 Y1.2108 
G01 X0.5490 Y1.3299 
G01 X0.8799 Y1.3299 
G01 X0.8799 Y1.2908 
G01 X0.8569 Y1.2678 
G01 X0.8569 Y1.2321 
G01 X0.8821 Y1.2069 
G01 X0.9178 Y1.2069 
G01 X0.9431 Y1.2321 
G01 X0.9431 Y1.2678 
G01 X0.9201 Y1.2908 
G01 X0.9201 Y1.3299 
G01 X1.3799 Y1.3299 
G01 X1.3799 Y0.6971 
G01 X1.2675 Y0.6971 
G01 X1.2424 Y0.6720 
G01 X1.0501 Y0.7105 
G01 X1.0501 Y0.7178 
G00 Z0.0200 
G00 X1.2399 Y0.4695 
G01 Z-0.0100 F10.00 
G01 X1.2399 Y0.4305 
G01 X1.2675 Y0.4029 
G01 X1.4325 Y0.4029 
G01 X1.4601 Y0.4305 
G01 X1.4601 Y0.4695 
G01 X1.4325 Y0.4971 
G01 X1.2675 Y0.4971 
G01 X1.2399 Y0.4695 
G00 Z0.0200 
G00 X0.3225 Y1.1812 
G01 Z-0.0100 F10.00 
G01 X0.3522 Y1.2108 
G01 X0.3522 Y1.3892 
G01 X0.3225 Y1.4188 
G01 X0.2806 Y1.4188 
G01 X0.2510 Y1.3892 
G01 X0.2510 Y1.2108 
G01 X0.2799 Y1.1819 
G01 X0.2799 Y0.7083 
G01 X0.2687 Y0.6971 
G01 X0.1675 Y0.6971 
G01 X0.1399 Y0.6695 
G01 X0.1399 Y0.6305 
G01 X0.1675 Y0.6029 
G01 X0.3325 Y0.6029 
G01 X0.3601 Y0.6305 
G01 X0.3601 Y0.6695 
G01 X0.3497 Y0.6799 
G01 X0.5522 Y0.6799 
G01 X0.5751 Y0.6569 
G01 X0.7248 Y0.6569 
G01 X0.7501 Y0.6821 
G01 X0.7501 Y0.7178 
G01 X0.7248 Y0.7431 
G01 X0.7201 Y0.7431 
G01 X0.7201 Y0.8906 
G01 X1.0093 Y1.1316 
G01 X1.1678 Y1.1712 
G01 X1.1821 Y1.1569 
G01 X1.2178 Y1.1569 
G01 X1.2431 Y1.1821 
G01 X1.2431 Y1.2178 
G01 X1.2178 Y1.2431 
G01 X1.1821 Y1.2431 
G01 X1.1569 Y1.2178 
G01 X1.1569 Y1.2099 
G01 X0.9975 Y1.1701 
G01 X0.9927 Y1.1701 
G01 X0.9907 Y1.1684 
G01 X0.9897 Y1.1681 
G01 X0.9864 Y1.1649 
G01 X0.7201 Y0.9429 
G01 X0.7201 Y1.2299 
G01 X0.7617 Y1.2299 
G01 X0.7635 Y1.2256 
G01 X0.7756 Y1.2135 
G01 X0.7914 Y1.2069 
G01 X0.8086 Y1.2069 
G01 X0.8244 Y1.2135 
G01 X0.8365 Y1.2256 
G01 X0.8431 Y1.2414 
G01 X0.8431 Y1.2586 
G01 X0.8365 Y1.2744 
G01 X0.8244 Y1.2865 
G01 X0.8086 Y1.2931 
G01 X0.7914 Y1.2931 
G01 X0.7756 Y1.2865 
G01 X0.7635 Y1.2744 
G01 X0.7617 Y1.2701 
G01 X0.7083 Y1.2701 
G01 X0.6917 Y1.2701 
G01 X0.6799 Y1.2583 
G01 X0.6799 Y0.9083 
G01 X0.6799 Y0.8917 
G01 X0.6799 Y0.7431 
G01 X0.5751 Y0.7431 
G01 X0.5522 Y0.7201 
G01 X0.3201 Y0.7201 
G01 X0.3201 Y1.1812 
G01 X0.3225 Y1.1812 
G00 Z0.0200 
G00 X0.3601 Y0.5695 
G01 Z-0.0100 F10.00 
G01 X0.3325 Y0.5971 
G01 X0.1675 Y0.5971 
G01 X0.1399 Y0.5695 
G01 X0.1399 Y0.5305 
G01 X0.1675 Y0.5029 
G01 X0.3325 Y0.5029 
G01 X0.3506 Y0.5210 
G01 X0.4299 Y0.4417 
G01 X0.4299 Y0.2917 
G01 X0.4417 Y0.2799 
G01 X0.4583 Y0.2799 
G01 X0.7583 Y0.2799 
G01 X0.7701 Y0.2917 
G01 X0.8201 Y0.3417 
G01 X0.8201 Y0.3583 
G01 X0.8201 Y0.4799 
G01 X0.8522 Y0.4799 
G01 X0.8751 Y0.4569 
G01 X1.0248 Y0.4569 
G01 X1.0501 Y0.4821 
G01 X1.0501 Y0.5178 
G01 X1.0248 Y0.5431 
G01 X0.8751 Y0.5431 
G01 X0.8522 Y0.5201 
G01 X0.7917 Y0.5201 
G01 X0.7799 Y0.5083 
G01 X0.7799 Y0.4917 
G01 X0.7799 Y0.3583 
G01 X0.7417 Y0.3201 
G01 X0.4701 Y0.3201 
G01 X0.4701 Y0.4417 
G01 X0.4701 Y0.4583 
G01 X0.3701 Y0.5583 
G01 X0.3601 Y0.5683 
G01 X0.3601 Y0.5695 
G00 Z0.0200 
G00 X1.3481 Y1.1801 
G01 Z-0.0100 F10.00 
G01 X1.3481 Y1.2199 
G01 X1.3199 Y1.2481 
G01 X1.2801 Y1.2481 
G01 X1.2519 Y1.2199 
G01 X1.2519 Y1.1801 
G01 X1.2749 Y1.1571 
G01 X1.2749 Y0.9929 
G01 X1.2519 Y0.9699 
G01 X1.2519 Y0.9301 
G01 X1.2801 Y0.9019 
G01 X1.3199 Y0.9019 
G01 X1.3481 Y0.9301 
G01 X1.3481 Y0.9699 
G01 X1.3251 Y0.9929 
G01 X1.3251 Y1.1571 
G01 X1.3481 Y1.1801 
G00 Z0.0200 
G00 X0.7551 Y0.5801 
G01 Z-0.0100 F10.00 
G01 X0.7551 Y0.6199 
G01 X0.7269 Y0.6481 
G01 X0.5731 Y0.6481 
G01 X0.5449 Y0.6199 
G01 X0.5449 Y0.5801 
G01 X0.5731 Y0.5519 
G01 X0.7269 Y0.5519 
G01 X0.7551 Y0.5801 
G00 Z0.0200 
G00 X0.7551 Y0.4801 
G01 Z-0.0100 F10.00 
G01 X0.7551 Y0.5199 
G01 X0.7269 Y0.5481 
G01 X0.5731 Y0.5481 
G01 X0.5449 Y0.5199 
G01 X0.5449 Y0.4801 
G01 X0.5731 Y0.4519 
G01 X0.7269 Y0.4519 
G01 X0.7551 Y0.4801 
G00 Z0.0200 
G00 X0.7551 Y0.3801 
G01 Z-0.0100 F10.00 
G01 X0.7551 Y0.4199 
G01 X0.7269 Y0.4481 
G01 X0.5731 Y0.4481 
G01 X0.5449 Y0.4199 
G01 X0.5449 Y0.3801 
G01 X0.5731 Y0.3519 
G01 X0.7269 Y0.3519 
G01 X0.7551 Y0.3801 
G00 Z0.0200 
G00 X1.0551 Y0.4801 
G01 Z-0.0100 F10.00 
G01 X1.0551 Y0.5199 
G01 X1.0269 Y0.5481 
G01 X0.8731 Y0.5481 
G01 X0.8501 Y0.5251 
G01 X0.7896 Y0.5251 
G01 X0.7749 Y0.5104 
G01 X0.7749 Y0.4896 
G01 X0.7749 Y0.3604 
G01 X0.7396 Y0.3251 
G01 X0.4751 Y0.3251 
G01 X0.4751 Y0.4396 
G01 X0.4751 Y0.4604 
G01 X0.3751 Y0.5604 
G01 X0.3651 Y0.5704 
G01 X0.3651 Y0.5716 
G01 X0.3367 Y0.6000 
G01 X0.3651 Y0.6284 
G01 X0.3651 Y0.6716 
G01 X0.3618 Y0.6749 
G01 X0.5501 Y0.6749 
G01 X0.5731 Y0.6519 
G01 X0.7269 Y0.6519 
G01 X0.7551 Y0.6801 
G01 X0.7551 Y0.7199 
G01 X0.7269 Y0.7481 
G01 X0.7251 Y0.7481 
G01 X0.7251 Y0.8882 
G01 X1.0116 Y1.1270 
G01 X1.1663 Y1.1657 
G01 X1.1801 Y1.1519 
G01 X1.2199 Y1.1519 
G01 X1.2481 Y1.1801 
G01 X1.2481 Y1.2199 
G01 X1.2199 Y1.2481 
G01 X1.1801 Y1.2481 
G01 X1.1519 Y1.2199 
G01 X1.1519 Y1.2138 
G01 X0.9969 Y1.1751 
G01 X0.9909 Y1.1751 
G01 X0.9883 Y1.1729 
G01 X0.9872 Y1.1727 
G01 X0.9831 Y1.1686 
G01 X0.7251 Y0.9536 
G01 X0.7251 Y1.2249 
G01 X0.7583 Y1.2249 
G01 X0.7592 Y1.2228 
G01 X0.7728 Y1.2092 
G01 X0.7904 Y1.2019 
G01 X0.8096 Y1.2019 
G01 X0.8272 Y1.2092 
G01 X0.8408 Y1.2228 
G01 X0.8481 Y1.2404 
G01 X0.8481 Y1.2596 
G01 X0.8408 Y1.2772 
G01 X0.8272 Y1.2908 
G01 X0.8096 Y1.2981 
G01 X0.7904 Y1.2981 
G01 X0.7728 Y1.2908 
G01 X0.7592 Y1.2772 
G01 X0.7583 Y1.2751 
G01 X0.7104 Y1.2751 
G01 X0.6896 Y1.2751 
G01 X0.6749 Y1.2604 
G01 X0.6749 Y0.9104 
G01 X0.6749 Y0.8896 
G01 X0.6749 Y0.7481 
G01 X0.5731 Y0.7481 
G01 X0.5501 Y0.7251 
G01 X0.3251 Y0.7251 
G01 X0.3251 Y1.1767 
G01 X0.3572 Y1.2087 
G01 X0.3572 Y1.3913 
G01 X0.3246 Y1.4238 
G01 X0.2785 Y1.4238 
G01 X0.2460 Y1.3913 
G01 X0.2460 Y1.2087 
G01 X0.2749 Y1.1798 
G01 X0.2749 Y0.7104 
G01 X0.2666 Y0.7021 
G01 X0.1654 Y0.7021 
G01 X0.1349 Y0.6716 
G01 X0.1349 Y0.6284 
G01 X0.1633 Y0.6000 
G01 X0.1349 Y0.5716 
G01 X0.1349 Y0.5284 
G01 X0.1633 Y0.5000 
G01 X0.1349 Y0.4716 
G01 X0.1349 Y0.4284 
G01 X0.1654 Y0.3979 
G01 X0.2249 Y0.3979 
G01 X0.2249 Y0.1896 
G01 X0.2396 Y0.1749 
G01 X0.2604 Y0.1749 
G01 X1.4896 Y0.1749 
G01 X1.5104 Y0.1749 
G01 X1.5251 Y0.1896 
G01 X1.5251 Y0.5896 
G01 X1.5251 Y0.6104 
G01 X1.4751 Y0.6604 
G01 X1.4751 Y0.6604 
G01 X1.4651 Y0.6704 
G01 X1.4651 Y0.6716 
G01 X1.4346 Y0.7021 
G01 X1.4251 Y0.7021 
G01 X1.4251 Y1.3604 
G01 X1.4104 Y1.3751 
G01 X1.3896 Y1.3751 
G01 X0.9104 Y1.3751 
G01 X0.5540 Y1.3751 
G01 X0.5540 Y1.3913 
G01 X0.5214 Y1.4238 
G01 X0.4754 Y1.4238 
G01 X0.4428 Y1.3913 
G01 X0.4428 Y1.2087 
G01 X0.4754 Y1.1762 
G01 X0.5214 Y1.1762 
G01 X0.5540 Y1.2087 
G01 X0.5540 Y1.3249 
G01 X0.8749 Y1.3249 
G01 X0.8749 Y1.2929 
G01 X0.8519 Y1.2699 
G01 X0.8519 Y1.2301 
G01 X0.8801 Y1.2019 
G01 X0.9199 Y1.2019 
G01 X0.9481 Y1.2301 
G01 X0.9481 Y1.2699 
G01 X0.9251 Y1.2929 
G01 X0.9251 Y1.3249 
G01 X1.3749 Y1.3249 
G01 X1.3749 Y0.7021 
G01 X1.2654 Y0.7021 
G01 X1.2408 Y0.6774 
G01 X1.0551 Y0.7146 
G01 X1.0551 Y0.7199 
G01 X1.0269 Y0.7481 
G01 X1.0251 Y0.7481 
G01 X1.0251 Y0.9071 
G01 X1.0481 Y0.9301 
G01 X1.0481 Y0.9699 
G01 X1.0199 Y0.9981 
G01 X0.9801 Y0.9981 
G01 X0.9519 Y0.9699 
G01 X0.9519 Y0.9301 
G01 X0.9749 Y0.9071 
G01 X0.9749 Y0.7481 
G01 X0.8731 Y0.7481 
G01 X0.8449 Y0.7199 
G01 X0.8449 Y0.6801 
G01 X0.8731 Y0.6519 
G01 X1.0269 Y0.6519 
G01 X1.0412 Y0.6662 
G01 X1.2361 Y0.6272 
G01 X1.2633 Y0.6000 
G01 X1.2349 Y0.5716 
G01 X1.2349 Y0.5704 
G01 X1.2249 Y0.5604 
G01 X1.1749 Y0.5104 
G01 X1.1749 Y0.4896 
G01 X1.1749 Y0.4251 
G01 X1.0499 Y0.4251 
G01 X1.0269 Y0.4481 
G01 X0.8731 Y0.4481 
G01 X0.8449 Y0.4199 
G01 X0.8449 Y0.3801 
G01 X0.8731 Y0.3519 
G01 X1.0269 Y0.3519 
G01 X1.0499 Y0.3749 
G01 X1.2104 Y0.3749 
G01 X1.2251 Y0.3896 
G01 X1.2251 Y0.4104 
G01 X1.2251 Y0.4896 
G01 X1.2494 Y0.5139 
G01 X1.2633 Y0.5000 
G01 X1.2349 Y0.4716 
G01 X1.2349 Y0.4284 
G01 X1.2654 Y0.3979 
G01 X1.4346 Y0.3979 
G01 X1.4651 Y0.4284 
G01 X1.4651 Y0.4716 
G01 X1.4367 Y0.5000 
G01 X1.4651 Y0.5284 
G01 X1.4651 Y0.5716 
G01 X1.4367 Y0.6000 
G01 X1.4506 Y0.6139 
G01 X1.4749 Y0.5896 
G01 X1.4749 Y0.2251 
G01 X0.2751 Y0.2251 
G01 X0.2751 Y0.3979 
G01 X0.3346 Y0.3979 
G01 X0.3651 Y0.4284 
G01 X0.3651 Y0.4716 
G01 X0.3367 Y0.5000 
G01 X0.3506 Y0.5139 
G01 X0.4249 Y0.4396 
G01 X0.4249 Y0.2896 
G01 X0.4396 Y0.2749 
G01 X0.4604 Y0.2749 
G01 X0.7604 Y0.2749 
G01 X0.7751 Y0.2896 
G01 X0.8251 Y0.3396 
G01 X0.8251 Y0.3604 
G01 X0.8251 Y0.4749 
G01 X0.8501 Y0.4749 
G01 X0.8731 Y0.4519 
G01 X1.0269 Y0.4519 
G01 X1.0551 Y0.4801 
G00 Z0.0200 
G00 X1.0551 Y0.5801 
G01 Z-0.0100 F10.00 
G01 X1.0551 Y0.6199 
G01 X1.0269 Y0.6481 
G01 X0.8731 Y0.6481 
G01 X0.8449 Y0.6199 
G01 X0.8449 Y0.5801 
G01 X0.8731 Y0.5519 
G01 X1.0269 Y0.5519 
G01 X1.0551 Y0.5801 
G00 Z0.0200 
G00 X1.4699 Y0.5738 
G01 Z-0.0100 F10.00 
G01 X1.4437 Y0.6000 
G01 X1.4506 Y0.6069 
G01 X1.4699 Y0.5875 
G01 X1.4699 Y0.5738 
G00 Z0.0200 
G00 X1.2563 Y0.5000 
G01 Z-0.0100 F10.00 
G01 X1.2301 Y0.4738 
G01 X1.2301 Y0.4875 
G01 X1.2494 Y0.5069 
G01 X1.2563 Y0.5000 
G00 Z0.0200 
G00 X1.2634 Y0.7071 
G01 Z-0.0100 F10.00 
G01 X1.2391 Y0.6829 
G01 X1.0601 Y0.7187 
G01 X1.0601 Y0.7220 
G01 X1.0301 Y0.7520 
G01 X1.0301 Y0.9050 
G01 X1.0531 Y0.9280 
G01 X1.0531 Y0.9720 
G01 X1.0220 Y1.0031 
G01 X0.9780 Y1.0031 
G01 X0.9469 Y0.9720 
G01 X0.9469 Y0.9280 
G01 X0.9699 Y0.9050 
G01 X0.9699 Y0.7531 
G01 X0.8710 Y0.7531 
G01 X0.8399 Y0.7220 
G01 X0.8399 Y0.6780 
G01 X0.8679 Y0.6500 
G01 X0.8399 Y0.6220 
G01 X0.8399 Y0.5780 
G01 X0.8679 Y0.5500 
G01 X0.8480 Y0.5301 
G01 X0.7875 Y0.5301 
G01 X0.7699 Y0.5125 
G01 X0.7699 Y0.4875 
G01 X0.7699 Y0.3625 
G01 X0.7375 Y0.3301 
G01 X0.4801 Y0.3301 
G01 X0.4801 Y0.4375 
G01 X0.4801 Y0.4625 
G01 X0.3801 Y0.5625 
G01 X0.3701 Y0.5725 
G01 X0.3701 Y0.5736 
G01 X0.3437 Y0.6000 
G01 X0.3701 Y0.6264 
G01 X0.3701 Y0.6699 
G01 X0.5480 Y0.6699 
G01 X0.5679 Y0.6500 
G01 X0.5399 Y0.6220 
G01 X0.5399 Y0.5780 
G01 X0.5679 Y0.5500 
G01 X0.5399 Y0.5220 
G01 X0.5399 Y0.4780 
G01 X0.5679 Y0.4500 
G01 X0.5399 Y0.4220 
G01 X0.5399 Y0.3780 
G01 X0.5710 Y0.3469 
G01 X0.7290 Y0.3469 
G01 X0.7601 Y0.3780 
G01 X0.7601 Y0.4220 
G01 X0.7321 Y0.4500 
G01 X0.7601 Y0.4780 
G01 X0.7601 Y0.5220 
G01 X0.7321 Y0.5500 
G01 X0.7601 Y0.5780 
G01 X0.7601 Y0.6220 
G01 X0.7321 Y0.6500 
G01 X0.7601 Y0.6780 
G01 X0.7601 Y0.7220 
G01 X0.7301 Y0.7520 
G01 X0.7301 Y0.8859 
G01 X1.0140 Y1.1225 
G01 X1.1647 Y1.1602 
G01 X1.1780 Y1.1469 
G01 X1.2220 Y1.1469 
G01 X1.2500 Y1.1749 
G01 X1.2699 Y1.1550 
G01 X1.2699 Y0.9950 
G01 X1.2469 Y0.9720 
G01 X1.2469 Y0.9280 
G01 X1.2780 Y0.8969 
G01 X1.3220 Y0.8969 
G01 X1.3531 Y0.9280 
G01 X1.3531 Y0.9720 
G01 X1.3301 Y0.9950 
G01 X1.3301 Y1.1550 
G01 X1.3531 Y1.1780 
G01 X1.3531 Y1.2220 
G01 X1.3220 Y1.2531 
G01 X1.2780 Y1.2531 
G01 X1.2500 Y1.2251 
G01 X1.2220 Y1.2531 
G01 X1.1780 Y1.2531 
G01 X1.1469 Y1.2220 
G01 X1.1469 Y1.2177 
G01 X0.9963 Y1.1801 
G01 X0.9891 Y1.1801 
G01 X0.9860 Y1.1775 
G01 X0.9846 Y1.1772 
G01 X0.9797 Y1.1723 
G01 X0.7301 Y0.9642 
G01 X0.7301 Y1.2199 
G01 X0.7550 Y1.2199 
G01 X0.7699 Y1.2050 
G01 X0.7894 Y1.1969 
G01 X0.8106 Y1.1969 
G01 X0.8301 Y1.2050 
G01 X0.8450 Y1.2199 
G01 X0.8479 Y1.2270 
G01 X0.8780 Y1.1969 
G01 X0.9220 Y1.1969 
G01 X0.9531 Y1.2280 
G01 X0.9531 Y1.2720 
G01 X0.9301 Y1.2950 
G01 X0.9301 Y1.3199 
G01 X1.3699 Y1.3199 
G01 X1.3699 Y0.7071 
G01 X1.2634 Y0.7071 
G00 Z0.0200 
G00 X0.8679 Y0.4500 
G01 Z-0.0100 F10.00 
G01 X0.8399 Y0.4220 
G01 X0.8399 Y0.3780 
G01 X0.8710 Y0.3469 
G01 X1.0290 Y0.3469 
G01 X1.0520 Y0.3699 
G01 X1.2125 Y0.3699 
G01 X1.2301 Y0.3875 
G01 X1.2301 Y0.4125 
G01 X1.2301 Y0.4262 
G01 X1.2634 Y0.3929 
G01 X1.4366 Y0.3929 
G01 X1.4699 Y0.4262 
G01 X1.4699 Y0.2301 
G01 X0.2801 Y0.2301 
G01 X0.2801 Y0.3929 
G01 X0.3366 Y0.3929 
G01 X0.3701 Y0.4264 
G01 X0.3701 Y0.4736 
G01 X0.3437 Y0.5000 
G01 X0.3506 Y0.5069 
G01 X0.4199 Y0.4375 
G01 X0.4199 Y0.2875 
G01 X0.4375 Y0.2699 
G01 X0.4625 Y0.2699 
G01 X0.7625 Y0.2699 
G01 X0.7801 Y0.2875 
G01 X0.8301 Y0.3375 
G01 X0.8301 Y0.3625 
G01 X0.8301 Y0.4699 
G01 X0.8480 Y0.4699 
G01 X0.8679 Y0.4500 
G00 Z0.0200 
G00 X1.0321 Y0.4500 
G01 Z-0.0100 F10.00 
G01 X1.0601 Y0.4780 
G01 X1.0601 Y0.5220 
G01 X1.0321 Y0.5500 
G01 X1.0601 Y0.5780 
G01 X1.0601 Y0.6220 
G01 X1.0321 Y0.6500 
G01 X1.0428 Y0.6607 
G01 X1.2337 Y0.6226 
G01 X1.2563 Y0.6000 
G01 X1.2299 Y0.5736 
G01 X1.2299 Y0.5725 
G01 X1.2199 Y0.5625 
G01 X1.1699 Y0.5125 
G01 X1.1699 Y0.4875 
G01 X1.1699 Y0.4301 
G01 X1.0520 Y0.4301 
G01 X1.0321 Y0.4500 
G00 Z0.0200 
G00 X1.4437 Y0.5000 
G01 Z-0.0100 F10.00 
G01 X1.4699 Y0.5262 
G01 X1.4699 Y0.4738 
G01 X1.4437 Y0.5000 
G00 Z0.0200 
G00 X1.4875 Y0.1699 
G01 Z-0.0100 F10.00 
G01 X1.5125 Y0.1699 
G01 X1.5301 Y0.1875 
G01 X1.5301 Y0.5875 
G01 X1.5301 Y0.6125 
G01 X1.4801 Y0.6625 
G01 X1.4801 Y0.6625 
G01 X1.4701 Y0.6725 
G01 X1.4701 Y0.6736 
G01 X1.4366 Y0.7071 
G01 X1.4301 Y0.7071 
G01 X1.4301 Y1.3625 
G01 X1.4125 Y1.3801 
G01 X1.3875 Y1.3801 
G01 X0.9125 Y1.3801 
G01 X0.5590 Y1.3801 
G01 X0.5590 Y1.3933 
G01 X0.5235 Y1.4288 
G01 X0.4733 Y1.4288 
G01 X0.4378 Y1.3933 
G01 X0.4378 Y1.2067 
G01 X0.4733 Y1.1712 
G01 X0.5235 Y1.1712 
G01 X0.5590 Y1.2067 
G01 X0.5590 Y1.3199 
G01 X0.8699 Y1.3199 
G01 X0.8699 Y1.2950 
G01 X0.8479 Y1.2730 
G01 X0.8450 Y1.2801 
G01 X0.8301 Y1.2950 
G01 X0.8106 Y1.3031 
G01 X0.7894 Y1.3031 
G01 X0.7699 Y1.2950 
G01 X0.7550 Y1.2801 
G01 X0.7125 Y1.2801 
G01 X0.6875 Y1.2801 
G01 X0.6699 Y1.2625 
G01 X0.6699 Y0.9125 
G01 X0.6699 Y0.8875 
G01 X0.6699 Y0.7531 
G01 X0.5710 Y0.7531 
G01 X0.5480 Y0.7301 
G01 X0.3301 Y0.7301 
G01 X0.3301 Y1.1746 
G01 X0.3622 Y1.2067 
G01 X0.3622 Y1.3933 
G01 X0.3267 Y1.4288 
G01 X0.2765 Y1.4288 
G01 X0.2410 Y1.3933 
G01 X0.2410 Y1.2067 
G01 X0.2699 Y1.1777 
G01 X0.2699 Y0.7125 
G01 X0.2645 Y0.7071 
G01 X0.1634 Y0.7071 
G01 X0.1299 Y0.6736 
G01 X0.1299 Y0.6264 
G01 X0.1563 Y0.6000 
G01 X0.1299 Y0.5736 
G01 X0.1299 Y0.5264 
G01 X0.1563 Y0.5000 
G01 X0.1299 Y0.4736 
G01 X0.1299 Y0.4264 
G01 X0.1634 Y0.3929 
G01 X0.2199 Y0.3929 
G01 X0.2199 Y0.1875 
G01 X0.2375 Y0.1699 
G01 X0.2625 Y0.1699 
G01 X1.4875 Y0.1699 
G00 Z0.0200 
G00 X1.4508 Y0.5000 
G01 Z-0.0100 F10.00 
G01 X1.4649 Y0.5141 
G01 X1.4649 Y0.4859 
G01 X1.4508 Y0.5000 
G00 Z0.0200 
G00 X1.0391 Y0.4500 
G01 Z-0.0100 F10.00 
G01 X1.0651 Y0.4759 
G01 X1.0651 Y0.5241 
G01 X1.0391 Y0.5500 
G01 X1.0651 Y0.5759 
G01 X1.0651 Y0.6241 
G01 X1.0391 Y0.6500 
G01 X1.0445 Y0.6553 
G01 X1.2312 Y0.6180 
G01 X1.2492 Y0.6000 
G01 X1.2249 Y0.5757 
G01 X1.2249 Y0.5745 
G01 X1.2149 Y0.5645 
G01 X1.1649 Y0.5145 
G01 X1.1649 Y0.4855 
G01 X1.1649 Y0.4351 
G01 X1.0541 Y0.4351 
G01 X1.0391 Y0.4500 
G00 Z0.0200 
G00 X0.7391 Y0.4500 
G01 Z-0.0100 F10.00 
G01 X0.7649 Y0.4758 
G01 X0.7649 Y0.4242 
G01 X0.7391 Y0.4500 
G00 Z0.0200 
G00 X0.3751 Y0.5757 
G01 Z-0.0100 F10.00 
G01 X0.3508 Y0.6000 
G01 X0.3751 Y0.6243 
G01 X0.3751 Y0.6649 
G01 X0.5459 Y0.6649 
G01 X0.5608 Y0.6500 
G01 X0.5349 Y0.6241 
G01 X0.5349 Y0.5759 
G01 X0.5608 Y0.5500 
G01 X0.5349 Y0.5241 
G01 X0.5349 Y0.4759 
G01 X0.5608 Y0.4500 
G01 X0.5349 Y0.4241 
G01 X0.5349 Y0.3759 
G01 X0.5689 Y0.3419 
G01 X0.7311 Y0.3419 
G01 X0.7649 Y0.3758 
G01 X0.7649 Y0.3645 
G01 X0.7355 Y0.3351 
G01 X0.4851 Y0.3351 
G01 X0.4851 Y0.4355 
G01 X0.4851 Y0.4645 
G01 X0.3851 Y0.5645 
G01 X0.3751 Y0.5745 
G01 X0.3751 Y0.5757 
G00 Z0.0200 
G00 X0.8689 Y0.3419 
G01 Z-0.0100 F10.00 
G01 X1.0311 Y0.3419 
G01 X1.0541 Y0.3649 
G01 X1.2145 Y0.3649 
G01 X1.2351 Y0.3855 
G01 X1.2351 Y0.4141 
G01 X1.2613 Y0.3879 
G01 X1.4387 Y0.3879 
G01 X1.4649 Y0.4141 
G01 X1.4649 Y0.2351 
G01 X0.2851 Y0.2351 
G01 X0.2851 Y0.3879 
G01 X0.3387 Y0.3879 
G01 X0.3751 Y0.4243 
G01 X0.3751 Y0.4753 
G01 X0.4149 Y0.4355 
G01 X0.4149 Y0.2855 
G01 X0.4355 Y0.2649 
G01 X0.4645 Y0.2649 
G01 X0.7645 Y0.2649 
G01 X0.7851 Y0.2855 
G01 X0.8351 Y0.3355 
G01 X0.8351 Y0.3645 
G01 X0.8351 Y0.3758 
G01 X0.8689 Y0.3419 
G00 Z0.0200 
G00 X0.8608 Y0.4500 
G01 Z-0.0100 F10.00 
G01 X0.8351 Y0.4242 
G01 X0.8351 Y0.4649 
G01 X0.8459 Y0.4649 
G01 X0.8608 Y0.4500 
G00 Z0.0200 
G00 X1.2613 Y0.7121 
G01 Z-0.0100 F10.00 
G01 X1.2375 Y0.6883 
G01 X1.0651 Y0.7228 
G01 X1.0651 Y0.7241 
G01 X1.0351 Y0.7541 
G01 X1.0351 Y0.9029 
G01 X1.0581 Y0.9259 
G01 X1.0581 Y0.9741 
G01 X1.0241 Y1.0081 
G01 X0.9759 Y1.0081 
G01 X0.9419 Y0.9741 
G01 X0.9419 Y0.9259 
G01 X0.9649 Y0.9029 
G01 X0.9649 Y0.7581 
G01 X0.8689 Y0.7581 
G01 X0.8349 Y0.7241 
G01 X0.8349 Y0.6759 
G01 X0.8608 Y0.6500 
G01 X0.8349 Y0.6241 
G01 X0.8349 Y0.5759 
G01 X0.8608 Y0.5500 
G01 X0.8459 Y0.5351 
G01 X0.7855 Y0.5351 
G01 X0.7651 Y0.5147 
G01 X0.7651 Y0.5241 
G01 X0.7391 Y0.5500 
G01 X0.7651 Y0.5759 
G01 X0.7651 Y0.6241 
G01 X0.7391 Y0.6500 
G01 X0.7651 Y0.6759 
G01 X0.7651 Y0.7241 
G01 X0.7351 Y0.7541 
G01 X0.7351 Y0.8836 
G01 X1.0163 Y1.1179 
G01 X1.1632 Y1.1546 
G01 X1.1759 Y1.1419 
G01 X1.2241 Y1.1419 
G01 X1.2500 Y1.1678 
G01 X1.2649 Y1.1529 
G01 X1.2649 Y0.9971 
G01 X1.2419 Y0.9741 
G01 X1.2419 Y0.9259 
G01 X1.2759 Y0.8919 
G01 X1.3241 Y0.8919 
G01 X1.3581 Y0.9259 
G01 X1.3581 Y0.9741 
G01 X1.3351 Y0.9971 
G01 X1.3351 Y1.1529 
G01 X1.3581 Y1.1759 
G01 X1.3581 Y1.2241 
G01 X1.3241 Y1.2581 
G01 X1.2759 Y1.2581 
G01 X1.2500 Y1.2321 
G01 X1.2241 Y1.2581 
G01 X1.1759 Y1.2581 
G01 X1.1419 Y1.2241 
G01 X1.1419 Y1.2216 
G01 X0.9957 Y1.1851 
G01 X0.9873 Y1.1851 
G01 X0.9837 Y1.1821 
G01 X0.9821 Y1.1817 
G01 X0.9763 Y1.1759 
G01 X0.7351 Y0.9749 
G01 X0.7351 Y1.2149 
G01 X0.7529 Y1.2149 
G01 X0.7671 Y1.2007 
G01 X0.7884 Y1.1919 
G01 X0.8116 Y1.1919 
G01 X0.8329 Y1.2007 
G01 X0.8492 Y1.2171 
G01 X0.8497 Y1.2182 
G01 X0.8759 Y1.1919 
G01 X0.9241 Y1.1919 
G01 X0.9581 Y1.2259 
G01 X0.9581 Y1.2741 
G01 X0.9351 Y1.2971 
G01 X0.9351 Y1.3149 
G01 X1.3649 Y1.3149 
G01 X1.3649 Y0.7121 
G01 X1.2613 Y0.7121 
G00 Z0.0200 
G00 X1.4855 Y0.1649 
G01 Z-0.0100 F10.00 
G01 X1.5145 Y0.1649 
G01 X1.5351 Y0.1855 
G01 X1.5351 Y0.5855 
G01 X1.5351 Y0.6145 
G01 X1.4851 Y0.6645 
G01 X1.4851 Y0.6645 
G01 X1.4751 Y0.6745 
G01 X1.4751 Y0.6757 
G01 X1.4387 Y0.7121 
G01 X1.4351 Y0.7121 
G01 X1.4351 Y1.3645 
G01 X1.4145 Y1.3851 
G01 X1.3855 Y1.3851 
G01 X0.9145 Y1.3851 
G01 X0.5640 Y1.3851 
G01 X0.5640 Y1.3954 
G01 X0.5256 Y1.4338 
G01 X0.4713 Y1.4338 
G01 X0.4328 Y1.3954 
G01 X0.4328 Y1.2046 
G01 X0.4713 Y1.1662 
G01 X0.5256 Y1.1662 
G01 X0.5640 Y1.2046 
G01 X0.5640 Y1.3149 
G01 X0.8649 Y1.3149 
G01 X0.8649 Y1.2971 
G01 X0.8497 Y1.2818 
G01 X0.8492 Y1.2829 
G01 X0.8329 Y1.2992 
G01 X0.8116 Y1.3081 
G01 X0.7884 Y1.3081 
G01 X0.7671 Y1.2992 
G01 X0.7529 Y1.2851 
G01 X0.7145 Y1.2851 
G01 X0.6855 Y1.2851 
G01 X0.6649 Y1.2645 
G01 X0.6649 Y0.9145 
G01 X0.6649 Y0.8855 
G01 X0.6649 Y0.7581 
G01 X0.5689 Y0.7581 
G01 X0.5459 Y0.7351 
G01 X0.3351 Y0.7351 
G01 X0.3351 Y1.1725 
G01 X0.3672 Y1.2046 
G01 X0.3672 Y1.3954 
G01 X0.3287 Y1.4338 
G01 X0.2744 Y1.4338 
G01 X0.2360 Y1.3954 
G01 X0.2360 Y1.2046 
G01 X0.2649 Y1.1757 
G01 X0.2649 Y0.7145 
G01 X0.2625 Y0.7121 
G01 X0.1613 Y0.7121 
G01 X0.1249 Y0.6757 
G01 X0.1249 Y0.6243 
G01 X0.1492 Y0.6000 
G01 X0.1249 Y0.5757 
G01 X0.1249 Y0.5243 
G01 X0.1492 Y0.5000 
G01 X0.1249 Y0.4757 
G01 X0.1249 Y0.4243 
G01 X0.1613 Y0.3879 
G01 X0.2149 Y0.3879 
G01 X0.2149 Y0.1855 
G01 X0.2355 Y0.1649 
G01 X0.2645 Y0.1649 
G01 X1.4855 Y0.1649 
G00 Z0.0200 
G00 X0.8599 Y1.2991 
G01 Z-0.0100 F10.00 
G01 X0.8500 Y1.2892 
G01 X0.8357 Y1.3035 
G01 X0.8202 Y1.3099 
G01 X0.8599 Y1.3099 
G01 X0.8599 Y1.2991 
G00 Z0.0200 
G00 X1.4579 Y0.5000 
G01 Z-0.0100 F10.00 
G01 X1.4599 Y0.5020 
G01 X1.4599 Y0.4980 
G01 X1.4579 Y0.5000 
G00 Z0.0200 
G00 X1.0462 Y0.4500 
G01 Z-0.0100 F10.00 
G01 X1.0701 Y0.4739 
G01 X1.0701 Y0.5261 
G01 X1.0462 Y0.5500 
G01 X1.0701 Y0.5739 
G01 X1.0701 Y0.6261 
G01 X1.0464 Y0.6498 
G01 X1.2288 Y0.6134 
G01 X1.2421 Y0.6000 
G01 X1.2199 Y0.5778 
G01 X1.2199 Y0.5766 
G01 X1.2099 Y0.5666 
G01 X1.1599 Y0.5166 
G01 X1.1599 Y0.4834 
G01 X1.1599 Y0.4401 
G01 X1.0561 Y0.4401 
G01 X1.0462 Y0.4500 
G00 Z0.0200 
G00 X0.7462 Y0.4500 
G01 Z-0.0100 F10.00 
G01 X0.7599 Y0.4637 
G01 X0.7599 Y0.4363 
G01 X0.7462 Y0.4500 
G00 Z0.0200 
G00 X0.3801 Y0.5778 
G01 Z-0.0100 F10.00 
G01 X0.3579 Y0.6000 
G01 X0.3801 Y0.6222 
G01 X0.3801 Y0.6599 
G01 X0.5439 Y0.6599 
G01 X0.5538 Y0.6500 
G01 X0.5299 Y0.6261 
G01 X0.5299 Y0.5739 
G01 X0.5538 Y0.5500 
G01 X0.5299 Y0.5261 
G01 X0.5299 Y0.4739 
G01 X0.5538 Y0.4500 
G01 X0.5299 Y0.4261 
G01 X0.5299 Y0.3739 
G01 X0.5637 Y0.3401 
G01 X0.4901 Y0.3401 
G01 X0.4901 Y0.4334 
G01 X0.4901 Y0.4666 
G01 X0.3901 Y0.5666 
G01 X0.3801 Y0.5766 
G01 X0.3801 Y0.5778 
G00 Z0.0200 
G00 X0.8669 Y0.3369 
G01 Z-0.0100 F10.00 
G01 X1.0331 Y0.3369 
G01 X1.0561 Y0.3599 
G01 X1.2166 Y0.3599 
G01 X1.2401 Y0.3834 
G01 X1.2401 Y0.4020 
G01 X1.2592 Y0.3829 
G01 X1.4408 Y0.3829 
G01 X1.4599 Y0.4020 
G01 X1.4599 Y0.2401 
G01 X0.2901 Y0.2401 
G01 X0.2901 Y0.3829 
G01 X0.3408 Y0.3829 
G01 X0.3801 Y0.4222 
G01 X0.3801 Y0.4632 
G01 X0.4099 Y0.4334 
G01 X0.4099 Y0.2834 
G01 X0.4334 Y0.2599 
G01 X0.4666 Y0.2599 
G01 X0.7666 Y0.2599 
G01 X0.7901 Y0.2834 
G01 X0.8401 Y0.3334 
G01 X0.8401 Y0.3637 
G01 X0.8669 Y0.3369 
G00 Z0.0200 
G00 X0.8538 Y0.4500 
G01 Z-0.0100 F10.00 
G01 X0.8401 Y0.4363 
G01 X0.8401 Y0.4599 
G01 X0.8439 Y0.4599 
G01 X0.8538 Y0.4500 
G00 Z0.0200 
G00 X1.2592 Y0.7171 
G01 Z-0.0100 F10.00 
G01 X1.2358 Y0.6937 
G01 X1.0692 Y0.7270 
G01 X1.0401 Y0.7561 
G01 X1.0401 Y0.9009 
G01 X1.0631 Y0.9239 
G01 X1.0631 Y0.9761 
G01 X1.0261 Y1.0131 
G01 X0.9739 Y1.0131 
G01 X0.9369 Y0.9761 
G01 X0.9369 Y0.9239 
G01 X0.9599 Y0.9009 
G01 X0.9599 Y0.7631 
G01 X0.8669 Y0.7631 
G01 X0.8299 Y0.7261 
G01 X0.8299 Y0.6739 
G01 X0.8538 Y0.6500 
G01 X0.8299 Y0.6261 
G01 X0.8299 Y0.5739 
G01 X0.8538 Y0.5500 
G01 X0.8439 Y0.5401 
G01 X0.7834 Y0.5401 
G01 X0.7698 Y0.5265 
G01 X0.7462 Y0.5500 
G01 X0.7701 Y0.5739 
G01 X0.7701 Y0.6261 
G01 X0.7462 Y0.6500 
G01 X0.7701 Y0.6739 
G01 X0.7701 Y0.7261 
G01 X0.7401 Y0.7561 
G01 X0.7401 Y0.8812 
G01 X1.0186 Y1.1133 
G01 X1.1617 Y1.1491 
G01 X1.1739 Y1.1369 
G01 X1.2261 Y1.1369 
G01 X1.2500 Y1.1608 
G01 X1.2599 Y1.1509 
G01 X1.2599 Y0.9991 
G01 X1.2369 Y0.9761 
G01 X1.2369 Y0.9239 
G01 X1.2739 Y0.8869 
G01 X1.3261 Y0.8869 
G01 X1.3599 Y0.9207 
G01 X1.3599 Y0.7171 
G01 X1.2592 Y0.7171 
G00 Z0.0200 
G00 X1.3401 Y0.9991 
G01 Z-0.0100 F10.00 
G01 X1.3401 Y1.1509 
G01 X1.3599 Y1.1707 
G01 X1.3599 Y0.9793 
G01 X1.3401 Y0.9991 
G00 Z0.0200 
G00 X1.3261 Y1.2631 
G01 Z-0.0100 F10.00 
G01 X1.2739 Y1.2631 
G01 X1.2500 Y1.2392 
G01 X1.2261 Y1.2631 
G01 X1.1739 Y1.2631 
G01 X1.1369 Y1.2261 
G01 X1.1369 Y1.2256 
G01 X0.9951 Y1.1901 
G01 X0.9855 Y1.1901 
G01 X0.9814 Y1.1867 
G01 X0.9795 Y1.1862 
G01 X0.9729 Y1.1796 
G01 X0.7401 Y0.9856 
G01 X0.7401 Y1.2099 
G01 X0.7509 Y1.2099 
G01 X0.7643 Y1.1965 
G01 X0.7874 Y1.1869 
G01 X0.8126 Y1.1869 
G01 X0.8357 Y1.1965 
G01 X0.8500 Y1.2108 
G01 X0.8739 Y1.1869 
G01 X0.9261 Y1.1869 
G01 X0.9631 Y1.2239 
G01 X0.9631 Y1.2761 
G01 X0.9401 Y1.2991 
G01 X0.9401 Y1.3099 
G01 X1.3599 Y1.3099 
G01 X1.3599 Y1.2293 
G01 X1.3261 Y1.2631 
G00 Z0.0200 
G00 X1.4834 Y0.1599 
G01 Z-0.0100 F10.00 
G01 X1.5166 Y0.1599 
G01 X1.5401 Y0.1834 
G01 X1.5401 Y0.5834 
G01 X1.5401 Y0.6166 
G01 X1.4901 Y0.6666 
G01 X1.4901 Y0.6666 
G01 X1.4801 Y0.6766 
G01 X1.4801 Y0.6778 
G01 X1.4408 Y0.7171 
G01 X1.4401 Y0.7171 
G01 X1.4401 Y1.3666 
G01 X1.4166 Y1.3901 
G01 X1.3834 Y1.3901 
G01 X0.9166 Y1.3901 
G01 X0.5690 Y1.3901 
G01 X0.5690 Y1.3975 
G01 X0.5277 Y1.4388 
G01 X0.4692 Y1.4388 
G01 X0.4278 Y1.3975 
G01 X0.4278 Y1.2025 
G01 X0.4692 Y1.1612 
G01 X0.5277 Y1.1612 
G01 X0.5690 Y1.2025 
G01 X0.5690 Y1.3099 
G01 X0.7798 Y1.3099 
G01 X0.7643 Y1.3035 
G01 X0.7509 Y1.2901 
G01 X0.7166 Y1.2901 
G01 X0.6834 Y1.2901 
G01 X0.6599 Y1.2666 
G01 X0.6599 Y0.9166 
G01 X0.6599 Y0.8834 
G01 X0.6599 Y0.7631 
G01 X0.5669 Y0.7631 
G01 X0.5439 Y0.7401 
G01 X0.3401 Y0.7401 
G01 X0.3401 Y1.1704 
G01 X0.3722 Y1.2025 
G01 X0.3722 Y1.3975 
G01 X0.3308 Y1.4388 
G01 X0.2723 Y1.4388 
G01 X0.2310 Y1.3975 
G01 X0.2310 Y1.2025 
G01 X0.2599 Y1.1736 
G01 X0.2599 Y0.7171 
G01 X0.1592 Y0.7171 
G01 X0.1199 Y0.6778 
G01 X0.1199 Y0.6222 
G01 X0.1421 Y0.6000 
G01 X0.1199 Y0.5778 
G01 X0.1199 Y0.5222 
G01 X0.1421 Y0.5000 
G01 X0.1199 Y0.4778 
G01 X0.1199 Y0.4222 
G01 X0.1592 Y0.3829 
G01 X0.2099 Y0.3829 
G01 X0.2099 Y0.1834 
G01 X0.2334 Y0.1599 
G01 X0.2666 Y0.1599 
G01 X1.4834 Y0.1599 
G00 Z0.0200 
G00 X1.3282 Y1.2681 
G01 Z-0.0100 F10.00 
G01 X1.2718 Y1.2681 
G01 X1.2500 Y1.2463 
G01 X1.2282 Y1.2681 
G01 X1.1718 Y1.2681 
G01 X1.1336 Y1.2299 
G01 X0.9945 Y1.1951 
G01 X0.9837 Y1.1951 
G01 X0.9791 Y1.1912 
G01 X0.9769 Y1.1907 
G01 X0.9696 Y1.1833 
G01 X0.7451 Y0.9963 
G01 X0.7451 Y1.2049 
G01 X0.7488 Y1.2049 
G01 X0.7614 Y1.1923 
G01 X0.7865 Y1.1819 
G01 X0.8135 Y1.1819 
G01 X0.8386 Y1.1923 
G01 X0.8500 Y1.2037 
G01 X0.8718 Y1.1819 
G01 X0.9282 Y1.1819 
G01 X0.9681 Y1.2218 
G01 X0.9681 Y1.2782 
G01 X0.9451 Y1.3012 
G01 X0.9451 Y1.3049 
G01 X1.3549 Y1.3049 
G01 X1.3549 Y1.2414 
G01 X1.3282 Y1.2681 
G00 Z0.0200 
G00 X1.3451 Y1.0012 
G01 Z-0.0100 F10.00 
G01 X1.3451 Y1.1488 
G01 X1.3549 Y1.1586 
G01 X1.3549 Y0.9914 
G01 X1.3451 Y1.0012 
G00 Z0.0200 
G00 X1.0533 Y0.4500 
G01 Z-0.0100 F10.00 
G01 X1.0751 Y0.4718 
G01 X1.0751 Y0.5282 
G01 X1.0533 Y0.5500 
G01 X1.0751 Y0.5718 
G01 X1.0751 Y0.6282 
G01 X1.0616 Y0.6417 
G01 X1.2263 Y0.6088 
G01 X1.2350 Y0.6000 
G01 X1.2149 Y0.5799 
G01 X1.2149 Y0.5787 
G01 X1.2049 Y0.5687 
G01 X1.1549 Y0.5187 
G01 X1.1549 Y0.4813 
G01 X1.1549 Y0.4451 
G01 X1.0582 Y0.4451 
G01 X1.0533 Y0.4500 
G00 Z0.0200 
G00 X0.7533 Y0.4500 
G01 Z-0.0100 F10.00 
G01 X0.7549 Y0.4516 
G01 X0.7549 Y0.4484 
G01 X0.7533 Y0.4500 
G00 Z0.0200 
G00 X0.3851 Y0.5799 
G01 Z-0.0100 F10.00 
G01 X0.3649 Y0.6000 
G01 X0.3851 Y0.6201 
G01 X0.3851 Y0.6549 
G01 X0.5418 Y0.6549 
G01 X0.5467 Y0.6500 
G01 X0.5249 Y0.6282 
G01 X0.5249 Y0.5718 
G01 X0.5467 Y0.5500 
G01 X0.5249 Y0.5282 
G01 X0.5249 Y0.4718 
G01 X0.5467 Y0.4500 
G01 X0.5249 Y0.4282 
G01 X0.5249 Y0.3718 
G01 X0.5516 Y0.3451 
G01 X0.4951 Y0.3451 
G01 X0.4951 Y0.4313 
G01 X0.4951 Y0.4687 
G01 X0.3951 Y0.5687 
G01 X0.3851 Y0.5787 
G01 X0.3851 Y0.5799 
G00 Z0.0200 
G00 X0.8648 Y0.3319 
G01 Z-0.0100 F10.00 
G01 X1.0352 Y0.3319 
G01 X1.0582 Y0.3549 
G01 X1.2187 Y0.3549 
G01 X1.2451 Y0.3813 
G01 X1.2451 Y0.3900 
G01 X1.2571 Y0.3779 
G01 X1.4429 Y0.3779 
G01 X1.4549 Y0.3900 
G01 X1.4549 Y0.2451 
G01 X0.2951 Y0.2451 
G01 X0.2951 Y0.3779 
G01 X0.3429 Y0.3779 
G01 X0.3851 Y0.4201 
G01 X0.3851 Y0.4511 
G01 X0.4049 Y0.4313 
G01 X0.4049 Y0.2813 
G01 X0.4313 Y0.2549 
G01 X0.4687 Y0.2549 
G01 X0.7687 Y0.2549 
G01 X0.7951 Y0.2813 
G01 X0.8451 Y0.3313 
G01 X0.8451 Y0.3516 
G01 X0.8648 Y0.3319 
G00 Z0.0200 
G00 X0.8467 Y0.4500 
G01 Z-0.0100 F10.00 
G01 X0.8451 Y0.4484 
G01 X0.8451 Y0.4516 
G01 X0.8467 Y0.4500 
G00 Z0.0200 
G00 X1.2571 Y0.7221 
G01 Z-0.0100 F10.00 
G01 X1.2342 Y0.6991 
G01 X1.0716 Y0.7317 
G01 X1.0451 Y0.7582 
G01 X1.0451 Y0.8988 
G01 X1.0681 Y0.9218 
G01 X1.0681 Y0.9782 
G01 X1.0282 Y1.0181 
G01 X0.9718 Y1.0181 
G01 X0.9319 Y0.9782 
G01 X0.9319 Y0.9218 
G01 X0.9549 Y0.8988 
G01 X0.9549 Y0.7681 
G01 X0.8648 Y0.7681 
G01 X0.8249 Y0.7282 
G01 X0.8249 Y0.6718 
G01 X0.8467 Y0.6500 
G01 X0.8249 Y0.6282 
G01 X0.8249 Y0.5718 
G01 X0.8467 Y0.5500 
G01 X0.8418 Y0.5451 
G01 X0.7813 Y0.5451 
G01 X0.7698 Y0.5335 
G01 X0.7533 Y0.5500 
G01 X0.7751 Y0.5718 
G01 X0.7751 Y0.6282 
G01 X0.7533 Y0.6500 
G01 X0.7751 Y0.6718 
G01 X0.7751 Y0.7282 
G01 X0.7451 Y0.7582 
G01 X0.7451 Y0.8789 
G01 X1.0209 Y1.1088 
G01 X1.1601 Y1.1436 
G01 X1.1718 Y1.1319 
G01 X1.2282 Y1.1319 
G01 X1.2500 Y1.1537 
G01 X1.2549 Y1.1488 
G01 X1.2549 Y1.0012 
G01 X1.2319 Y0.9782 
G01 X1.2319 Y0.9218 
G01 X1.2718 Y0.8819 
G01 X1.3282 Y0.8819 
G01 X1.3549 Y0.9086 
G01 X1.3549 Y0.7221 
G01 X1.2571 Y0.7221 
G00 Z0.0200 
G00 X0.8549 Y1.3012 
G01 Z-0.0100 F10.00 
G01 X0.8500 Y1.2963 
G01 X0.8414 Y1.3049 
G01 X0.8549 Y1.3049 
G01 X0.8549 Y1.3012 
G00 Z0.0200 
G00 X1.4813 Y0.1549 
G01 Z-0.0100 F10.00 
G01 X1.5187 Y0.1549 
G01 X1.5451 Y0.1813 
G01 X1.5451 Y0.5813 
G01 X1.5451 Y0.6187 
G01 X1.4951 Y0.6687 
G01 X1.4951 Y0.6687 
G01 X1.4851 Y0.6787 
G01 X1.4851 Y0.6799 
G01 X1.4451 Y0.7199 
G01 X1.4451 Y1.3687 
G01 X1.4187 Y1.3951 
G01 X1.3813 Y1.3951 
G01 X0.9187 Y1.3951 
G01 X0.5740 Y1.3951 
G01 X0.5740 Y1.3996 
G01 X0.5297 Y1.4438 
G01 X0.4671 Y1.4438 
G01 X0.4228 Y1.3996 
G01 X0.4228 Y1.2004 
G01 X0.4671 Y1.1562 
G01 X0.5297 Y1.1562 
G01 X0.5740 Y1.2004 
G01 X0.5740 Y1.3049 
G01 X0.7586 Y1.3049 
G01 X0.7488 Y1.2951 
G01 X0.7187 Y1.2951 
G01 X0.6813 Y1.2951 
G01 X0.6549 Y1.2687 
G01 X0.6549 Y0.9187 
G01 X0.6549 Y0.8813 
G01 X0.6549 Y0.7681 
G01 X0.5648 Y0.7681 
G01 X0.5418 Y0.7451 
G01 X0.3451 Y0.7451 
G01 X0.3451 Y1.1684 
G01 X0.3772 Y1.2004 
G01 X0.3772 Y1.3996 
G01 X0.3329 Y1.4438 
G01 X0.2703 Y1.4438 
G01 X0.2260 Y1.3996 
G01 X0.2260 Y1.2004 
G01 X0.2549 Y1.1715 
G01 X0.2549 Y0.7221 
G01 X0.1571 Y0.7221 
G01 X0.1149 Y0.6799 
G01 X0.1149 Y0.6201 
G01 X0.1350 Y0.6000 
G01 X0.1149 Y0.5799 
G01 X0.1149 Y0.5201 
G01 X0.1350 Y0.5000 
G01 X0.1149 Y0.4799 
G01 X0.1149 Y0.4201 
G01 X0.1571 Y0.3779 
G01 X0.2049 Y0.3779 
G01 X0.2049 Y0.1813 
G01 X0.2313 Y0.1549 
G01 X0.2687 Y0.1549 
G01 X1.4813 Y0.1549 
G00 Z0.0200 
G00 X1.3303 Y1.2731 
G01 Z-0.0100 F10.00 
G01 X1.2697 Y1.2731 
G01 X1.2500 Y1.2534 
G01 X1.2303 Y1.2731 
G01 X1.1697 Y1.2731 
G01 X1.1310 Y1.2344 
G01 X0.9938 Y1.2001 
G01 X0.9819 Y1.2001 
G01 X0.9767 Y1.1958 
G01 X0.9744 Y1.1952 
G01 X0.9662 Y1.1870 
G01 X0.7501 Y1.0069 
G01 X0.7501 Y1.1965 
G01 X0.7586 Y1.1880 
G01 X0.7855 Y1.1769 
G01 X0.8145 Y1.1769 
G01 X0.8414 Y1.1880 
G01 X0.8500 Y1.1966 
G01 X0.8697 Y1.1769 
G01 X0.9303 Y1.1769 
G01 X0.9731 Y1.2197 
G01 X0.9731 Y1.2803 
G01 X0.9535 Y1.2999 
G01 X1.3499 Y1.2999 
G01 X1.3499 Y1.2535 
G01 X1.3303 Y1.2731 
G00 Z0.0200 
G00 X1.0801 Y0.4697 
G01 Z-0.0100 F10.00 
G01 X1.0801 Y0.5303 
G01 X1.0604 Y0.5500 
G01 X1.0801 Y0.5697 
G01 X1.0801 Y0.6303 
G01 X1.0768 Y0.6336 
G01 X1.2238 Y0.6041 
G01 X1.2280 Y0.6000 
G01 X1.2099 Y0.5819 
G01 X1.2099 Y0.5807 
G01 X1.1999 Y0.5707 
G01 X1.1499 Y0.5207 
G01 X1.1499 Y0.4792 
G01 X1.1499 Y0.4501 
G01 X1.0605 Y0.4501 
G01 X1.0801 Y0.4697 
G00 Z0.0200 
G00 X0.8627 Y0.3269 
G01 Z-0.0100 F10.00 
G01 X1.0373 Y0.3269 
G01 X1.0603 Y0.3499 
G01 X1.2207 Y0.3499 
G01 X1.2494 Y0.3786 
G01 X1.2551 Y0.3729 
G01 X1.4449 Y0.3729 
G01 X1.4499 Y0.3779 
G01 X1.4499 Y0.2501 
G01 X0.7709 Y0.2501 
G01 X0.8001 Y0.2792 
G01 X0.8501 Y0.3292 
G01 X0.8501 Y0.3395 
G01 X0.8627 Y0.3269 
G00 Z0.0200 
G00 X0.3901 Y0.5819 
G01 Z-0.0100 F10.00 
G01 X0.3720 Y0.6000 
G01 X0.3901 Y0.6181 
G01 X0.3901 Y0.6499 
G01 X0.5395 Y0.6499 
G01 X0.5199 Y0.6303 
G01 X0.5199 Y0.5697 
G01 X0.5396 Y0.5500 
G01 X0.5199 Y0.5303 
G01 X0.5199 Y0.4697 
G01 X0.5396 Y0.4500 
G01 X0.5199 Y0.4303 
G01 X0.5199 Y0.3697 
G01 X0.5395 Y0.3501 
G01 X0.5001 Y0.3501 
G01 X0.5001 Y0.4292 
G01 X0.5001 Y0.4707 
G01 X0.4001 Y0.5707 
G01 X0.3901 Y0.5807 
G01 X0.3901 Y0.5819 
G00 Z0.0200 
G00 X0.3001 Y0.2501 
G01 Z-0.0100 F10.00 
G01 X0.3001 Y0.3729 
G01 X0.3449 Y0.3729 
G01 X0.3901 Y0.4181 
G01 X0.3901 Y0.4391 
G01 X0.3999 Y0.4292 
G01 X0.3999 Y0.2792 
G01 X0.4291 Y0.2501 
G01 X0.3001 Y0.2501 
G00 Z0.0200 
G00 X1.2551 Y0.7271 
G01 Z-0.0100 F10.00 
G01 X1.2325 Y0.7046 
G01 X1.0741 Y0.7363 
G01 X1.0501 Y0.7603 
G01 X1.0501 Y0.8967 
G01 X1.0731 Y0.9197 
G01 X1.0731 Y0.9803 
G01 X1.0303 Y1.0231 
G01 X0.9697 Y1.0231 
G01 X0.9269 Y0.9803 
G01 X0.9269 Y0.9197 
G01 X0.9499 Y0.8967 
G01 X0.9499 Y0.7731 
G01 X0.8627 Y0.7731 
G01 X0.8199 Y0.7303 
G01 X0.8199 Y0.6697 
G01 X0.8396 Y0.6500 
G01 X0.8199 Y0.6303 
G01 X0.8199 Y0.5697 
G01 X0.8395 Y0.5501 
G01 X0.7792 Y0.5501 
G01 X0.7698 Y0.5406 
G01 X0.7604 Y0.5500 
G01 X0.7801 Y0.5697 
G01 X0.7801 Y0.6303 
G01 X0.7604 Y0.6500 
G01 X0.7801 Y0.6697 
G01 X0.7801 Y0.7303 
G01 X0.7501 Y0.7603 
G01 X0.7501 Y0.8765 
G01 X1.0233 Y1.1042 
G01 X1.1586 Y1.1380 
G01 X1.1697 Y1.1269 
G01 X1.2303 Y1.1269 
G01 X1.2499 Y1.1465 
G01 X1.2499 Y1.0033 
G01 X1.2269 Y0.9803 
G01 X1.2269 Y0.9197 
G01 X1.2697 Y0.8769 
G01 X1.3303 Y0.8769 
G01 X1.3499 Y0.8965 
G01 X1.3499 Y0.7271 
G01 X1.2551 Y0.7271 
G00 Z0.0200 
G00 X1.4792 Y0.1499 
G01 Z-0.0100 F10.00 
G01 X1.5207 Y0.1499 
G01 X1.5501 Y0.1792 
G01 X1.5501 Y0.5792 
G01 X1.5501 Y0.6207 
G01 X1.5001 Y0.6707 
G01 X1.5001 Y0.6707 
G01 X1.4901 Y0.6807 
G01 X1.4901 Y0.6819 
G01 X1.4501 Y0.7219 
G01 X1.4501 Y1.3707 
G01 X1.4207 Y1.4001 
G01 X1.3792 Y1.4001 
G01 X0.9207 Y1.4001 
G01 X0.5790 Y1.4001 
G01 X0.5790 Y1.4016 
G01 X0.5318 Y1.4488 
G01 X0.4650 Y1.4488 
G01 X0.4178 Y1.4016 
G01 X0.4178 Y1.1984 
G01 X0.4650 Y1.1512 
G01 X0.5318 Y1.1512 
G01 X0.5790 Y1.1984 
G01 X0.5790 Y1.2999 
G01 X0.6791 Y1.2999 
G01 X0.6499 Y1.2707 
G01 X0.6499 Y0.9207 
G01 X0.6499 Y0.8792 
G01 X0.6499 Y0.7731 
G01 X0.5627 Y0.7731 
G01 X0.5397 Y0.7501 
G01 X0.3501 Y0.7501 
G01 X0.3501 Y1.1663 
G01 X0.3822 Y1.1984 
G01 X0.3822 Y1.4016 
G01 X0.3350 Y1.4488 
G01 X0.2682 Y1.4488 
G01 X0.2210 Y1.4016 
G01 X0.2210 Y1.1984 
G01 X0.2499 Y1.1694 
G01 X0.2499 Y0.7271 
G01 X0.1551 Y0.7271 
G01 X0.1099 Y0.6819 
G01 X0.1099 Y0.6181 
G01 X0.1280 Y0.6000 
G01 X0.1099 Y0.5819 
G01 X0.1099 Y0.5181 
G01 X0.1280 Y0.5000 
G01 X0.1099 Y0.4819 
G01 X0.1099 Y0.4181 
G01 X0.1551 Y0.3729 
G01 X0.1999 Y0.3729 
G01 X0.1999 Y0.1792 
G01 X0.2292 Y0.1499 
G01 X0.2707 Y0.1499 
G01 X1.4792 Y0.1499 
(File Footer)
G00 Z0.0200 
G00 Z0.0500 
M05
M02
