( This gcode generated by C:/Program Files/EAGLE-4.16r2/ulp/pcb-gcode.ulp )
( Copyright 2005 by John Johnson. See readme.txt for licensing terms. )

( This file generated from the board d:/projects/eagle/Brushless_ESC_Driver/schematic.brd )
( This file generated  7/04/2007 04:01:55p )

( T01 0.032000 )
( T02 0.040000 )
( T03 0.047000 )
( T04 0.062992 )
G20

G90
M05
G00 X0.0000 Y0.0000 Z3.0000 
M06 T01  ; 0.0320 
G00 Z0.0200 
M03
G04 P3.000000
G82 X0.6500 Y0.4000 Z-0.1200 F5.00  R0.0200 P10.000000
G82 X0.6500 Y0.5000 
G82 X0.6500 Y0.6000 
G82 X0.6500 Y0.7000 
G82 X0.8000 Y1.2500 
G82 X0.9000 Y1.2500 
G82 X0.9500 Y0.4000 
G82 X0.9500 Y0.5000 
G82 X0.9500 Y0.6000 
G82 X0.9500 Y0.7000 
G82 X1.0000 Y0.9500 
G82 X1.2000 Y1.2000 
G82 X1.3000 Y0.9500 
G82 X1.3000 Y1.2000 
M05
G00 X0.0000 Y0.0000 Z3.0000 
M06 T02  ; 0.0400 
G00 Z0.0200 
M03
G04 P3.000000
G82 X0.2500 Y0.4500 Z-0.1200 F5.00  R0.0200 P10.000000
G82 X0.2500 Y0.5500 
G82 X0.2500 Y0.6500 
G82 X1.3500 Y0.4500 
G82 X1.3500 Y0.5500 
G82 X1.3500 Y0.6500 
M05
G00 X0.0000 Y0.0000 Z3.0000 
M06 T03  ; 0.0470 
G00 Z0.0200 
M03
G04 P3.000000
G82 X0.3016 Y1.3000 Z-0.1200 F5.00  R0.0200 P10.000000
G82 X0.4984 Y1.3000 
M05
G00 X0.0000 Y0.0000 Z3.0000 
M06 T04  ; 0.0630 
G00 Z0.0200 
M03
G04 P3.000000
G82 X0.1000 Y0.1000 Z-0.1200 F5.00  R0.0200 P10.000000
G82 X0.1000 Y1.4000 
G82 X1.5000 Y0.1000 
G82 X1.5000 Y1.4000 
(File Footer)
T01 
G00 Z0.0500 
M05
M02
