( Made using CamBam - http://www.cambam.co.uk )
( scaled_plate_aluminum 4/20/2012 7:30:15 PM )
( T0 : 0.125 )
G20 G90 G64 G40
G0 Z0.05
( T0 : 0.125 )
( OutsideProfile )
G17
M3 S16000
G0 X0.7523 Y0.1724
G1 F11.0 Z0.0
G3 F60.0 X0.7438 Y0.0594 Z-0.02 I0.7414 J-0.113
G1 Y0.3624
G3 X0.6613 Y0.4449 I-0.0825 J0.0
G1 X0.0493
G3 X-0.0332 Y0.3624 I0.0 J-0.0825
G1 Y0.0594
G3 X0.0493 Y-0.0231 I0.0825 J0.0
G1 X0.6613
G3 X0.7438 Y0.0594 I0.0 J0.0825
G0 Z0.05
G0 X0.7523 Y0.1724
G1 F11.0 Z-0.02
G3 F60.0 X0.7438 Y0.0594 Z-0.04 I0.7414 J-0.113
G1 Y0.3624
G3 X0.6613 Y0.4449 I-0.0825 J0.0
G1 X0.0493
G3 X-0.0332 Y0.3624 I0.0 J-0.0825
G1 Y0.0594
G3 X0.0493 Y-0.0231 I0.0825 J0.0
G1 X0.6613
G3 X0.7438 Y0.0594 I0.0 J0.0825
G0 Z0.05
G0 X0.9582 Y-0.0536
G1 F11.0 Z0.0
G3 F60.0 X0.9668 Y0.0594 Z-0.02 I-0.7414 J0.113
G3 X1.0493 Y-0.0231 I0.0825 J0.0
G1 X1.6613
G3 X1.7438 Y0.0594 I0.0 J0.0825
G1 Y0.3624
G3 X1.6613 Y0.4449 I-0.0825 J0.0
G1 X1.0493
G3 X0.9668 Y0.3624 I0.0 J-0.0825
G1 Y0.0594
G0 Z0.05
G0 X0.9582 Y-0.0536
G1 F11.0 Z-0.02
G3 F60.0 X0.9668 Y0.0594 Z-0.04 I-0.7414 J0.113
G3 X1.0493 Y-0.0231 I0.0825 J0.0
G1 X1.6613
G3 X1.7438 Y0.0594 I0.0 J0.0825
G1 Y0.3624
G3 X1.6613 Y0.4449 I-0.0825 J0.0
G1 X1.0493
G3 X0.9668 Y0.3624 I0.0 J-0.0825
G1 Y0.0594
G0 Z0.05
G0 X1.1499 Y0.6048
G1 F11.0 Z0.0
G3 F60.0 X1.0389 Y0.6275 Z-0.02 I-0.2055 J-0.7213
G3 X1.0493 Y0.6269 I0.0104 J0.0818
G1 X1.6613
G3 X1.7438 Y0.7094 I0.0 J0.0825
G1 Y1.0124
G3 X1.6613 Y1.0949 I-0.0825 J0.0
G1 X1.0493
G3 X0.9668 Y1.0124 I0.0 J-0.0825
G1 Y0.7094
G3 X1.0389 Y0.6275 I0.0825 J0.0
G0 Z0.05
G0 X1.1499 Y0.6048
G1 F11.0 Z-0.02
G3 F60.0 X1.0389 Y0.6275 Z-0.04 I-0.2055 J-0.7213
G3 X1.0493 Y0.6269 I0.0104 J0.0818
G1 X1.6613
G3 X1.7438 Y0.7094 I0.0 J0.0825
G1 Y1.0124
G3 X1.6613 Y1.0949 I-0.0825 J0.0
G1 X1.0493
G3 X0.9668 Y1.0124 I0.0 J-0.0825
G1 Y0.7094
G3 X1.0389 Y0.6275 I0.0825 J0.0
G0 Z0.05
G0 X0.7742 Y0.8005
G1 F11.0 Z0.0
G3 F60.0 X0.7419 Y0.6919 Z-0.02 I0.7007 J-0.2675
G3 X0.7438 Y0.7094 I-0.0806 J0.0175
G1 Y1.0124
G3 X0.6613 Y1.0949 I-0.0825 J0.0
G1 X0.0493
G3 X-0.0332 Y1.0124 I0.0 J-0.0825
G1 Y0.7094
G3 X0.0493 Y0.6269 I0.0825 J0.0
G1 X0.6613
G3 X0.7419 Y0.6919 I0.0 J0.0825
G0 Z0.05
G0 X0.7742 Y0.8005
G1 F11.0 Z-0.02
G3 F60.0 X0.7419 Y0.6919 Z-0.04 I0.7007 J-0.2675
G3 X0.7438 Y0.7094 I-0.0806 J0.0175
G1 Y1.0124
G3 X0.6613 Y1.0949 I-0.0825 J0.0
G1 X0.0493
G3 X-0.0332 Y1.0124 I0.0 J-0.0825
G1 Y0.7094
G3 X0.0493 Y0.6269 I0.0825 J0.0
G1 X0.6613
G3 X0.7419 Y0.6919 I0.0 J0.0825
G0 Z0.05
G0 X0.7843 Y1.2825
G1 F11.0 Z0.0
G3 F60.0 X0.6711 Y1.2775 Z-0.02 I-0.0233 J-0.7496
G3 X0.7438 Y1.3594 I-0.0099 J0.0819
G1 Y1.6624
G3 X0.6613 Y1.7449 I-0.0825 J0.0
G1 X0.0493
G3 X-0.0332 Y1.6624 I0.0 J-0.0825
G1 Y1.3594
G3 X0.0493 Y1.2769 I0.0825 J0.0
G1 X0.6613
G3 X0.6711 Y1.2775 I0.0 J0.0825
G0 Z0.05
G0 X0.7843 Y1.2825
G1 F11.0 Z-0.02
G3 F60.0 X0.6711 Y1.2775 Z-0.04 I-0.0233 J-0.7496
G3 X0.7438 Y1.3594 I-0.0099 J0.0819
G1 Y1.6624
G3 X0.6613 Y1.7449 I-0.0825 J0.0
G1 X0.0493
G3 X-0.0332 Y1.6624 I0.0 J-0.0825
G1 Y1.3594
G3 X0.0493 Y1.2769 I0.0825 J0.0
G1 X0.6613
G3 X0.6711 Y1.2775 I0.0 J0.0825
G0 Z0.05
G0 X0.9842 Y1.2297
G1 F11.0 Z0.0
G3 F60.0 X0.9686 Y1.3419 Z-0.02 I-0.7486 J-0.0465
G3 X1.0493 Y1.2769 I0.0806 J0.0175
G1 X1.6613
G3 X1.7438 Y1.3594 I0.0 J0.0825
G1 Y1.6624
G3 X1.6613 Y1.7449 I-0.0825 J0.0
G1 X1.0493
G3 X0.9668 Y1.6624 I0.0 J-0.0825
G1 Y1.3594
G3 X0.9686 Y1.3419 I0.0825 J0.0
G0 Z0.05
G0 X0.9842 Y1.2297
G1 F11.0 Z-0.02
G3 F60.0 X0.9686 Y1.3419 Z-0.04 I-0.7486 J-0.0465
G3 X1.0493 Y1.2769 I0.0806 J0.0175
G1 X1.6613
G3 X1.7438 Y1.3594 I0.0 J0.0825
G1 Y1.6624
G3 X1.6613 Y1.7449 I-0.0825 J0.0
G1 X1.0493
G3 X0.9668 Y1.6624 I0.0 J-0.0825
G1 Y1.3594
G3 X0.9686 Y1.3419 I0.0825 J0.0
G0 Z0.05
G0 X1.1505 Y1.9054
G1 F11.0 Z0.0
G3 F60.0 X1.0394 Y1.9275 Z-0.02 I-0.2011 J-0.7225
G3 X1.0493 Y1.9269 I0.0099 J0.0819
G1 X1.6613
G3 X1.7438 Y2.0094 I0.0 J0.0825
G1 Y2.3124
G3 X1.6613 Y2.3949 I-0.0825 J0.0
G1 X1.0493
G3 X0.9668 Y2.3124 I0.0 J-0.0825
G1 Y2.0094
G3 X1.0394 Y1.9275 I0.0825 J0.0
G0 Z0.05
G0 X1.1505 Y1.9054
G1 F11.0 Z-0.02
G3 F60.0 X1.0394 Y1.9275 Z-0.04 I-0.2011 J-0.7225
G3 X1.0493 Y1.9269 I0.0099 J0.0819
G1 X1.6613
G3 X1.7438 Y2.0094 I0.0 J0.0825
G1 Y2.3124
G3 X1.6613 Y2.3949 I-0.0825 J0.0
G1 X1.0493
G3 X0.9668 Y2.3124 I0.0 J-0.0825
G1 Y2.0094
G3 X1.0394 Y1.9275 I0.0825 J0.0
G0 Z0.05
G0 X0.7742 Y2.1005
G1 F11.0 Z0.0
G3 F60.0 X0.7419 Y1.9919 Z-0.02 I0.7007 J-0.2674
G3 X0.7438 Y2.0094 I-0.0806 J0.0175
G1 Y2.3124
G3 X0.6613 Y2.3949 I-0.0825 J0.0
G1 X0.0493
G3 X-0.0332 Y2.3124 I0.0 J-0.0825
G1 Y2.0094
G3 X0.0493 Y1.9269 I0.0825 J0.0
G1 X0.6613
G3 X0.7419 Y1.9919 I0.0 J0.0825
G0 Z0.05
G0 X0.7742 Y2.1005
G1 F11.0 Z-0.02
G3 F60.0 X0.7419 Y1.9919 Z-0.04 I0.7007 J-0.2674
G3 X0.7438 Y2.0094 I-0.0806 J0.0175
G1 Y2.3124
G3 X0.6613 Y2.3949 I-0.0825 J0.0
G1 X0.0493
G3 X-0.0332 Y2.3124 I0.0 J-0.0825
G1 Y2.0094
G3 X0.0493 Y1.9269 I0.0825 J0.0
G1 X0.6613
G3 X0.7419 Y1.9919 I0.0 J0.0825
G0 Z0.05
G0 X0.7843 Y2.5825
G1 F11.0 Z0.0
G3 F60.0 X0.6711 Y2.5775 Z-0.02 I-0.0233 J-0.7496
G3 X0.7438 Y2.6594 I-0.0099 J0.0819
G1 Y2.9624
G3 X0.6613 Y3.0449 I-0.0825 J0.0
G1 X0.0493
G3 X-0.0332 Y2.9624 I0.0 J-0.0825
G1 Y2.6594
G3 X0.0493 Y2.5769 I0.0825 J0.0
G1 X0.6613
G3 X0.6711 Y2.5775 I0.0 J0.0825
G0 Z0.05
G0 X0.7843 Y2.5825
G1 F11.0 Z-0.02
G3 F60.0 X0.6711 Y2.5775 Z-0.04 I-0.0233 J-0.7496
G3 X0.7438 Y2.6594 I-0.0099 J0.0819
G1 Y2.9624
G3 X0.6613 Y3.0449 I-0.0825 J0.0
G1 X0.0493
G3 X-0.0332 Y2.9624 I0.0 J-0.0825
G1 Y2.6594
G3 X0.0493 Y2.5769 I0.0825 J0.0
G1 X0.6613
G3 X0.6711 Y2.5775 I0.0 J0.0825
G0 Z0.05
G0 X0.9842 Y2.5297
G1 F11.0 Z0.0
G3 F60.0 X0.9686 Y2.6419 Z-0.02 I-0.7486 J-0.0465
G3 X1.0493 Y2.5769 I0.0806 J0.0175
G1 X1.6613
G3 X1.7438 Y2.6594 I0.0 J0.0825
G1 Y2.9624
G3 X1.6613 Y3.0449 I-0.0825 J0.0
G1 X1.0493
G3 X0.9668 Y2.9624 I0.0 J-0.0825
G1 Y2.6594
G3 X0.9686 Y2.6419 I0.0825 J0.0
G0 Z0.05
G0 X0.9842 Y2.5297
G1 F11.0 Z-0.02
G3 F60.0 X0.9686 Y2.6419 Z-0.04 I-0.7486 J-0.0465
G3 X1.0493 Y2.5769 I0.0806 J0.0175
G1 X1.6613
G3 X1.7438 Y2.6594 I0.0 J0.0825
G1 Y2.9624
G3 X1.6613 Y3.0449 I-0.0825 J0.0
G1 X1.0493
G3 X0.9668 Y2.9624 I0.0 J-0.0825
G1 Y2.6594
G3 X0.9686 Y2.6419 I0.0825 J0.0
G0 Z0.05
G0 X1.1505 Y3.2054
G1 F11.0 Z0.0
G3 F60.0 X1.0394 Y3.2275 Z-0.02 I-0.2011 J-0.7225
G3 X1.0493 Y3.2269 I0.0099 J0.0819
G1 X1.6613
G3 X1.7438 Y3.3094 I0.0 J0.0825
G1 Y3.6124
G3 X1.6613 Y3.6949 I-0.0825 J0.0
G1 X1.0493
G3 X0.9668 Y3.6124 I0.0 J-0.0825
G1 Y3.3094
G3 X1.0394 Y3.2275 I0.0825 J0.0
G0 Z0.05
G0 X1.1505 Y3.2054
G1 F11.0 Z-0.02
G3 F60.0 X1.0394 Y3.2275 Z-0.04 I-0.2011 J-0.7225
G3 X1.0493 Y3.2269 I0.0099 J0.0819
G1 X1.6613
G3 X1.7438 Y3.3094 I0.0 J0.0825
G1 Y3.6124
G3 X1.6613 Y3.6949 I-0.0825 J0.0
G1 X1.0493
G3 X0.9668 Y3.6124 I0.0 J-0.0825
G1 Y3.3094
G3 X1.0394 Y3.2275 I0.0825 J0.0
G0 Z0.05
G0 X0.7742 Y3.4005
G1 F11.0 Z0.0
G3 F60.0 X0.7419 Y3.2919 Z-0.02 I0.7007 J-0.2674
G3 X0.7438 Y3.3094 I-0.0806 J0.0175
G1 Y3.6124
G3 X0.6613 Y3.6949 I-0.0825 J0.0
G1 X0.0493
G3 X-0.0332 Y3.6124 I0.0 J-0.0825
G1 Y3.3094
G3 X0.0493 Y3.2269 I0.0825 J0.0
G1 X0.6613
G3 X0.7419 Y3.2919 I0.0 J0.0825
G0 Z0.05
G0 X0.7742 Y3.4005
G1 F11.0 Z-0.02
G3 F60.0 X0.7419 Y3.2919 Z-0.04 I0.7007 J-0.2674
G3 X0.7438 Y3.3094 I-0.0806 J0.0175
G1 Y3.6124
G3 X0.6613 Y3.6949 I-0.0825 J0.0
G1 X0.0493
G3 X-0.0332 Y3.6124 I0.0 J-0.0825
G1 Y3.3094
G3 X0.0493 Y3.2269 I0.0825 J0.0
G1 X0.6613
G3 X0.7419 Y3.2919 I0.0 J0.0825
G0 Z0.05
G0 X0.7843 Y3.8825
G1 F11.0 Z0.0
G3 F60.0 X0.6711 Y3.8775 Z-0.02 I-0.0233 J-0.7496
G3 X0.7438 Y3.9594 I-0.0099 J0.0819
G1 Y4.2624
G3 X0.6613 Y4.3449 I-0.0825 J0.0
G1 X0.0493
G3 X-0.0332 Y4.2624 I0.0 J-0.0825
G1 Y3.9594
G3 X0.0493 Y3.8769 I0.0825 J0.0
G1 X0.6613
G3 X0.6711 Y3.8775 I0.0 J0.0825
G0 Z0.05
G0 X0.7843 Y3.8825
G1 F11.0 Z-0.02
G3 F60.0 X0.6711 Y3.8775 Z-0.04 I-0.0233 J-0.7496
G3 X0.7438 Y3.9594 I-0.0099 J0.0819
G1 Y4.2624
G3 X0.6613 Y4.3449 I-0.0825 J0.0
G1 X0.0493
G3 X-0.0332 Y4.2624 I0.0 J-0.0825
G1 Y3.9594
G3 X0.0493 Y3.8769 I0.0825 J0.0
G1 X0.6613
G3 X0.6711 Y3.8775 I0.0 J0.0825
G0 Z0.05
G0 X0.9842 Y3.8297
G1 F11.0 Z0.0
G3 F60.0 X0.9686 Y3.9419 Z-0.02 I-0.7486 J-0.0465
G3 X1.0493 Y3.8769 I0.0806 J0.0175
G1 X1.6613
G3 X1.7438 Y3.9594 I0.0 J0.0825
G1 Y4.2624
G3 X1.6613 Y4.3449 I-0.0825 J0.0
G1 X1.0493
G3 X0.9668 Y4.2624 I0.0 J-0.0825
G1 Y3.9594
G3 X0.9686 Y3.9419 I0.0825 J0.0
G0 Z0.05
G0 X0.9842 Y3.8297
G1 F11.0 Z-0.02
G3 F60.0 X0.9686 Y3.9419 Z-0.04 I-0.7486 J-0.0465
G3 X1.0493 Y3.8769 I0.0806 J0.0175
G1 X1.6613
G3 X1.7438 Y3.9594 I0.0 J0.0825
G1 Y4.2624
G3 X1.6613 Y4.3449 I-0.0825 J0.0
G1 X1.0493
G3 X0.9668 Y4.2624 I0.0 J-0.0825
G1 Y3.9594
G3 X0.9686 Y3.9419 I0.0825 J0.0
G0 Z0.05
G0 X1.96 Y3.8449
G1 F11.0 Z0.0
G3 F60.0 X1.9668 Y3.958 Z-0.02 I-0.7432 J0.101
G3 X2.0493 Y3.8769 I0.0825 J0.0013
G1 X2.6613
G3 X2.7438 Y3.9594 I0.0 J0.0825
G1 Y4.2624
G3 X2.6613 Y4.3449 I-0.0825 J0.0
G1 X2.0493
G3 X1.9668 Y4.2624 I0.0 J-0.0825
G1 Y3.9594
G3 Y3.958 I0.0825 J0.0
G0 Z0.05
G0 X1.96 Y3.8449
G1 F11.0 Z-0.02
G3 F60.0 X1.9668 Y3.958 Z-0.04 I-0.7432 J0.101
G3 X2.0493 Y3.8769 I0.0825 J0.0013
G1 X2.6613
G3 X2.7438 Y3.9594 I0.0 J0.0825
G1 Y4.2624
G3 X2.6613 Y4.3449 I-0.0825 J0.0
G1 X2.0493
G3 X1.9668 Y4.2624 I0.0 J-0.0825
G1 Y3.9594
G3 Y3.958 I0.0825 J0.0
G0 Z0.05
G0 X1.9182 Y3.6747
G1 F11.0 Z0.0
G3 F60.0 X2.0301 Y3.6926 Z-0.02 I-0.0622 J0.7474
G3 X1.9668 Y3.6124 I0.0191 J-0.0802
G1 Y3.3094
G3 X2.0493 Y3.2269 I0.0825 J0.0
G1 X2.6613
G3 X2.7438 Y3.3094 I0.0 J0.0825
G1 Y3.6124
G3 X2.6613 Y3.6949 I-0.0825 J0.0
G1 X2.0493
G3 X2.0301 Y3.6926 I0.0 J-0.0825
G0 Z0.05
G0 X1.9182 Y3.6747
G1 F11.0 Z-0.02
G3 F60.0 X2.0301 Y3.6926 Z-0.04 I-0.0622 J0.7474
G3 X1.9668 Y3.6124 I0.0191 J-0.0802
G1 Y3.3094
G3 X2.0493 Y3.2269 I0.0825 J0.0
G1 X2.6613
G3 X2.7438 Y3.3094 I0.0 J0.0825
G1 Y3.6124
G3 X2.6613 Y3.6949 I-0.0825 J0.0
G1 X2.0493
G3 X2.0301 Y3.6926 I0.0 J-0.0825
G0 Z0.05
G0 X1.9339 Y3.0504
G1 F11.0 Z0.0
G3 F60.0 X2.0471 Y3.0448 Z-0.02 I0.0935 J0.7441
G3 X1.9668 Y2.9624 I0.0022 J-0.0825
G1 Y2.6594
G3 X2.0493 Y2.5769 I0.0825 J0.0
G1 X2.6613
G3 X2.7438 Y2.6594 I0.0 J0.0825
G1 Y2.9624
G3 X2.6613 Y3.0449 I-0.0825 J0.0
G1 X2.0493
G3 X2.0471 Y3.0448 I0.0 J-0.0825
G0 Z0.05
G0 X1.9339 Y3.0504
G1 F11.0 Z-0.02
G3 F60.0 X2.0471 Y3.0448 Z-0.04 I0.0935 J0.7441
G3 X1.9668 Y2.9624 I0.0022 J-0.0825
G1 Y2.6594
G3 X2.0493 Y2.5769 I0.0825 J0.0
G1 X2.6613
G3 X2.7438 Y2.6594 I0.0 J0.0825
G1 Y2.9624
G3 X2.6613 Y3.0449 I-0.0825 J0.0
G1 X2.0493
G3 X2.0471 Y3.0448 I0.0 J-0.0825
G0 Z0.05
G0 X1.936 Y2.4031
G1 F11.0 Z0.0
G3 F60.0 X2.049 Y2.3949 Z-0.02 I0.1108 J0.7418
G3 X1.9668 Y2.3124 I0.0002 J-0.0825
G1 Y2.0094
G3 X2.0493 Y1.9269 I0.0825 J0.0
G1 X2.6613
G3 X2.7438 Y2.0094 I0.0 J0.0825
G1 Y2.3124
G3 X2.6613 Y2.3949 I-0.0825 J0.0
G1 X2.0493
G3 X2.049 I0.0 J-0.0825
G0 Z0.05
G0 X1.936 Y2.4031
G1 F11.0 Z-0.02
G3 F60.0 X2.049 Y2.3949 Z-0.04 I0.1108 J0.7418
G3 X1.9668 Y2.3124 I0.0002 J-0.0825
G1 Y2.0094
G3 X2.0493 Y1.9269 I0.0825 J0.0
G1 X2.6613
G3 X2.7438 Y2.0094 I0.0 J0.0825
G1 Y2.3124
G3 X2.6613 Y2.3949 I-0.0825 J0.0
G1 X2.0493
G3 X2.049 I0.0 J-0.0825
G0 Z0.05
G0 X1.9362 Y1.7534
G1 F11.0 Z0.0
G3 F60.0 X2.0492 Y1.7449 Z-0.02 I0.1127 J0.7415
G3 X1.9668 Y1.6624 I0.0 J-0.0825
G1 Y1.3594
G3 X2.0493 Y1.2769 I0.0825 J0.0
G1 X2.6613
G3 X2.7438 Y1.3594 I0.0 J0.0825
G1 Y1.6624
G3 X2.6613 Y1.7449 I-0.0825 J0.0
G1 X2.0493
G1 X2.0492
G0 Z0.05
G0 X1.9362 Y1.7534
G1 F11.0 Z-0.02
G3 F60.0 X2.0492 Y1.7449 Z-0.04 I0.1127 J0.7415
G3 X1.9668 Y1.6624 I0.0 J-0.0825
G1 Y1.3594
G3 X2.0493 Y1.2769 I0.0825 J0.0
G1 X2.6613
G3 X2.7438 Y1.3594 I0.0 J0.0825
G1 Y1.6624
G3 X2.6613 Y1.7449 I-0.0825 J0.0
G1 X2.0493
G1 X2.0492
G0 Z0.05
G0 X1.9363 Y1.1034
G1 F11.0 Z0.0
G3 F60.0 X2.0492 Y1.0949 Z-0.02 I0.113 J0.7414
G3 X1.9668 Y1.0124 I0.0 J-0.0825
G1 Y0.7094
G3 X2.0493 Y0.6269 I0.0825 J0.0
G1 X2.6613
G3 X2.7438 Y0.7094 I0.0 J0.0825
G1 Y1.0124
G3 X2.6613 Y1.0949 I-0.0825 J0.0
G1 X2.0493
G1 X2.0492
G0 Z0.05
G0 X1.9363 Y1.1034
G1 F11.0 Z-0.02
G3 F60.0 X2.0492 Y1.0949 Z-0.04 I0.113 J0.7414
G3 X1.9668 Y1.0124 I0.0 J-0.0825
G1 Y0.7094
G3 X2.0493 Y0.6269 I0.0825 J0.0
G1 X2.6613
G3 X2.7438 Y0.7094 I0.0 J0.0825
G1 Y1.0124
G3 X2.6613 Y1.0949 I-0.0825 J0.0
G1 X2.0493
G1 X2.0492
G0 Z0.05
G0 X1.9363 Y0.4534
G1 F11.0 Z0.0
G3 F60.0 X2.0493 Y0.4449 Z-0.02 I0.113 J0.7414
G3 X1.9668 Y0.3624 I0.0 J-0.0825
G1 Y0.0594
G3 X2.0493 Y-0.0231 I0.0825 J0.0
G1 X2.6613
G3 X2.7438 Y0.0594 I0.0 J0.0825
G1 Y0.3624
G3 X2.6613 Y0.4449 I-0.0825 J0.0
G1 X2.0493
G0 Z0.05
G0 X1.9363 Y0.4534
G1 F11.0 Z-0.02
G3 F60.0 X2.0493 Y0.4449 Z-0.04 I0.113 J0.7414
G3 X1.9668 Y0.3624 I0.0 J-0.0825
G1 Y0.0594
G3 X2.0493 Y-0.0231 I0.0825 J0.0
G1 X2.6613
G3 X2.7438 Y0.0594 I0.0 J0.0825
G1 Y0.3624
G3 X2.6613 Y0.4449 I-0.0825 J0.0
G1 X2.0493
G0 Z0.05
G0 X2.9492 Y0.2572
G1 F11.0 Z0.0
G3 F60.0 X2.967 Y0.3691 Z-0.02 I-0.7296 J0.1736
G3 X2.9668 Y0.3624 I0.0822 J-0.0068
G1 Y0.0594
G3 X3.0493 Y-0.0231 I0.0825 J0.0
G1 X3.6613
G3 X3.7438 Y0.0594 I0.0 J0.0825
G1 Y0.3624
G3 X3.6613 Y0.4449 I-0.0825 J0.0
G1 X3.0493
G3 X2.967 Y0.3691 I0.0 J-0.0825
G0 Z0.05
G0 X2.9492 Y0.2572
G1 F11.0 Z-0.02
G3 F60.0 X2.967 Y0.3691 Z-0.04 I-0.7296 J0.1736
G3 X2.9668 Y0.3624 I0.0822 J-0.0068
G1 Y0.0594
G3 X3.0493 Y-0.0231 I0.0825 J0.0
G1 X3.6613
G3 X3.7438 Y0.0594 I0.0 J0.0825
G1 Y0.3624
G3 X3.6613 Y0.4449 I-0.0825 J0.0
G1 X3.0493
G3 X2.967 Y0.3691 I0.0 J-0.0825
G0 Z0.05
G0 X3.1377 Y0.5943
G1 F11.0 Z0.0
G3 F60.0 X3.0299 Y0.6292 Z-0.02 I-0.284 J-0.6941
G3 X3.0493 Y0.6269 I0.0194 J0.0802
G1 X3.6613
G3 X3.7438 Y0.7094 I0.0 J0.0825
G1 Y1.0124
G3 X3.6613 Y1.0949 I-0.0825 J0.0
G1 X3.0493
G3 X2.9668 Y1.0124 I0.0 J-0.0825
G1 Y0.7094
G3 X3.0299 Y0.6292 I0.0825 J0.0
G0 Z0.05
G0 X3.1377 Y0.5943
G1 F11.0 Z-0.02
G3 F60.0 X3.0299 Y0.6292 Z-0.04 I-0.284 J-0.6941
G3 X3.0493 Y0.6269 I0.0194 J0.0802
G1 X3.6613
G3 X3.7438 Y0.7094 I0.0 J0.0825
G1 Y1.0124
G3 X3.6613 Y1.0949 I-0.0825 J0.0
G1 X3.0493
G3 X2.9668 Y1.0124 I0.0 J-0.0825
G1 Y0.7094
G3 X3.0299 Y0.6292 I0.0825 J0.0
G0 Z0.05
G0 X3.1598 Y1.2653
G1 F11.0 Z0.0
G3 F60.0 X3.0471 Y1.2769 Z-0.02 I-0.1326 J-0.7382
G3 X3.0493 I0.0022 J0.0825
G1 X3.6613
G3 X3.7438 Y1.3594 I0.0 J0.0825
G1 Y1.6624
G3 X3.6613 Y1.7449 I-0.0825 J0.0
G1 X3.0493
G3 X2.9668 Y1.6624 I0.0 J-0.0825
G1 Y1.3594
G3 X3.0471 Y1.2769 I0.0825 J0.0
G0 Z0.05
G0 X3.1598 Y1.2653
G1 F11.0 Z-0.02
G3 F60.0 X3.0471 Y1.2769 Z-0.04 I-0.1326 J-0.7382
G3 X3.0493 I0.0022 J0.0825
G1 X3.6613
G3 X3.7438 Y1.3594 I0.0 J0.0825
G1 Y1.6624
G3 X3.6613 Y1.7449 I-0.0825 J0.0
G1 X3.0493
G3 X2.9668 Y1.6624 I0.0 J-0.0825
G1 Y1.3594
G3 X3.0471 Y1.2769 I0.0825 J0.0
G0 Z0.05
G0 X3.162 Y1.918
G1 F11.0 Z0.0
G3 F60.0 X3.049 Y1.9269 Z-0.02 I-0.1152 J-0.7411
G3 X3.0493 I0.0002 J0.0825
G1 X3.6613
G3 X3.7438 Y2.0094 I0.0 J0.0825
G1 Y2.3124
G3 X3.6613 Y2.3949 I-0.0825 J0.0
G1 X3.0493
G3 X2.9668 Y2.3124 I0.0 J-0.0825
G1 Y2.0094
G3 X3.049 Y1.9269 I0.0825 J0.0
G0 Z0.05
G0 X3.162 Y1.918
G1 F11.0 Z-0.02
G3 F60.0 X3.049 Y1.9269 Z-0.04 I-0.1152 J-0.7411
G3 X3.0493 I0.0002 J0.0825
G1 X3.6613
G3 X3.7438 Y2.0094 I0.0 J0.0825
G1 Y2.3124
G3 X3.6613 Y2.3949 I-0.0825 J0.0
G1 X3.0493
G3 X2.9668 Y2.3124 I0.0 J-0.0825
G1 Y2.0094
G3 X3.049 Y1.9269 I0.0825 J0.0
G0 Z0.05
G0 X3.1622 Y2.5683
G1 F11.0 Z0.0
G3 F60.0 X3.0492 Y2.5769 Z-0.02 I-0.1132 J-0.7414
G1 X3.0493
G1 X3.6613
G3 X3.7438 Y2.6594 I0.0 J0.0825
G1 Y2.9624
G3 X3.6613 Y3.0449 I-0.0825 J0.0
G1 X3.0493
G3 X2.9668 Y2.9624 I0.0 J-0.0825
G1 Y2.6594
G3 X3.0492 Y2.5769 I0.0825 J0.0
G0 Z0.05
G0 X3.1622 Y2.5683
G1 F11.0 Z-0.02
G3 F60.0 X3.0492 Y2.5769 Z-0.04 I-0.1132 J-0.7414
G1 X3.0493
G1 X3.6613
G3 X3.7438 Y2.6594 I0.0 J0.0825
G1 Y2.9624
G3 X3.6613 Y3.0449 I-0.0825 J0.0
G1 X3.0493
G3 X2.9668 Y2.9624 I0.0 J-0.0825
G1 Y2.6594
G3 X3.0492 Y2.5769 I0.0825 J0.0
G0 Z0.05
G0 X3.1622 Y3.2183
G1 F11.0 Z0.0
G3 F60.0 X3.0492 Y3.2269 Z-0.02 I-0.113 J-0.7414
G1 X3.0493
G1 X3.6613
G3 X3.7438 Y3.3094 I0.0 J0.0825
G1 Y3.6124
G3 X3.6613 Y3.6949 I-0.0825 J0.0
G1 X3.0493
G3 X2.9668 Y3.6124 I0.0 J-0.0825
G1 Y3.3094
G3 X3.0492 Y3.2269 I0.0825 J0.0
G0 Z0.05
G0 X3.1622 Y3.2183
G1 F11.0 Z-0.02
G3 F60.0 X3.0492 Y3.2269 Z-0.04 I-0.113 J-0.7414
G1 X3.0493
G1 X3.6613
G3 X3.7438 Y3.3094 I0.0 J0.0825
G1 Y3.6124
G3 X3.6613 Y3.6949 I-0.0825 J0.0
G1 X3.0493
G3 X2.9668 Y3.6124 I0.0 J-0.0825
G1 Y3.3094
G3 X3.0492 Y3.2269 I0.0825 J0.0
G0 Z0.05
G0 X3.1622 Y3.8683
G1 F11.0 Z0.0
G3 F60.0 X3.0493 Y3.8769 Z-0.02 I-0.113 J-0.7414
G1 X3.6613
G3 X3.7438 Y3.9594 I0.0 J0.0825
G1 Y4.2624
G3 X3.6613 Y4.3449 I-0.0825 J0.0
G1 X3.0493
G3 X2.9668 Y4.2624 I0.0 J-0.0825
G1 Y3.9594
G3 X3.0493 Y3.8769 I0.0825 J0.0
G0 Z0.05
G0 X3.1622 Y3.8683
G1 F11.0 Z-0.02
G3 F60.0 X3.0493 Y3.8769 Z-0.04 I-0.113 J-0.7414
G1 X3.6613
G3 X3.7438 Y3.9594 I0.0 J0.0825
G1 Y4.2624
G3 X3.6613 Y4.3449 I-0.0825 J0.0
G1 X3.0493
G3 X2.9668 Y4.2624 I0.0 J-0.0825
G1 Y3.9594
G3 X3.0493 Y3.8769 I0.0825 J0.0
G0 Z0.05
G0 X3.9678 Y3.8393
G1 F11.0 Z0.0
G3 F60.0 X3.967 Y3.9526 Z-0.02 I-0.7482 J0.0516
G3 X4.0493 Y3.8769 I0.0822 J0.0068
G1 X4.6613
G3 X4.7438 Y3.9594 I0.0 J0.0825
G1 Y4.2624
G3 X4.6613 Y4.3449 I-0.0825 J0.0
G1 X4.0493
G3 X3.9668 Y4.2624 I0.0 J-0.0825
G1 Y3.9594
G3 X3.967 Y3.9526 I0.0825 J0.0
G0 Z0.05
G0 X3.9678 Y3.8393
G1 F11.0 Z-0.02
G3 F60.0 X3.967 Y3.9526 Z-0.04 I-0.7482 J0.0516
G3 X4.0493 Y3.8769 I0.0822 J0.0068
G1 X4.6613
G3 X4.7438 Y3.9594 I0.0 J0.0825
G1 Y4.2624
G3 X4.6613 Y4.3449 I-0.0825 J0.0
G1 X4.0493
G3 X3.9668 Y4.2624 I0.0 J-0.0825
G1 Y3.9594
G3 X3.967 Y3.9526 I0.0825 J0.0
G0 Z0.05
G0 X3.918 Y3.6743
G1 F11.0 Z0.0
G3 F60.0 X4.0299 Y3.6926 Z-0.02 I-0.0643 J0.7472
G3 X3.9668 Y3.6124 I0.0194 J-0.0802
G1 Y3.3094
G3 X4.0493 Y3.2269 I0.0825 J0.0
G1 X4.6613
G3 X4.7438 Y3.3094 I0.0 J0.0825
G1 Y3.6124
G3 X4.6613 Y3.6949 I-0.0825 J0.0
G1 X4.0493
G3 X4.0299 Y3.6926 I0.0 J-0.0825
G0 Z0.05
G0 X3.918 Y3.6743
G1 F11.0 Z-0.02
G3 F60.0 X4.0299 Y3.6926 Z-0.04 I-0.0643 J0.7472
G3 X3.9668 Y3.6124 I0.0194 J-0.0802
G1 Y3.3094
G3 X4.0493 Y3.2269 I0.0825 J0.0
G1 X4.6613
G3 X4.7438 Y3.3094 I0.0 J0.0825
G1 Y3.6124
G3 X4.6613 Y3.6949 I-0.0825 J0.0
G1 X4.0493
G3 X4.0299 Y3.6926 I0.0 J-0.0825
G0 Z0.05
G0 X3.9339 Y3.0504
G1 F11.0 Z0.0
G3 F60.0 X4.0471 Y3.0448 Z-0.02 I0.0933 J0.7442
G3 X3.9668 Y2.9624 I0.0022 J-0.0825
G1 Y2.6594
G3 X4.0493 Y2.5769 I0.0825 J0.0
G1 X4.6613
G3 X4.7438 Y2.6594 I0.0 J0.0825
G1 Y2.9624
G3 X4.6613 Y3.0449 I-0.0825 J0.0
G1 X4.0493
G3 X4.0471 Y3.0448 I0.0 J-0.0825
G0 Z0.05
G0 X3.9339 Y3.0504
G1 F11.0 Z-0.02
G3 F60.0 X4.0471 Y3.0448 Z-0.04 I0.0933 J0.7442
G3 X3.9668 Y2.9624 I0.0022 J-0.0825
G1 Y2.6594
G3 X4.0493 Y2.5769 I0.0825 J0.0
G1 X4.6613
G3 X4.7438 Y2.6594 I0.0 J0.0825
G1 Y2.9624
G3 X4.6613 Y3.0449 I-0.0825 J0.0
G1 X4.0493
G3 X4.0471 Y3.0448 I0.0 J-0.0825
G0 Z0.05
G0 X3.936 Y2.4031
G1 F11.0 Z0.0
G3 F60.0 X4.049 Y2.3949 Z-0.02 I0.1108 J0.7418
G3 X3.9668 Y2.3124 I0.0002 J-0.0825
G1 Y2.0094
G3 X4.0493 Y1.9269 I0.0825 J0.0
G1 X4.6613
G3 X4.7438 Y2.0094 I0.0 J0.0825
G1 Y2.3124
G3 X4.6613 Y2.3949 I-0.0825 J0.0
G1 X4.0493
G3 X4.049 I0.0 J-0.0825
G0 Z0.05
G0 X3.936 Y2.4031
G1 F11.0 Z-0.02
G3 F60.0 X4.049 Y2.3949 Z-0.04 I0.1108 J0.7418
G3 X3.9668 Y2.3124 I0.0002 J-0.0825
G1 Y2.0094
G3 X4.0493 Y1.9269 I0.0825 J0.0
G1 X4.6613
G3 X4.7438 Y2.0094 I0.0 J0.0825
G1 Y2.3124
G3 X4.6613 Y2.3949 I-0.0825 J0.0
G1 X4.0493
G3 X4.049 I0.0 J-0.0825
G0 Z0.05
G0 X3.9362 Y1.7534
G1 F11.0 Z0.0
G3 F60.0 X4.0492 Y1.7449 Z-0.02 I0.1127 J0.7415
G3 X3.9668 Y1.6624 I0.0 J-0.0825
G1 Y1.3594
G3 X4.0493 Y1.2769 I0.0825 J0.0
G1 X4.6613
G3 X4.7438 Y1.3594 I0.0 J0.0825
G1 Y1.6624
G3 X4.6613 Y1.7449 I-0.0825 J0.0
G1 X4.0493
G1 X4.0492
G0 Z0.05
G0 X3.9362 Y1.7534
G1 F11.0 Z-0.02
G3 F60.0 X4.0492 Y1.7449 Z-0.04 I0.1127 J0.7415
G3 X3.9668 Y1.6624 I0.0 J-0.0825
G1 Y1.3594
G3 X4.0493 Y1.2769 I0.0825 J0.0
G1 X4.6613
G3 X4.7438 Y1.3594 I0.0 J0.0825
G1 Y1.6624
G3 X4.6613 Y1.7449 I-0.0825 J0.0
G1 X4.0493
G1 X4.0492
G0 Z0.05
G0 X3.9363 Y1.1034
G1 F11.0 Z0.0
G3 F60.0 X4.0492 Y1.0949 Z-0.02 I0.113 J0.7414
G3 X3.9668 Y1.0124 I0.0 J-0.0825
G1 Y0.7094
G3 X4.0493 Y0.6269 I0.0825 J0.0
G1 X4.6613
G3 X4.7438 Y0.7094 I0.0 J0.0825
G1 Y1.0124
G3 X4.6613 Y1.0949 I-0.0825 J0.0
G1 X4.0493
G1 X4.0492
G0 Z0.05
G0 X3.9363 Y1.1034
G1 F11.0 Z-0.02
G3 F60.0 X4.0492 Y1.0949 Z-0.04 I0.113 J0.7414
G3 X3.9668 Y1.0124 I0.0 J-0.0825
G1 Y0.7094
G3 X4.0493 Y0.6269 I0.0825 J0.0
G1 X4.6613
G3 X4.7438 Y0.7094 I0.0 J0.0825
G1 Y1.0124
G3 X4.6613 Y1.0949 I-0.0825 J0.0
G1 X4.0493
G1 X4.0492
G0 Z0.05
G0 X3.9363 Y0.4534
G1 F11.0 Z0.0
G3 F60.0 X4.0493 Y0.4449 Z-0.02 I0.113 J0.7414
G3 X3.9668 Y0.3624 I0.0 J-0.0825
G1 Y0.0594
G3 X4.0493 Y-0.0231 I0.0825 J0.0
G1 X4.6613
G3 X4.7438 Y0.0594 I0.0 J0.0825
G1 Y0.3624
G3 X4.6613 Y0.4449 I-0.0825 J0.0
G1 X4.0493
G0 Z0.05
G0 X3.9363 Y0.4534
G1 F11.0 Z-0.02
G3 F60.0 X4.0493 Y0.4449 Z-0.04 I0.113 J0.7414
G3 X3.9668 Y0.3624 I0.0 J-0.0825
G1 Y0.0594
G3 X4.0493 Y-0.0231 I0.0825 J0.0
G1 X4.6613
G3 X4.7438 Y0.0594 I0.0 J0.0825
G1 Y0.3624
G3 X4.6613 Y0.4449 I-0.0825 J0.0
G1 X4.0493
G0 Z0.05
G0 X4.9492 Y0.2572
G1 F11.0 Z0.0
G3 F60.0 X4.967 Y0.3691 Z-0.02 I-0.7296 J0.1736
G3 X4.9668 Y0.3624 I0.0822 J-0.0068
G1 Y0.0594
G3 X5.0493 Y-0.0231 I0.0825 J0.0
G1 X5.6613
G3 X5.7438 Y0.0594 I0.0 J0.0825
G1 Y0.3624
G3 X5.6613 Y0.4449 I-0.0825 J0.0
G1 X5.0493
G3 X4.967 Y0.3691 I0.0 J-0.0825
G0 Z0.05
G0 X4.9492 Y0.2572
G1 F11.0 Z-0.02
G3 F60.0 X4.967 Y0.3691 Z-0.04 I-0.7296 J0.1736
G3 X4.9668 Y0.3624 I0.0822 J-0.0068
G1 Y0.0594
G3 X5.0493 Y-0.0231 I0.0825 J0.0
G1 X5.6613
G3 X5.7438 Y0.0594 I0.0 J0.0825
G1 Y0.3624
G3 X5.6613 Y0.4449 I-0.0825 J0.0
G1 X5.0493
G3 X4.967 Y0.3691 I0.0 J-0.0825
G0 Z0.05
G0 X5.1377 Y0.5943
G1 F11.0 Z0.0
G3 F60.0 X5.0299 Y0.6292 Z-0.02 I-0.284 J-0.6941
G3 X5.0493 Y0.6269 I0.0194 J0.0802
G1 X5.6613
G3 X5.7438 Y0.7094 I0.0 J0.0825
G1 Y1.0124
G3 X5.6613 Y1.0949 I-0.0825 J0.0
G1 X5.0493
G3 X4.9668 Y1.0124 I0.0 J-0.0825
G1 Y0.7094
G3 X5.0299 Y0.6292 I0.0825 J0.0
G0 Z0.05
G0 X5.1377 Y0.5943
G1 F11.0 Z-0.02
G3 F60.0 X5.0299 Y0.6292 Z-0.04 I-0.284 J-0.6941
G3 X5.0493 Y0.6269 I0.0194 J0.0802
G1 X5.6613
G3 X5.7438 Y0.7094 I0.0 J0.0825
G1 Y1.0124
G3 X5.6613 Y1.0949 I-0.0825 J0.0
G1 X5.0493
G3 X4.9668 Y1.0124 I0.0 J-0.0825
G1 Y0.7094
G3 X5.0299 Y0.6292 I0.0825 J0.0
G0 Z0.05
G0 X5.1598 Y1.2653
G1 F11.0 Z0.0
G3 F60.0 X5.0471 Y1.2769 Z-0.02 I-0.1326 J-0.7382
G3 X5.0493 I0.0022 J0.0825
G1 X5.6613
G3 X5.7438 Y1.3594 I0.0 J0.0825
G1 Y1.6624
G3 X5.6613 Y1.7449 I-0.0825 J0.0
G1 X5.0493
G3 X4.9668 Y1.6624 I0.0 J-0.0825
G1 Y1.3594
G3 X5.0471 Y1.2769 I0.0825 J0.0
G0 Z0.05
G0 X5.1598 Y1.2653
G1 F11.0 Z-0.02
G3 F60.0 X5.0471 Y1.2769 Z-0.04 I-0.1326 J-0.7382
G3 X5.0493 I0.0022 J0.0825
G1 X5.6613
G3 X5.7438 Y1.3594 I0.0 J0.0825
G1 Y1.6624
G3 X5.6613 Y1.7449 I-0.0825 J0.0
G1 X5.0493
G3 X4.9668 Y1.6624 I0.0 J-0.0825
G1 Y1.3594
G3 X5.0471 Y1.2769 I0.0825 J0.0
G0 Z0.05
G0 X5.162 Y1.918
G1 F11.0 Z0.0
G3 F60.0 X5.049 Y1.9269 Z-0.02 I-0.1152 J-0.7411
G3 X5.0493 I0.0002 J0.0825
G1 X5.6613
G3 X5.7438 Y2.0094 I0.0 J0.0825
G1 Y2.3124
G3 X5.6613 Y2.3949 I-0.0825 J0.0
G1 X5.0493
G3 X4.9668 Y2.3124 I0.0 J-0.0825
G1 Y2.0094
G3 X5.049 Y1.9269 I0.0825 J0.0
G0 Z0.05
G0 X5.162 Y1.918
G1 F11.0 Z-0.02
G3 F60.0 X5.049 Y1.9269 Z-0.04 I-0.1152 J-0.7411
G3 X5.0493 I0.0002 J0.0825
G1 X5.6613
G3 X5.7438 Y2.0094 I0.0 J0.0825
G1 Y2.3124
G3 X5.6613 Y2.3949 I-0.0825 J0.0
G1 X5.0493
G3 X4.9668 Y2.3124 I0.0 J-0.0825
G1 Y2.0094
G3 X5.049 Y1.9269 I0.0825 J0.0
G0 Z0.05
G0 X5.1622 Y2.5683
G1 F11.0 Z0.0
G3 F60.0 X5.0492 Y2.5769 Z-0.02 I-0.1132 J-0.7414
G1 X5.0493
G1 X5.6613
G3 X5.7438 Y2.6594 I0.0 J0.0825
G1 Y2.9624
G3 X5.6613 Y3.0449 I-0.0825 J0.0
G1 X5.0493
G3 X4.9668 Y2.9624 I0.0 J-0.0825
G1 Y2.6594
G3 X5.0492 Y2.5769 I0.0825 J0.0
G0 Z0.05
G0 X5.1622 Y2.5683
G1 F11.0 Z-0.02
G3 F60.0 X5.0492 Y2.5769 Z-0.04 I-0.1132 J-0.7414
G1 X5.0493
G1 X5.6613
G3 X5.7438 Y2.6594 I0.0 J0.0825
G1 Y2.9624
G3 X5.6613 Y3.0449 I-0.0825 J0.0
G1 X5.0493
G3 X4.9668 Y2.9624 I0.0 J-0.0825
G1 Y2.6594
G3 X5.0492 Y2.5769 I0.0825 J0.0
G0 Z0.05
G0 X5.1622 Y3.2183
G1 F11.0 Z0.0
G3 F60.0 X5.0492 Y3.2269 Z-0.02 I-0.113 J-0.7414
G1 X5.0493
G1 X5.6613
G3 X5.7438 Y3.3094 I0.0 J0.0825
G1 Y3.6124
G3 X5.6613 Y3.6949 I-0.0825 J0.0
G1 X5.0493
G3 X4.9668 Y3.6124 I0.0 J-0.0825
G1 Y3.3094
G3 X5.0492 Y3.2269 I0.0825 J0.0
G0 Z0.05
G0 X5.1622 Y3.2183
G1 F11.0 Z-0.02
G3 F60.0 X5.0492 Y3.2269 Z-0.04 I-0.113 J-0.7414
G1 X5.0493
G1 X5.6613
G3 X5.7438 Y3.3094 I0.0 J0.0825
G1 Y3.6124
G3 X5.6613 Y3.6949 I-0.0825 J0.0
G1 X5.0493
G3 X4.9668 Y3.6124 I0.0 J-0.0825
G1 Y3.3094
G3 X5.0492 Y3.2269 I0.0825 J0.0
G0 Z0.05
G0 X5.1622 Y3.8683
G1 F11.0 Z0.0
G3 F60.0 X5.0493 Y3.8769 Z-0.02 I-0.113 J-0.7414
G1 X5.6613
G3 X5.7438 Y3.9594 I0.0 J0.0825
G1 Y4.2624
G3 X5.6613 Y4.3449 I-0.0825 J0.0
G1 X5.0493
G3 X4.9668 Y4.2624 I0.0 J-0.0825
G1 Y3.9594
G3 X5.0493 Y3.8769 I0.0825 J0.0
G0 Z0.05
G0 X5.1622 Y3.8683
G1 F11.0 Z-0.02
G3 F60.0 X5.0493 Y3.8769 Z-0.04 I-0.113 J-0.7414
G1 X5.6613
G3 X5.7438 Y3.9594 I0.0 J0.0825
G1 Y4.2624
G3 X5.6613 Y4.3449 I-0.0825 J0.0
G1 X5.0493
G3 X4.9668 Y4.2624 I0.0 J-0.0825
G1 Y3.9594
G3 X5.0493 Y3.8769 I0.0825 J0.0
G0 Z0.05
M5
M30
