( Made using CamBam - http://www.cambam.co.uk )
( clampmount 5/8/2011 7:34:32 PM )
( T0 : 0.125 )
G20 G90 G64 G40
G0 Z0.25
( Slots-Rough )
G17
M3 S2000
G0 X1.83225 Y0.5355
G1 F40.0 Z0.0
G1 F75.0 X2.02 Z-0.0331
G2 Y0.4745 Z-0.05 I0.0 J-0.0305
G1 X0.27
G2 Y0.5355 I0.0 J0.0305
G1 X2.02
G2 Y0.4745 I0.0 J-0.0305
G1 F40.0 Y0.4695
G1 F75.0 X0.27
G2 Y0.5405 I0.0 J0.0355
G1 X2.02
G2 Y0.4695 I0.0 J-0.0355
G0 Z0.25
G0 X1.83225 Y0.5355
G1 F40.0 Z-0.05
G1 F75.0 X2.02 Z-0.0831
G2 Y0.4745 Z-0.1 I0.0 J-0.0305
G1 X0.27
G2 Y0.5355 I0.0 J0.0305
G1 X2.02
G2 Y0.4745 I0.0 J-0.0305
G1 F40.0 Y0.4695
G1 F75.0 X0.27
G2 Y0.5405 I0.0 J0.0355
G1 X2.02
G2 Y0.4695 I0.0 J-0.0355
G0 Z0.25
G0 X1.83225 Y0.5355
G1 F40.0 Z-0.1
G1 F75.0 X2.02 Z-0.1331
G2 Y0.4745 Z-0.15 I0.0 J-0.0305
G1 X0.27
G2 Y0.5355 I0.0 J0.0305
G1 X2.02
G2 Y0.4745 I0.0 J-0.0305
G1 F40.0 Y0.4695
G1 F75.0 X0.27
G2 Y0.5405 I0.0 J0.0355
G1 X2.02
G2 Y0.4695 I0.0 J-0.0355
G0 Z0.25
G0 X1.86061 Y0.5355
G1 F40.0 Z-0.15
G1 F75.0 X2.02 Z-0.1781
G2 Y0.4745 Z-0.195 I0.0 J-0.0305
G1 X0.27
G2 Y0.5355 I0.0 J0.0305
G1 X2.02
G2 Y0.4745 I0.0 J-0.0305
G1 F40.0 Y0.4695
G1 F75.0 X0.27
G2 Y0.5405 I0.0 J0.0355
G1 X2.02
G2 Y0.4695 I0.0 J-0.0355
G1 F40.0 X2.04444 Y0.48676
G2 F75.0 X2.02 Y0.4745 Z-0.2 I-0.02444 J0.01824
G1 X0.27
G2 Y0.5355 I0.0 J0.0305
G1 X2.02
G2 Y0.4745 I0.0 J-0.0305
G1 F40.0 Y0.4695
G1 F75.0 X0.27
G2 Y0.5405 I0.0 J0.0355
G1 X2.02
G2 Y0.4695 I0.0 J-0.0355
G0 Z0.25
G0 X3.25674 Y0.4745
G1 F40.0 Z0.0
G1 F75.0 X3.02 Z-0.04174
G2 X2.98952 Y0.50392 Z-0.05 I0.0 J0.0305
G2 X3.02 Y0.5355 I0.03048 J0.00108
G1 X4.77
G2 Y0.4745 I0.0 J-0.0305
G1 X3.02
G2 X2.98952 Y0.50392 I0.0 J0.0305
G1 F40.0 X2.98452 Y0.50374
G2 F75.0 X3.02 Y0.5405 I0.03548 J0.00126
G1 X4.77
G2 Y0.4695 I0.0 J-0.0355
G1 X3.02
G2 X2.98452 Y0.50374 I0.0 J0.0355
G0 Z0.25
G0 X3.25674 Y0.4745
G1 F40.0 Z-0.05
G1 F75.0 X3.02 Z-0.09174
G2 X2.98952 Y0.50392 Z-0.1 I0.0 J0.0305
G2 X3.02 Y0.5355 I0.03048 J0.00108
G1 X4.77
G2 Y0.4745 I0.0 J-0.0305
G1 X3.02
G2 X2.98952 Y0.50392 I0.0 J0.0305
G1 F40.0 X2.98452 Y0.50374
G2 F75.0 X3.02 Y0.5405 I0.03548 J0.00126
G1 X4.77
G2 Y0.4695 I0.0 J-0.0355
G1 X3.02
G2 X2.98452 Y0.50374 I0.0 J0.0355
G0 Z0.25
G0 X3.25674 Y0.4745
G1 F40.0 Z-0.1
G1 F75.0 X3.02 Z-0.14174
G2 X2.98952 Y0.50392 Z-0.15 I0.0 J0.0305
G2 X3.02 Y0.5355 I0.03048 J0.00108
G1 X4.77
G2 Y0.4745 I0.0 J-0.0305
G1 X3.02
G2 X2.98952 Y0.50392 I0.0 J0.0305
G1 F40.0 X2.98452 Y0.50374
G2 F75.0 X3.02 Y0.5405 I0.03548 J0.00126
G1 X4.77
G2 Y0.4695 I0.0 J-0.0355
G1 X3.02
G2 X2.98452 Y0.50374 I0.0 J0.0355
G0 Z0.25
G0 X3.22838 Y0.4745
G1 F40.0 Z-0.15
G1 F75.0 X3.02 Z-0.18674
G2 X2.98952 Y0.50392 Z-0.195 I0.0 J0.0305
G2 X3.02 Y0.5355 I0.03048 J0.00108
G1 X4.77
G2 Y0.4745 I0.0 J-0.0305
G1 X3.02
G2 X2.98952 Y0.50392 I0.0 J0.0305
G1 F40.0 X2.98452 Y0.50374
G2 F75.0 X3.02 Y0.5405 I0.03548 J0.00126
G1 X4.77
G2 Y0.4695 I0.0 J-0.0355
G1 X3.02
G2 X2.98452 Y0.50374 I0.0 J0.0355
G1 F40.0 X3.00264 Y0.47992
G2 F75.0 X2.98952 Y0.50392 Z-0.2 I0.01736 J0.02508
G2 X3.02 Y0.5355 I0.03048 J0.00108
G1 X4.77
G2 Y0.4745 I0.0 J-0.0305
G1 X3.02
G2 X2.98952 Y0.50392 I0.0 J0.0305
G1 F40.0 X2.98452 Y0.50374
G2 F75.0 X3.02 Y0.5405 I0.03548 J0.00126
G1 X4.77
G2 Y0.4695 I0.0 J-0.0355
G1 X3.02
G2 X2.98452 Y0.50374 I0.0 J0.0355
( Clamp Holes )
S2000
G0 Z0.25
G0 X2.2075 Y0.772
G83 Z-0.2 Q0.05 R0.25 F20.0
G83 Y0.238 Z-0.2 Q0.05 R0.25
G83 X2.8325 Z-0.2 Q0.05 R0.25
G83 Y0.772 Z-0.2 Q0.05 R0.25
G80
( Ends )
S2000
G0 X-0.0425 Y0.77815
G1 F40.0 Z0.0
G1 F75.0 Y1.005 Z-0.04
G1 Y0.005
G0 Z0.25
G0 Y0.77815
G1 F40.0 Z-0.04
G1 F75.0 Y1.005 Z-0.08
G1 Y0.005
G0 Z0.25
G0 Y0.77815
G1 F40.0 Z-0.08
G1 F75.0 Y1.005 Z-0.12
G1 Y0.005
G0 Z0.25
G0 Y0.77815
G1 F40.0 Z-0.12
G1 F75.0 Y1.005 Z-0.16
G1 Y0.005
G0 Z0.25
G0 Y0.83486
G1 F40.0 Z-0.16
G1 F75.0 Y1.005 Z-0.19
G1 Y0.005
G0 Z0.25
G0 Y0.94829
G1 F40.0 Z-0.19
G1 F75.0 Y1.005 Z-0.2
G1 Y0.005
G0 Z0.25
G0 X5.0825 Y0.23185
G1 F40.0 Z0.0
G1 F75.0 Y0.005 Z-0.04
G1 Y1.005
G0 Z0.25
G0 Y0.23185
G1 F40.0 Z-0.04
G1 F75.0 Y0.005 Z-0.08
G1 Y1.005
G0 Z0.25
G0 Y0.23185
G1 F40.0 Z-0.08
G1 F75.0 Y0.005 Z-0.12
G1 Y1.005
G0 Z0.25
G0 Y0.23185
G1 F40.0 Z-0.12
G1 F75.0 Y0.005 Z-0.16
G1 Y1.005
G0 Z0.25
G0 Y0.17514
G1 F40.0 Z-0.16
G1 F75.0 Y0.005 Z-0.19
G1 Y1.005
G0 Z0.25
G0 Y0.06171
G1 F40.0 Z-0.19
G1 F75.0 Y0.005 Z-0.2
G1 Y1.005
G0 Z0.25
M5
M30
