( Made using CamBam - http://www.cambam.co.uk )
( combinedparts 3/1/2011 6:21:01 PM )
( T0 : 0.125 )
G20 G90 G64 G40
G0 Z0.25
( T0 : 0.125 )
( T0 M6 )
( HoleCounterSinks )
G17
M3 S2000
G0 X1.02578 Y7.00857
G1 F75.0 Z0.0
G3 F120.0 X1.02805 Y7.02253 Z-0.00251 I-0.04173 J0.01396
G3 X0.96205 Y7.06064 Z-0.01875 I-0.044 J0.0
G3 Y6.98443 Z-0.035 I0.022 J-0.03811
G3 X1.02805 Y7.02253 Z-0.05125 I0.022 J0.03811
G3 X0.96205 Y7.06064 Z-0.0675 I-0.044 J0.0
G3 Y6.98443 Z-0.08375 I0.022 J-0.03811
G3 X1.02805 Y7.02253 Z-0.1 I0.022 J0.03811
G3 X0.96205 Y7.06064 I-0.044 J0.0
G3 Y6.98443 I0.022 J-0.03811
G3 X1.02805 Y7.02253 I0.022 J0.03811
G1 F75.0 X1.07805
G3 F120.0 X0.93705 Y7.10394 I-0.094 J0.0
G3 Y6.94113 I0.047 J-0.08141
G3 X1.07805 Y7.02253 I0.047 J0.08141
G0 Z0.25
G0 X0.52496 Y6.53872
G1 F75.0 Z0.0
G3 F120.0 X0.51771 Y6.55087 Z-0.00251 I-0.04091 J-0.01619
G3 X0.46205 Y6.56064 Z-0.01333 I-0.03366 J-0.02833
G3 Y6.48443 Z-0.02958 I0.022 J-0.03811
G3 X0.52805 Y6.52253 Z-0.04582 I0.022 J0.03811
G3 X0.51771 Y6.55087 Z-0.05125 I-0.044 J0.0
G3 X0.46205 Y6.56064 Z-0.06207 I-0.03366 J-0.02833
G3 Y6.48443 Z-0.07832 I0.022 J-0.03811
G3 X0.52805 Y6.52253 Z-0.09457 I0.022 J0.03811
G3 X0.51771 Y6.55087 Z-0.1 I-0.044 J0.0
G3 X0.46205 Y6.56064 I-0.03366 J-0.02833
G3 Y6.48443 I0.022 J-0.03811
G3 X0.52805 Y6.52253 I0.022 J0.03811
G3 X0.51771 Y6.55087 I-0.044 J0.0
G1 F75.0 X0.55596 Y6.58307
G3 F120.0 X0.43705 Y6.60394 I-0.07191 J-0.06053
G3 Y6.44113 I0.047 J-0.08141
G3 X0.57805 Y6.52253 I0.047 J0.08141
G3 X0.55596 Y6.58307 I-0.094 J0.0
G0 Z0.25
G0 X0.73939 Y4.91926
G1 F75.0 Z0.0
G3 F120.0 X0.72527 Y4.92011 Z-0.00251 I-0.00966 J-0.04293
G3 X0.70772 Y4.91444 Z-0.00578 I0.00446 J-0.04377
G3 Y4.83823 Z-0.02203 I0.022 J-0.03811
G3 X0.77372 Y4.87634 Z-0.03828 I0.022 J0.03811
G3 X0.72527 Y4.92011 Z-0.05125 I-0.044 J0.0
G3 X0.70772 Y4.91444 Z-0.05453 I0.00446 J-0.04377
G3 Y4.83823 Z-0.07078 I0.022 J-0.03811
G3 X0.77372 Y4.87634 Z-0.08703 I0.022 J0.03811
G3 X0.72527 Y4.92011 Z-0.1 I-0.044 J0.0
G3 X0.70772 Y4.91444 I0.00446 J-0.04377
G3 Y4.83823 I0.022 J-0.03811
G3 X0.77372 Y4.87634 I0.022 J0.03811
G3 X0.72527 Y4.92011 I-0.044 J0.0
G1 F75.0 X0.7202 Y4.96985
G3 F120.0 X0.68272 Y4.95774 I0.00952 J-0.09352
G3 Y4.79493 I0.047 J-0.08141
G3 X0.82372 Y4.87634 I0.047 J0.08141
G3 X0.7202 Y4.96985 I-0.094 J0.0
G0 Z0.25
G0 X0.74357 Y1.6681
G1 F75.0 Z0.0
G3 F120.0 X0.7296 Y1.67034 Z-0.00251 I-0.01384 J-0.04177
G3 X0.70772 Y1.66444 Z-0.00655 I0.00013 J-0.044
G3 Y1.58823 Z-0.02279 I0.022 J-0.03811
G3 X0.77372 Y1.62634 Z-0.03904 I0.022 J0.03811
G3 X0.7296 Y1.67034 Z-0.05125 I-0.044 J0.0
G3 X0.70772 Y1.66444 Z-0.05529 I0.00013 J-0.044
G3 Y1.58823 Z-0.07154 I0.022 J-0.03811
G3 X0.77372 Y1.62634 Z-0.08779 I0.022 J0.03811
G3 X0.7296 Y1.67034 Z-0.1 I-0.044 J0.0
G3 X0.70772 Y1.66444 I0.00013 J-0.044
G3 Y1.58823 I0.022 J-0.03811
G3 X0.77372 Y1.62634 I0.022 J0.03811
G3 X0.7296 Y1.67034 I-0.044 J0.0
G1 F75.0 X0.72945 Y1.72034
G3 F120.0 X0.68272 Y1.70774 I0.00027 J-0.094
G3 Y1.54493 I0.047 J-0.08141
G3 X0.82372 Y1.62634 I0.047 J0.08141
G3 X0.72945 Y1.72034 I-0.094 J0.0
G0 Z0.25
G0 X15.68808 Y1.64056
G1 F75.0 Z0.0
G3 F120.0 X15.68572 Y1.62661 Z-0.00251 I0.04164 J-0.01422
G3 X15.70772 Y1.58823 Z-0.01068 I0.044 J-0.00028
G3 X15.77372 Y1.62634 Z-0.02693 I0.022 J0.03811
G3 X15.70772 Y1.66444 Z-0.04318 I-0.044 J0.0
G3 X15.68572 Y1.62661 Z-0.05125 I0.022 J-0.03811
G3 X15.70772 Y1.58823 Z-0.05943 I0.044 J-0.00028
G3 X15.77372 Y1.62634 Z-0.07567 I0.022 J0.03811
G3 X15.70772 Y1.66444 Z-0.09192 I-0.044 J0.0
G3 X15.68572 Y1.62661 Z-0.1 I0.022 J-0.03811
G3 X15.70772 Y1.58823 I0.044 J-0.00028
G3 X15.77372 Y1.62634 I0.022 J0.03811
G3 X15.70772 Y1.66444 I-0.044 J0.0
G3 X15.68572 Y1.62661 I0.022 J-0.03811
G1 F75.0 X15.63572 Y1.62693
G3 F120.0 X15.68272 Y1.54493 I0.094 J-0.00059
G3 X15.82372 Y1.62634 I0.047 J0.08141
G3 X15.68272 Y1.70774 I-0.094 J0.0
G3 X15.63572 Y1.62693 I0.047 J-0.08141
G0 Z0.25
G0 X15.71456 Y4.83503
G1 F75.0 Z0.0
G3 F120.0 X15.72845 Y4.83236 Z-0.00251 I0.01516 J0.0413
G3 X15.77372 Y4.87634 Z-0.01492 I0.00127 J0.04398
G3 X15.70772 Y4.91444 Z-0.03117 I-0.044 J0.0
G3 Y4.83823 Z-0.04741 I0.022 J-0.03811
G3 X15.72845 Y4.83236 Z-0.05125 I0.022 J0.03811
G3 X15.77372 Y4.87634 Z-0.06366 I0.00127 J0.04398
G3 X15.70772 Y4.91444 Z-0.07991 I-0.044 J0.0
G3 Y4.83823 Z-0.09616 I0.022 J-0.03811
G3 X15.72845 Y4.83236 Z-0.1 I0.022 J0.03811
G3 X15.77372 Y4.87634 I0.00127 J0.04398
G3 X15.70772 Y4.91444 I-0.044 J0.0
G3 Y4.83823 I0.022 J-0.03811
G3 X15.72845 Y4.83236 I0.022 J0.03811
G1 F75.0 X15.727 Y4.78238
G3 F120.0 X15.82372 Y4.87634 I0.00272 J0.09396
G3 X15.68272 Y4.95774 I-0.094 J0.0
G3 Y4.79493 I0.047 J-0.08141
G3 X15.727 Y4.78238 I0.047 J0.08141
G0 Z0.25
G0 X15.96414 Y6.4833
G1 F75.0 Z0.0
G3 F120.0 X15.97762 Y6.47901 Z-0.00251 I0.01991 J0.03924
G3 X16.02805 Y6.52253 Z-0.01583 I0.00643 J0.04353
G3 X15.96205 Y6.56064 Z-0.03208 I-0.044 J0.0
G3 Y6.48443 Z-0.04833 I0.022 J-0.03811
G3 X15.97762 Y6.47901 Z-0.05125 I0.022 J0.03811
G3 X16.02805 Y6.52253 Z-0.06458 I0.00643 J0.04353
G3 X15.96205 Y6.56064 Z-0.08083 I-0.044 J0.0
G3 Y6.48443 Z-0.09708 I0.022 J-0.03811
G3 X15.97762 Y6.47901 Z-0.1 I0.022 J0.03811
G3 X16.02805 Y6.52253 I0.00643 J0.04353
G3 X15.96205 Y6.56064 I-0.044 J0.0
G3 Y6.48443 I0.022 J-0.03811
G3 X15.97762 Y6.47901 I0.022 J0.03811
G1 F75.0 X15.97031 Y6.42954
G3 F120.0 X16.07805 Y6.52253 I0.01374 J0.09299
G3 X15.93705 Y6.60394 I-0.094 J0.0
G3 Y6.44113 I0.047 J-0.08141
G3 X15.97031 Y6.42954 I0.047 J0.08141
G0 Z0.25
G0 X15.49971 Y6.98142
G1 F75.0 Z0.0
G3 F120.0 X15.51195 Y6.98851 Z-0.00251 I-0.01566 J0.04112
G3 X15.52805 Y7.02253 Z-0.00936 I-0.0279 J0.03402
G3 X15.46205 Y7.06064 Z-0.02561 I-0.044 J0.0
G3 Y6.98443 Z-0.04186 I0.022 J-0.03811
G3 X15.51195 Y6.98851 Z-0.05125 I0.022 J0.03811
G3 X15.52805 Y7.02253 Z-0.05811 I-0.0279 J0.03402
G3 X15.46205 Y7.06064 Z-0.07436 I-0.044 J0.0
G3 Y6.98443 Z-0.09061 I0.022 J-0.03811
G3 X15.51195 Y6.98851 Z-0.1 I0.022 J0.03811
G3 X15.52805 Y7.02253 I-0.0279 J0.03402
G3 X15.46205 Y7.06064 I-0.044 J0.0
G3 Y6.98443 I0.022 J-0.03811
G3 X15.51195 Y6.98851 I0.022 J0.03811
G1 F75.0 X15.54365 Y6.94985
G3 F120.0 X15.57805 Y7.02253 I-0.0596 J0.07269
G3 X15.43705 Y7.10394 I-0.094 J0.0
G3 Y6.94113 I0.047 J-0.08141
G3 X15.54365 Y6.94985 I0.047 J0.08141
G0 Z0.25
G0 X15.50599 Y7.06067
G1 F75.0 Z-0.1
G3 F120.0 X15.46205 Y7.06064 Z-0.10811 I-0.02194 J-0.03814
G3 Y6.98443 Z-0.12436 I0.022 J-0.03811
G3 X15.51195 Y6.98851 Z-0.13375 I0.022 J0.03811
G3 X15.52805 Y7.02253 Z-0.14061 I-0.0279 J0.03402
G3 X15.46205 Y7.06064 Z-0.15686 I-0.044 J0.0
G3 Y6.98443 Z-0.17311 I0.022 J-0.03811
G3 X15.51195 Y6.98851 Z-0.1825 I0.022 J0.03811
G3 X15.52805 Y7.02253 I-0.0279 J0.03402
G3 X15.46205 Y7.06064 I-0.044 J0.0
G3 Y6.98443 I0.022 J-0.03811
G3 X15.51195 Y6.98851 I0.022 J0.03811
G1 F75.0 X15.54365 Y6.94985
G3 F120.0 X15.57805 Y7.02253 I-0.0596 J0.07269
G3 X15.43705 Y7.10394 I-0.094 J0.0
G3 Y6.94113 I0.047 J-0.08141
G3 X15.54365 Y6.94985 I0.047 J0.08141
G0 Z0.25
G0 X15.96658 Y6.48215
G1 F75.0 Z-0.1
G3 F120.0 X16.02805 Y6.52253 Z-0.11536 I0.01747 J0.04038
G3 X15.96205 Y6.56064 Z-0.1316 I-0.044 J0.0
G3 X15.95247 Y6.55317 Z-0.13375 I0.022 J-0.03811
G3 X15.96205 Y6.48443 Z-0.14785 I0.03158 J-0.03064
G3 X16.02805 Y6.52253 Z-0.1641 I0.022 J0.03811
G3 X15.96205 Y6.56064 Z-0.18035 I-0.044 J0.0
G3 X15.95247 Y6.55317 Z-0.1825 I0.022 J-0.03811
G3 X15.96205 Y6.48443 I0.03158 J-0.03064
G3 X16.02805 Y6.52253 I0.022 J0.03811
G3 X15.96205 Y6.56064 I-0.044 J0.0
G3 X15.95247 Y6.55317 I0.022 J-0.03811
G1 F75.0 X15.91659 Y6.58799
G3 F120.0 X15.93705 Y6.44113 I0.06746 J-0.06546
G3 X16.07805 Y6.52253 I0.047 J0.08141
G3 X15.93705 Y6.60394 I-0.094 J0.0
G3 X15.91659 Y6.58799 I0.047 J-0.08141
G0 Z0.25
G0 X15.68713 Y4.86532
G1 F75.0 Z-0.1
G3 F120.0 X15.70772 Y4.83823 Z-0.10616 I0.0426 J0.01102
G3 X15.77372 Y4.87634 Z-0.12241 I0.022 J0.03811
G3 X15.7345 Y4.92008 Z-0.13375 I-0.044 J0.0
G3 X15.70772 Y4.91444 Z-0.13866 I-0.00478 J-0.04374
G3 Y4.83823 Z-0.15491 I0.022 J-0.03811
G3 X15.77372 Y4.87634 Z-0.17116 I0.022 J0.03811
G3 X15.7345 Y4.92008 Z-0.1825 I-0.044 J0.0
G3 X15.70772 Y4.91444 I-0.00478 J-0.04374
G3 Y4.83823 I0.022 J-0.03811
G3 X15.77372 Y4.87634 I0.022 J0.03811
G3 X15.7345 Y4.92008 I-0.044 J0.0
G1 F75.0 X15.73992 Y4.96978
G3 F120.0 X15.68272 Y4.95774 I-0.0102 J-0.09344
G3 Y4.79493 I0.047 J-0.08141
G3 X15.82372 Y4.87634 I0.047 J0.08141
G3 X15.73992 Y4.96978 I-0.094 J0.0
G0 Z0.25
G0 X15.68853 Y1.61088
G1 F75.0 Z-0.1
G3 F120.0 X15.70772 Y1.58823 Z-0.10534 I0.0412 J0.01545
G3 X15.77372 Y1.62634 Z-0.12159 I0.022 J0.03811
G3 X15.72986 Y1.67034 Z-0.13375 I-0.044 J0.0
G3 X15.70772 Y1.66444 Z-0.13784 I-0.00013 J-0.044
G3 Y1.58823 Z-0.15409 I0.022 J-0.03811
G3 X15.77372 Y1.62634 Z-0.17034 I0.022 J0.03811
G3 X15.72986 Y1.67034 Z-0.1825 I-0.044 J0.0
G3 X15.70772 Y1.66444 I-0.00013 J-0.044
G3 Y1.58823 I0.022 J-0.03811
G3 X15.77372 Y1.62634 I0.022 J0.03811
G3 X15.72986 Y1.67034 I-0.044 J0.0
G1 F75.0 X15.73001 Y1.72034
G3 F120.0 X15.68272 Y1.70774 I-0.00029 J-0.094
G3 Y1.54493 I0.047 J-0.08141
G3 X15.82372 Y1.62634 I0.047 J0.08141
G3 X15.73001 Y1.72034 I-0.094 J0.0
G0 Z0.25
G0 X0.71389 Y1.66739
G1 F75.0 Z-0.1
G3 F120.0 X0.70772 Y1.66444 Z-0.10121 I0.01584 J-0.04105
G3 Y1.58823 Z-0.11745 I0.022 J-0.03811
G3 X0.77372 Y1.62634 Z-0.1337 I0.022 J0.03811
G1 Y1.62661 Z-0.13375
G3 X0.70772 Y1.66444 Z-0.14995 I-0.044 J-0.00028
G3 Y1.58823 Z-0.1662 I0.022 J-0.03811
G3 X0.77372 Y1.62634 Z-0.18245 I0.022 J0.03811
G1 Y1.62661 Z-0.1825
G3 X0.70772 Y1.66444 I-0.044 J-0.00028
G3 Y1.58823 I0.022 J-0.03811
G3 X0.77372 Y1.62634 I0.022 J0.03811
G3 Y1.62661 I-0.044 J0.0
G1 F75.0 X0.82372 Y1.62693
G3 F120.0 X0.68272 Y1.70774 I-0.094 J-0.00059
G3 Y1.54493 I0.047 J-0.08141
G3 X0.82372 Y1.62634 I0.047 J0.08141
G3 Y1.62693 I-0.094 J0.0
G0 Z0.25
G0 X0.7704 Y4.8931
G1 F75.0 Z-0.1
G3 F120.0 X0.70772 Y4.91444 Z-0.11322 I-0.04068 J-0.01676
G3 Y4.83823 Z-0.12947 I0.022 J-0.03811
G3 X0.73099 Y4.83236 Z-0.13375 I0.022 J0.03811
G3 X0.77372 Y4.87634 Z-0.14572 I-0.00127 J0.04398
G3 X0.70772 Y4.91444 Z-0.16196 I-0.044 J0.0
G3 Y4.83823 Z-0.17821 I0.022 J-0.03811
G3 X0.73099 Y4.83236 Z-0.1825 I0.022 J0.03811
G3 X0.77372 Y4.87634 I-0.00127 J0.04398
G3 X0.70772 Y4.91444 I-0.044 J0.0
G3 Y4.83823 I0.022 J-0.03811
G3 X0.73099 Y4.83236 I0.022 J0.03811
G1 F75.0 X0.73244 Y4.78238
G3 F120.0 X0.82372 Y4.87634 I-0.00272 J0.09396
G3 X0.68272 Y4.95774 I-0.094 J0.0
G3 Y4.79493 I0.047 J-0.08141
G3 X0.73244 Y4.78238 I0.047 J0.08141
G0 Z0.25
G0 X0.52259 Y6.54377
G1 F75.0 Z-0.1
G3 F120.0 X0.46205 Y6.56064 Z-0.11234 I-0.03854 J-0.02124
G3 Y6.48443 Z-0.12859 I0.022 J-0.03811
G3 X0.49027 Y6.47898 Z-0.13375 I0.022 J0.03811
G3 X0.52805 Y6.52253 Z-0.14484 I-0.00622 J0.04356
G3 X0.46205 Y6.56064 Z-0.16109 I-0.044 J0.0
G3 Y6.48443 Z-0.17734 I0.022 J-0.03811
G3 X0.49027 Y6.47898 Z-0.1825 I0.022 J0.03811
G3 X0.52805 Y6.52253 I-0.00622 J0.04356
G3 X0.46205 Y6.56064 I-0.044 J0.0
G3 Y6.48443 I0.022 J-0.03811
G3 X0.49027 Y6.47898 I0.022 J0.03811
G1 F75.0 X0.49733 Y6.42948
G3 F120.0 X0.57805 Y6.52253 I-0.01328 J0.09306
G3 X0.43705 Y6.60394 I-0.094 J0.0
G3 Y6.44113 I0.047 J-0.08141
G3 X0.49733 Y6.42948 I0.047 J0.08141
G0 Z0.25
G0 X1.02574 Y7.00847
G1 F75.0 Z-0.1
G3 F120.0 X1.02805 Y7.02253 Z-0.10252 I-0.04169 J0.01406
G3 X0.96205 Y7.06064 Z-0.11877 I-0.044 J0.0
G3 X0.95614 Y6.98852 Z-0.13375 I0.022 J-0.03811
G3 X0.96205 Y6.98443 Z-0.13502 I0.02791 J0.03401
G3 X1.02805 Y7.02253 Z-0.15127 I0.022 J0.03811
G3 X0.96205 Y7.06064 Z-0.16752 I-0.044 J0.0
G3 X0.95614 Y6.98852 Z-0.1825 I0.022 J-0.03811
G3 X0.96205 Y6.98443 I0.02791 J0.03401
G3 X1.02805 Y7.02253 I0.022 J0.03811
G3 X0.96205 Y7.06064 I-0.044 J0.0
G3 X0.95614 Y6.98852 I0.022 J-0.03811
G1 F75.0 X0.92442 Y6.94987
G3 F120.0 X0.93705 Y6.94113 I0.05963 J0.07266
G3 X1.07805 Y7.02253 I0.047 J0.08141
G3 X0.93705 Y7.10394 I-0.094 J0.0
G3 X0.92442 Y6.94987 I0.047 J-0.08141
G1 F75.0 X0.9413 Y7.01211
G3 F120.0 X0.95614 Y6.98852 Z-0.1875 I0.04275 J0.01042
G3 X0.96205 Y6.98443 I0.02791 J0.03401
G3 X1.02805 Y7.02253 I0.022 J0.03811
G3 X0.96205 Y7.06064 I-0.044 J0.0
G3 X0.95614 Y6.98852 I0.022 J-0.03811
G1 F75.0 X0.92442 Y6.94987
G3 F120.0 X0.93705 Y6.94113 I0.05963 J0.07266
G3 X1.07805 Y7.02253 I0.047 J0.08141
G3 X0.93705 Y7.10394 I-0.094 J0.0
G3 X0.92442 Y6.94987 I0.047 J-0.08141
G0 Z0.25
G0 X0.5277 Y6.52806
G1 F75.0 Z-0.1825
G3 F120.0 X0.51563 Y6.55318 Z-0.1875 I-0.04365 J-0.00553
G3 X0.46205 Y6.56064 I-0.03158 J-0.03064
G3 Y6.48443 I0.022 J-0.03811
G3 X0.52805 Y6.52253 I0.022 J0.03811
G3 X0.51563 Y6.55318 I-0.044 J0.0
G1 F75.0 X0.55151 Y6.588
G3 F120.0 X0.43705 Y6.60394 I-0.06746 J-0.06546
G3 Y6.44113 I0.047 J-0.08141
G3 X0.57805 Y6.52253 I0.047 J0.08141
G3 X0.55151 Y6.588 I-0.094 J0.0
G0 Z0.25
G0 X0.75237 Y4.91406
G1 F75.0 Z-0.1825
G3 F120.0 X0.72517 Y4.9201 Z-0.1875 I-0.02265 J-0.03772
G3 X0.70772 Y4.91444 I0.00456 J-0.04376
G3 Y4.83823 I0.022 J-0.03811
G3 X0.77372 Y4.87634 I0.022 J0.03811
G3 X0.72517 Y4.9201 I-0.044 J0.0
G1 F75.0 X0.71999 Y4.96983
G3 F120.0 X0.68272 Y4.95774 I0.00973 J-0.09349
G3 Y4.79493 I0.047 J-0.08141
G3 X0.82372 Y4.87634 I0.047 J0.08141
G3 X0.71999 Y4.96983 I-0.094 J0.0
G0 Z0.25
G0 X0.75605 Y1.66159
G1 F75.0 Z-0.1825
G3 F120.0 X0.72959 Y1.67034 Z-0.1875 I-0.02633 J-0.03525
G3 X0.70772 Y1.66444 I0.00013 J-0.044
G3 Y1.58823 I0.022 J-0.03811
G3 X0.77372 Y1.62634 I0.022 J0.03811
G3 X0.72959 Y1.67034 I-0.044 J0.0
G1 F75.0 X0.72945 Y1.72034
G3 F120.0 X0.68272 Y1.70774 I0.00027 J-0.094
G3 Y1.54493 I0.047 J-0.08141
G3 X0.82372 Y1.62634 I0.047 J0.08141
G3 X0.72945 Y1.72034 I-0.094 J0.0
G0 Z0.25
G0 X15.69471 Y1.65299
G1 F75.0 Z-0.1825
G3 F120.0 X15.68572 Y1.62661 Z-0.1875 I0.03501 J-0.02665
G3 X15.70772 Y1.58823 I0.044 J-0.00028
G3 X15.77372 Y1.62634 I0.022 J0.03811
G3 X15.70772 Y1.66444 I-0.044 J0.0
G3 X15.68572 Y1.62661 I0.022 J-0.03811
G1 F75.0 X15.63572 Y1.62693
G3 F120.0 X15.68272 Y1.54493 I0.094 J-0.00059
G3 X15.82372 Y1.62634 I0.047 J0.08141
G3 X15.68272 Y1.70774 I-0.094 J0.0
G3 X15.63572 Y1.62693 I0.047 J-0.08141
G0 Z0.25
G0 X15.70228 Y4.84194
G1 F75.0 Z-0.1825
G3 F120.0 X15.70772 Y4.83823 Z-0.18366 I0.02744 J0.0344
G3 X15.72845 Y4.83236 Z-0.1875 I0.022 J0.03811
G3 X15.77372 Y4.87634 I0.00127 J0.04398
G3 X15.70772 Y4.91444 I-0.044 J0.0
G3 Y4.83823 I0.022 J-0.03811
G3 X15.72845 Y4.83236 I0.022 J0.03811
G1 F75.0 X15.727 Y4.78238
G3 F120.0 X15.82372 Y4.87634 I0.00272 J0.09396
G3 X15.68272 Y4.95774 I-0.094 J0.0
G3 Y4.79493 I0.047 J-0.08141
G3 X15.727 Y4.78238 I0.047 J0.08141
G0 Z0.25
G0 X15.95276 Y6.4916
G1 F75.0 Z-0.1825
G3 F120.0 X15.96205 Y6.48443 Z-0.18458 I0.03129 J0.03093
G3 X15.97762 Y6.47901 Z-0.1875 I0.022 J0.03811
G3 X16.02805 Y6.52253 I0.00643 J0.04353
G3 X15.96205 Y6.56064 I-0.044 J0.0
G3 Y6.48443 I0.022 J-0.03811
G3 X15.97762 Y6.47901 I0.022 J0.03811
G1 F75.0 X15.97031 Y6.42954
G3 F120.0 X16.07805 Y6.52253 I0.01374 J0.09299
G3 X15.93705 Y6.60394 I-0.094 J0.0
G3 Y6.44113 I0.047 J-0.08141
G3 X15.97031 Y6.42954 I0.047 J0.08141
G0 Z0.25
G0 X15.48591 Y6.97857
G1 F75.0 Z-0.1825
G3 F120.0 X15.51195 Y6.98851 Z-0.1875 I-0.00186 J0.04396
G3 X15.52805 Y7.02253 I-0.0279 J0.03402
G3 X15.46205 Y7.06064 I-0.044 J0.0
G3 Y6.98443 I0.022 J-0.03811
G3 X15.51195 Y6.98851 I0.022 J0.03811
G1 F75.0 X15.54365 Y6.94985
G3 F120.0 X15.57805 Y7.02253 I-0.0596 J0.07269
G3 X15.43705 Y7.10394 I-0.094 J0.0
G3 Y6.94113 I0.047 J-0.08141
G3 X15.54365 Y6.94985 I0.047 J0.08141
( HolesThru )
S2000
G0 Z0.25
G0 X0.96483 Y7.03852
G1 F75.0 Z0.0
G3 F120.0 X0.97155 Y7.00088 Z-0.00768 I0.01922 J-0.01599
G3 X1.00905 Y7.02253 Z-0.01691 I0.0125 J0.02165
G3 X0.97155 Y7.04419 Z-0.02614 I-0.025 J0.0
G3 Y7.00088 Z-0.03537 I0.0125 J-0.02165
G3 X1.00905 Y7.02253 Z-0.04461 I0.0125 J0.02165
G3 X0.97155 Y7.04419 Z-0.05384 I-0.025 J0.0
G3 Y7.00088 Z-0.06307 I0.0125 J-0.02165
G3 X1.00905 Y7.02253 Z-0.0723 I0.0125 J0.02165
G3 X0.97155 Y7.04419 Z-0.08154 I-0.025 J0.0
G3 Y7.00088 Z-0.09077 I0.0125 J-0.02165
G3 X1.00905 Y7.02253 Z-0.1 I0.0125 J0.02165
G3 X0.97155 Y7.04419 I-0.025 J0.0
G3 Y7.00088 I0.0125 J-0.02165
G3 X1.00905 Y7.02253 I0.0125 J0.02165
G0 Z0.25
G0 X0.45911 Y6.52086
G1 F75.0 Z0.0
G3 F120.0 X0.47155 Y6.50088 Z-0.00432 I0.02494 J0.00167
G3 X0.50905 Y6.52253 Z-0.01355 I0.0125 J0.02165
G3 X0.50215 Y6.53978 Z-0.01691 I-0.025 J0.0
G3 X0.47155 Y6.54419 Z-0.02279 I-0.0181 J-0.01724
G3 Y6.50088 Z-0.03202 I0.0125 J-0.02165
G3 X0.50905 Y6.52253 Z-0.04125 I0.0125 J0.02165
G3 X0.50215 Y6.53978 Z-0.04461 I-0.025 J0.0
G3 X0.47155 Y6.54419 Z-0.05048 I-0.0181 J-0.01724
G3 Y6.50088 Z-0.05972 I0.0125 J-0.02165
G3 X0.50905 Y6.52253 Z-0.06895 I0.0125 J0.02165
G3 X0.50215 Y6.53978 Z-0.0723 I-0.025 J0.0
G3 X0.47155 Y6.54419 Z-0.07818 I-0.0181 J-0.01724
G3 Y6.50088 Z-0.08741 I0.0125 J-0.02165
G3 X0.50905 Y6.52253 Z-0.09665 I0.0125 J0.02165
G3 X0.50215 Y6.53978 Z-0.1 I-0.025 J0.0
G3 X0.47155 Y6.54419 I-0.0181 J-0.01724
G3 Y6.50088 I0.0125 J-0.02165
G3 X0.50905 Y6.52253 I0.0125 J0.02165
G3 X0.50215 Y6.53978 I-0.025 J0.0
G0 Z0.25
G0 X0.70883 Y4.86354
G1 F75.0 Z0.0
G3 F120.0 X0.71747 Y4.85512 Z-0.00215 I0.02089 J0.0128
G3 X0.75422 Y4.87634 Z-0.0112 I0.01225 J0.02122
G3 X0.7264 Y4.90061 Z-0.01857 I-0.0245 J0.0
G3 X0.71747 Y4.89756 Z-0.02024 I0.00332 J-0.02427
G3 Y4.85512 Z-0.02929 I0.01225 J-0.02122
G3 X0.75422 Y4.87634 Z-0.03834 I0.01225 J0.02122
G3 X0.7264 Y4.90061 Z-0.04571 I-0.0245 J0.0
G3 X0.71747 Y4.89756 Z-0.04739 I0.00332 J-0.02427
G3 Y4.85512 Z-0.05644 I0.01225 J-0.02122
G3 X0.75422 Y4.87634 Z-0.06548 I0.01225 J0.02122
G3 X0.7264 Y4.90061 Z-0.07286 I-0.0245 J0.0
G3 X0.71747 Y4.89756 Z-0.07453 I0.00332 J-0.02427
G3 Y4.85512 Z-0.08358 I0.01225 J-0.02122
G3 X0.75422 Y4.87634 Z-0.09263 I0.01225 J0.02122
G3 X0.7264 Y4.90061 Z-0.1 I-0.0245 J0.0
G3 X0.71747 Y4.89756 I0.00332 J-0.02427
G3 Y4.85512 I0.01225 J-0.02122
G3 X0.75422 Y4.87634 I0.01225 J0.02122
G3 X0.7264 Y4.90061 I-0.0245 J0.0
G0 Z0.25
G0 X0.7073 Y1.61646
G1 F75.0 Z0.0
G3 F120.0 X0.71747 Y1.60512 Z-0.00273 I0.02242 J0.00988
G3 X0.75422 Y1.62634 Z-0.01178 I0.01225 J0.02122
G3 X0.7297 Y1.65084 Z-0.01857 I-0.0245 J0.0
G3 X0.71747 Y1.64756 Z-0.02083 I0.00002 J-0.0245
G3 Y1.60512 Z-0.02988 I0.01225 J-0.02122
G3 X0.75422 Y1.62634 Z-0.03892 I0.01225 J0.02122
G3 X0.7297 Y1.65084 Z-0.04571 I-0.0245 J0.0
G3 X0.71747 Y1.64756 Z-0.04797 I0.00002 J-0.0245
G3 Y1.60512 Z-0.05702 I0.01225 J-0.02122
G3 X0.75422 Y1.62634 Z-0.06607 I0.01225 J0.02122
G3 X0.7297 Y1.65084 Z-0.07286 I-0.0245 J0.0
G3 X0.71747 Y1.64756 Z-0.07511 I0.00002 J-0.0245
G3 Y1.60512 Z-0.08416 I0.01225 J-0.02122
G3 X0.75422 Y1.62634 Z-0.09321 I0.01225 J0.02122
G3 X0.7297 Y1.65084 Z-0.1 I-0.0245 J0.0
G3 X0.71747 Y1.64756 I0.00002 J-0.0245
G3 Y1.60512 I0.01225 J-0.02122
G3 X0.75422 Y1.62634 I0.01225 J0.02122
G3 X0.7297 Y1.65084 I-0.0245 J0.0
G0 Z0.25
G0 X15.74891 Y1.61032
G1 F75.0 Z0.0
G3 F120.0 X15.75472 Y1.62634 Z-0.00307 I-0.01919 J0.01602
G3 X15.71722 Y1.64799 Z-0.0123 I-0.025 J0.0
G3 X15.70472 Y1.62638 Z-0.01691 I0.0125 J-0.02165
G3 X15.71722 Y1.60469 Z-0.02153 I0.025 J-0.00004
G3 X15.75472 Y1.62634 Z-0.03076 I0.0125 J0.02165
G3 X15.71722 Y1.64799 Z-0.04 I-0.025 J0.0
G3 X15.70472 Y1.62638 Z-0.04461 I0.0125 J-0.02165
G3 X15.71722 Y1.60469 Z-0.04923 I0.025 J-0.00004
G3 X15.75472 Y1.62634 Z-0.05846 I0.0125 J0.02165
G3 X15.71722 Y1.64799 Z-0.06769 I-0.025 J0.0
G3 X15.70472 Y1.62638 Z-0.0723 I0.0125 J-0.02165
G3 X15.71722 Y1.60469 Z-0.07693 I0.025 J-0.00004
G3 X15.75472 Y1.62634 Z-0.08616 I0.0125 J0.02165
G3 X15.71722 Y1.64799 Z-0.09539 I-0.025 J0.0
G3 X15.70472 Y1.62638 Z-0.1 I0.0125 J-0.02165
G3 X15.71722 Y1.60469 I0.025 J-0.00004
G3 X15.75472 Y1.62634 I0.0125 J0.02165
G3 X15.71722 Y1.64799 I-0.025 J0.0
G3 X15.70472 Y1.62638 I0.0125 J-0.02165
G0 Z0.25
G0 X15.74586 Y4.89543
G1 F75.0 Z0.0
G3 F120.0 X15.71722 Y4.89799 Z-0.0054 I-0.01614 J-0.01909
G3 Y4.85469 Z-0.01463 I0.0125 J-0.02165
G3 X15.72953 Y4.85134 Z-0.01691 I0.0125 J0.02165
G3 X15.75472 Y4.87634 Z-0.02387 I0.00019 J0.025
G3 X15.71722 Y4.89799 Z-0.0331 I-0.025 J0.0
G3 Y4.85469 Z-0.04233 I0.0125 J-0.02165
G3 X15.72953 Y4.85134 Z-0.04461 I0.0125 J0.02165
G3 X15.75472 Y4.87634 Z-0.05156 I0.00019 J0.025
G3 X15.71722 Y4.89799 Z-0.0608 I-0.025 J0.0
G3 Y4.85469 Z-0.07003 I0.0125 J-0.02165
G3 X15.72953 Y4.85134 Z-0.0723 I0.0125 J0.02165
G3 X15.75472 Y4.87634 Z-0.07926 I0.00019 J0.025
G3 X15.71722 Y4.89799 Z-0.08849 I-0.025 J0.0
G3 Y4.85469 Z-0.09773 I0.0125 J-0.02165
G3 X15.72953 Y4.85134 Z-0.1 I0.0125 J0.02165
G3 X15.75472 Y4.87634 I0.00019 J0.025
G3 X15.71722 Y4.89799 I-0.025 J0.0
G3 Y4.85469 I0.0125 J-0.02165
G3 X15.72953 Y4.85134 I0.0125 J0.02165
G0 Z0.25
G0 X16.00275 Y6.53913
G1 F75.0 Z0.0
G3 F120.0 X15.97155 Y6.54419 Z-0.00603 I-0.0187 J-0.01659
G3 Y6.50088 Z-0.01527 I0.0125 J-0.02165
G3 X15.98029 Y6.49782 Z-0.01691 I0.0125 J0.02165
G3 X16.00905 Y6.52253 Z-0.0245 I0.00376 J0.02472
G3 X15.97155 Y6.54419 Z-0.03373 I-0.025 J0.0
G3 Y6.50088 Z-0.04296 I0.0125 J-0.02165
G3 X15.98029 Y6.49782 Z-0.04461 I0.0125 J0.02165
G3 X16.00905 Y6.52253 Z-0.0522 I0.00376 J0.02472
G3 X15.97155 Y6.54419 Z-0.06143 I-0.025 J0.0
G3 Y6.50088 Z-0.07066 I0.0125 J-0.02165
G3 X15.98029 Y6.49782 Z-0.0723 I0.0125 J0.02165
G3 X16.00905 Y6.52253 Z-0.07989 I0.00376 J0.02472
G3 X15.97155 Y6.54419 Z-0.08913 I-0.025 J0.0
G3 Y6.50088 Z-0.09836 I0.0125 J-0.02165
G3 X15.98029 Y6.49782 Z-0.1 I0.0125 J0.02165
G3 X16.00905 Y6.52253 I0.00376 J0.02472
G3 X15.97155 Y6.54419 I-0.025 J0.0
G3 Y6.50088 I0.0125 J-0.02165
G3 X15.98029 Y6.49782 I0.0125 J0.02165
G0 Z0.25
G0 X15.48246 Y7.04748
G1 F75.0 Z0.0
G3 F120.0 X15.47155 Y7.04419 Z-0.00203 I0.00159 J-0.02495
G3 Y7.00088 Z-0.01126 I0.0125 J-0.02165
G3 X15.50123 Y7.00437 Z-0.01691 I0.0125 J0.02165
G3 X15.50905 Y7.02253 Z-0.02049 I-0.01718 J0.01816
G3 X15.47155 Y7.04419 Z-0.02973 I-0.025 J0.0
G3 Y7.00088 Z-0.03896 I0.0125 J-0.02165
G3 X15.50123 Y7.00437 Z-0.04461 I0.0125 J0.02165
G3 X15.50905 Y7.02253 Z-0.04819 I-0.01718 J0.01816
G3 X15.47155 Y7.04419 Z-0.05742 I-0.025 J0.0
G3 Y7.00088 Z-0.06666 I0.0125 J-0.02165
G3 X15.50123 Y7.00437 Z-0.0723 I0.0125 J0.02165
G3 X15.50905 Y7.02253 Z-0.07589 I-0.01718 J0.01816
G3 X15.47155 Y7.04419 Z-0.08512 I-0.025 J0.0
G3 Y7.00088 Z-0.09435 I0.0125 J-0.02165
G3 X15.50123 Y7.00437 Z-0.1 I0.0125 J0.02165
G3 X15.50905 Y7.02253 I-0.01718 J0.01816
G3 X15.47155 Y7.04419 I-0.025 J0.0
G3 Y7.00088 I0.0125 J-0.02165
G3 X15.50123 Y7.00437 I0.0125 J0.02165
G1 F75.0 X15.48246 Y7.04748
G3 F120.0 X15.47155 Y7.04419 Z-0.10203 I0.00159 J-0.02495
G3 Y7.00088 Z-0.11126 I0.0125 J-0.02165
G3 X15.50123 Y7.00437 Z-0.11691 I0.0125 J0.02165
G3 X15.50905 Y7.02253 Z-0.12049 I-0.01718 J0.01816
G3 X15.47155 Y7.04419 Z-0.12973 I-0.025 J0.0
G3 Y7.00088 Z-0.13896 I0.0125 J-0.02165
G3 X15.50123 Y7.00437 Z-0.14461 I0.0125 J0.02165
G3 X15.50905 Y7.02253 Z-0.14819 I-0.01718 J0.01816
G3 X15.47155 Y7.04419 Z-0.15742 I-0.025 J0.0
G3 Y7.00088 Z-0.16666 I0.0125 J-0.02165
G3 X15.50123 Y7.00437 Z-0.1723 I0.0125 J0.02165
G3 X15.50905 Y7.02253 Z-0.17589 I-0.01718 J0.01816
G3 X15.47155 Y7.04419 Z-0.18512 I-0.025 J0.0
G3 Y7.00088 Z-0.19435 I0.0125 J-0.02165
G3 X15.50123 Y7.00437 Z-0.2 I0.0125 J0.02165
G3 X15.50905 Y7.02253 I-0.01718 J0.01816
G3 X15.47155 Y7.04419 I-0.025 J0.0
G3 Y7.00088 I0.0125 J-0.02165
G3 X15.50123 Y7.00437 I0.0125 J0.02165
G0 Z0.25
G0 X15.98636 Y6.49764
G1 F75.0 Z-0.1
G3 F120.0 X16.00905 Y6.52253 Z-0.10652 I-0.00231 J0.02489
G3 X15.97155 Y6.54419 Z-0.11575 I-0.025 J0.0
G3 X15.96635 Y6.54019 Z-0.11691 I0.0125 J-0.02165
G3 X15.97155 Y6.50088 Z-0.12498 I0.0177 J-0.01766
G3 X16.00905 Y6.52253 Z-0.13421 I0.0125 J0.02165
G3 X15.97155 Y6.54419 Z-0.14345 I-0.025 J0.0
G3 X15.96635 Y6.54019 Z-0.14461 I0.0125 J-0.02165
G3 X15.97155 Y6.50088 Z-0.15268 I0.0177 J-0.01766
G3 X16.00905 Y6.52253 Z-0.16191 I0.0125 J0.02165
G3 X15.97155 Y6.54419 Z-0.17114 I-0.025 J0.0
G3 X15.96635 Y6.54019 Z-0.1723 I0.0125 J-0.02165
G3 X15.97155 Y6.50088 Z-0.18038 I0.0177 J-0.01766
G3 X16.00905 Y6.52253 Z-0.18961 I0.0125 J0.02165
G3 X15.97155 Y6.54419 Z-0.19884 I-0.025 J0.0
G3 X15.96635 Y6.54019 Z-0.2 I0.0125 J-0.02165
G3 X15.97155 Y6.50088 I0.0177 J-0.01766
G3 X16.00905 Y6.52253 I0.0125 J0.02165
G3 X15.97155 Y6.54419 I-0.025 J0.0
G3 X15.96635 Y6.54019 I0.0125 J-0.02165
G0 Z0.25
G0 X15.71119 Y4.85956
G1 F75.0 Z-0.1
G3 F120.0 X15.71722 Y4.85469 Z-0.10137 I0.01854 J0.01677
G3 X15.75472 Y4.87634 Z-0.11061 I0.0125 J0.02165
G3 X15.73324 Y4.90109 Z-0.11691 I-0.025 J0.0
G3 X15.71722 Y4.89799 Z-0.11984 I-0.00352 J-0.02475
G3 Y4.85469 Z-0.12907 I0.0125 J-0.02165
G3 X15.75472 Y4.87634 Z-0.1383 I0.0125 J0.02165
G3 X15.73324 Y4.90109 Z-0.14461 I-0.025 J0.0
G3 X15.71722 Y4.89799 Z-0.14754 I-0.00352 J-0.02475
G3 Y4.85469 Z-0.15677 I0.0125 J-0.02165
G3 X15.75472 Y4.87634 Z-0.166 I0.0125 J0.02165
G3 X15.73324 Y4.90109 Z-0.1723 I-0.025 J0.0
G3 X15.71722 Y4.89799 Z-0.17523 I-0.00352 J-0.02475
G3 Y4.85469 Z-0.18447 I0.0125 J-0.02165
G3 X15.75472 Y4.87634 Z-0.1937 I0.0125 J0.02165
G3 X15.73324 Y4.90109 Z-0.2 I-0.025 J0.0
G3 X15.71722 Y4.89799 I-0.00352 J-0.02475
G3 Y4.85469 I0.0125 J-0.02165
G3 X15.75472 Y4.87634 I0.0125 J0.02165
G3 X15.73324 Y4.90109 I-0.025 J0.0
G0 Z0.25
G0 X15.71371 Y1.60714
G1 F75.0 Z-0.1
G3 F120.0 X15.71722 Y1.60469 Z-0.10076 I0.01601 J0.0192
G3 X15.75472 Y1.62634 Z-0.10999 I0.0125 J0.02165
G3 X15.72975 Y1.65134 Z-0.11691 I-0.025 J0.0
G3 X15.71722 Y1.64799 Z-0.11922 I-0.00003 J-0.025
G3 Y1.60469 Z-0.12845 I0.0125 J-0.02165
G3 X15.75472 Y1.62634 Z-0.13769 I0.0125 J0.02165
G3 X15.72975 Y1.65134 Z-0.14461 I-0.025 J0.0
G3 X15.71722 Y1.64799 Z-0.14692 I-0.00003 J-0.025
G3 Y1.60469 Z-0.15615 I0.0125 J-0.02165
G3 X15.75472 Y1.62634 Z-0.16538 I0.0125 J0.02165
G3 X15.72975 Y1.65134 Z-0.1723 I-0.025 J0.0
G3 X15.71722 Y1.64799 Z-0.17462 I-0.00003 J-0.025
G3 Y1.60469 Z-0.18385 I0.0125 J-0.02165
G3 X15.75472 Y1.62634 Z-0.19308 I0.0125 J0.02165
G3 X15.72975 Y1.65134 Z-0.2 I-0.025 J0.0
G3 X15.71722 Y1.64799 I-0.00003 J-0.025
G3 Y1.60469 I0.0125 J-0.02165
G3 X15.75472 Y1.62634 I0.0125 J0.02165
G3 X15.72975 Y1.65134 I-0.025 J0.0
G0 Z0.25
G0 X0.71983 Y1.64875
G1 F75.0 Z-0.1
G3 F120.0 X0.71747 Y1.64756 Z-0.10047 I0.00989 J-0.02242
G3 Y1.60512 Z-0.10951 I0.01225 J-0.02122
G3 X0.75422 Y1.62634 Z-0.11856 I0.01225 J0.02122
G1 Y1.62638 Z-0.11857
G3 X0.71747 Y1.64756 Z-0.12761 I-0.0245 J-0.00004
G3 Y1.60512 Z-0.13666 I0.01225 J-0.02122
G3 X0.75422 Y1.62634 Z-0.14571 I0.01225 J0.02122
G1 Y1.62638
G3 X0.71747 Y1.64756 Z-0.15475 I-0.0245 J-0.00004
G3 Y1.60512 Z-0.1638 I0.01225 J-0.02122
G3 X0.75422 Y1.62634 Z-0.17285 I0.01225 J0.02122
G1 Y1.62638 Z-0.17286
G3 X0.71747 Y1.64756 Z-0.1819 I-0.0245 J-0.00004
G3 Y1.60512 Z-0.19094 I0.01225 J-0.02122
G3 X0.75422 Y1.62634 Z-0.19999 I0.01225 J0.02122
G1 Y1.62638 Z-0.2
G3 X0.71747 Y1.64756 I-0.0245 J-0.00004
G3 Y1.60512 I0.01225 J-0.02122
G3 X0.75422 Y1.62634 I0.01225 J0.02122
G1 Y1.62638
G0 Z0.25
G0 X0.75208 Y4.88636
G1 F75.0 Z-0.1
G3 F120.0 X0.71747 Y4.89756 Z-0.10723 I-0.02236 J-0.01002
G3 Y4.85512 Z-0.11628 I0.01225 J-0.02122
G3 X0.72991 Y4.85184 Z-0.11857 I0.01225 J0.02122
G3 X0.75422 Y4.87634 Z-0.12532 I-0.00018 J0.0245
G3 X0.71747 Y4.89756 Z-0.13437 I-0.0245 J0.0
G3 Y4.85512 Z-0.14342 I0.01225 J-0.02122
G3 X0.72991 Y4.85184 Z-0.14571 I0.01225 J0.02122
G3 X0.75422 Y4.87634 Z-0.15247 I-0.00018 J0.0245
G3 X0.71747 Y4.89756 Z-0.16151 I-0.0245 J0.0
G3 Y4.85512 Z-0.17056 I0.01225 J-0.02122
G3 X0.72991 Y4.85184 Z-0.17286 I0.01225 J0.02122
G3 X0.75422 Y4.87634 Z-0.17961 I-0.00018 J0.0245
G3 X0.71747 Y4.89756 Z-0.18866 I-0.0245 J0.0
G3 Y4.85512 Z-0.19771 I0.01225 J-0.02122
G3 X0.72991 Y4.85184 Z-0.2 I0.01225 J0.02122
G3 X0.75422 Y4.87634 I-0.00018 J0.0245
G3 X0.71747 Y4.89756 I-0.0245 J0.0
G3 Y4.85512 I0.01225 J-0.02122
G3 X0.72991 Y4.85184 I0.01225 J0.02122
G0 Z0.25
G0 X0.49707 Y6.54388
G1 F75.0 Z-0.1
G3 F120.0 X0.47155 Y6.54419 Z-0.10472 I-0.01302 J-0.02134
G3 Y6.50088 Z-0.11396 I0.0125 J-0.02165
G3 X0.48769 Y6.4978 Z-0.11691 I0.0125 J0.02165
G3 X0.50905 Y6.52253 Z-0.12319 I-0.00364 J0.02473
G3 X0.47155 Y6.54419 Z-0.13242 I-0.025 J0.0
G3 Y6.50088 Z-0.14165 I0.0125 J-0.02165
G3 X0.48769 Y6.4978 Z-0.14461 I0.0125 J0.02165
G3 X0.50905 Y6.52253 Z-0.15089 I-0.00364 J0.02473
G3 X0.47155 Y6.54419 Z-0.16012 I-0.025 J0.0
G3 Y6.50088 Z-0.16935 I0.0125 J-0.02165
G3 X0.48769 Y6.4978 Z-0.1723 I0.0125 J0.02165
G3 X0.50905 Y6.52253 Z-0.17858 I-0.00364 J0.02473
G3 X0.47155 Y6.54419 Z-0.18782 I-0.025 J0.0
G3 Y6.50088 Z-0.19705 I0.0125 J-0.02165
G3 X0.48769 Y6.4978 Z-0.2 I0.0125 J0.02165
G3 X0.50905 Y6.52253 I-0.00364 J0.02473
G3 X0.47155 Y6.54419 I-0.025 J0.0
G3 Y6.50088 I0.0125 J-0.02165
G3 X0.48769 Y6.4978 I0.0125 J0.02165
G0 Z0.25
G0 X1.00887 Y7.02551
G1 F75.0 Z-0.1
G3 F120.0 X0.97155 Y7.04419 Z-0.10871 I-0.02482 J-0.00297
G3 X0.96687 Y7.00437 Z-0.11691 I0.0125 J-0.02165
G3 X0.97155 Y7.00088 Z-0.11794 I0.01718 J0.01816
G3 X1.00905 Y7.02253 Z-0.12717 I0.0125 J0.02165
G3 X0.97155 Y7.04419 Z-0.1364 I-0.025 J0.0
G3 X0.96687 Y7.00437 Z-0.14461 I0.0125 J-0.02165
G3 X0.97155 Y7.00088 Z-0.14564 I0.01718 J0.01816
G3 X1.00905 Y7.02253 Z-0.15487 I0.0125 J0.02165
G3 X0.97155 Y7.04419 Z-0.1641 I-0.025 J0.0
G3 X0.96687 Y7.00437 Z-0.1723 I0.0125 J-0.02165
G3 X0.97155 Y7.00088 Z-0.17333 I0.01718 J0.01816
G3 X1.00905 Y7.02253 Z-0.18257 I0.0125 J0.02165
G3 X0.97155 Y7.04419 Z-0.1918 I-0.025 J0.0
G3 X0.96687 Y7.00437 Z-0.2 I0.0125 J-0.02165
G3 X0.97155 Y7.00088 I0.01718 J0.01816
G3 X1.00905 Y7.02253 I0.0125 J0.02165
G3 X0.97155 Y7.04419 I-0.025 J0.0
G3 X0.96687 Y7.00437 I0.0125 J-0.02165
G1 F75.0 X1.00887 Y7.02551
G3 F120.0 X0.97155 Y7.04419 Z-0.20871 I-0.02482 J-0.00297
G3 X0.96687 Y7.00437 Z-0.21691 I0.0125 J-0.02165
G3 X0.97155 Y7.00088 Z-0.21794 I0.01718 J0.01816
G3 X1.00905 Y7.02253 Z-0.22717 I0.0125 J0.02165
G3 X0.97155 Y7.04419 Z-0.2364 I-0.025 J0.0
G3 X0.96687 Y7.00437 Z-0.24461 I0.0125 J-0.02165
G3 X0.97155 Y7.00088 Z-0.24564 I0.01718 J0.01816
G3 X1.00905 Y7.02253 Z-0.25487 I0.0125 J0.02165
G3 X0.97155 Y7.04419 Z-0.2641 I-0.025 J0.0
G3 X0.96687 Y7.00437 Z-0.2723 I0.0125 J-0.02165
G3 X0.97155 Y7.00088 Z-0.27333 I0.01718 J0.01816
G3 X1.00905 Y7.02253 Z-0.28257 I0.0125 J0.02165
G3 X0.97155 Y7.04419 Z-0.2918 I-0.025 J0.0
G3 X0.96687 Y7.00437 Z-0.3 I0.0125 J-0.02165
G3 X0.97155 Y7.00088 I0.01718 J0.01816
G3 X1.00905 Y7.02253 I0.0125 J0.02165
G3 X0.97155 Y7.04419 I-0.025 J0.0
G3 X0.96687 Y7.00437 I0.0125 J-0.02165
G0 Z0.25
G0 X0.45915 Y6.52028
G1 F75.0 Z-0.2
G3 F120.0 X0.47155 Y6.50088 Z-0.20422 I0.0249 J0.00226
G3 X0.50905 Y6.52253 Z-0.21345 I0.0125 J0.02165
G3 X0.50175 Y6.54019 Z-0.21691 I-0.025 J0.0
G3 X0.47155 Y6.54419 Z-0.22268 I-0.0177 J-0.01766
G3 Y6.50088 Z-0.23192 I0.0125 J-0.02165
G3 X0.50905 Y6.52253 Z-0.24115 I0.0125 J0.02165
G3 X0.50175 Y6.54019 Z-0.24461 I-0.025 J0.0
G3 X0.47155 Y6.54419 Z-0.25038 I-0.0177 J-0.01766
G3 Y6.50088 Z-0.25961 I0.0125 J-0.02165
G3 X0.50905 Y6.52253 Z-0.26884 I0.0125 J0.02165
G3 X0.50175 Y6.54019 Z-0.2723 I-0.025 J0.0
G3 X0.47155 Y6.54419 Z-0.27808 I-0.0177 J-0.01766
G3 Y6.50088 Z-0.28731 I0.0125 J-0.02165
G3 X0.50905 Y6.52253 Z-0.29654 I0.0125 J0.02165
G3 X0.50175 Y6.54019 Z-0.3 I-0.025 J0.0
G3 X0.47155 Y6.54419 I-0.0177 J-0.01766
G3 Y6.50088 I0.0125 J-0.02165
G3 X0.50905 Y6.52253 I0.0125 J0.02165
G3 X0.50175 Y6.54019 I-0.025 J0.0
G0 Z0.25
G0 X0.70884 Y4.86353
G1 F75.0 Z-0.2
G3 F120.0 X0.71747 Y4.85512 Z-0.20215 I0.02089 J0.01281
G3 X0.75422 Y4.87634 Z-0.2112 I0.01225 J0.02122
G3 X0.7264 Y4.90061 Z-0.21857 I-0.0245 J0.0
G3 X0.71747 Y4.89756 Z-0.22024 I0.00333 J-0.02427
G3 Y4.85512 Z-0.22929 I0.01225 J-0.02122
G3 X0.75422 Y4.87634 Z-0.23834 I0.01225 J0.02122
G3 X0.7264 Y4.90061 Z-0.24571 I-0.0245 J0.0
G3 X0.71747 Y4.89756 Z-0.24739 I0.00333 J-0.02427
G3 Y4.85512 Z-0.25643 I0.01225 J-0.02122
G3 X0.75422 Y4.87634 Z-0.26548 I0.01225 J0.02122
G3 X0.7264 Y4.90061 Z-0.27286 I-0.0245 J0.0
G3 X0.71747 Y4.89756 Z-0.27453 I0.00333 J-0.02427
G3 Y4.85512 Z-0.28358 I0.01225 J-0.02122
G3 X0.75422 Y4.87634 Z-0.29263 I0.01225 J0.02122
G3 X0.7264 Y4.90061 Z-0.3 I-0.0245 J0.0
G3 X0.71747 Y4.89756 I0.00333 J-0.02427
G3 Y4.85512 I0.01225 J-0.02122
G3 X0.75422 Y4.87634 I0.01225 J0.02122
G3 X0.7264 Y4.90061 I-0.0245 J0.0
G0 Z0.25
G0 X0.7073 Y1.61646
G1 F75.0 Z-0.2
G3 F120.0 X0.71747 Y1.60512 Z-0.20273 I0.02242 J0.00988
G3 X0.75422 Y1.62634 Z-0.21178 I0.01225 J0.02122
G3 X0.7297 Y1.65084 Z-0.21857 I-0.0245 J0.0
G3 X0.71747 Y1.64756 Z-0.22083 I0.00002 J-0.0245
G3 Y1.60512 Z-0.22988 I0.01225 J-0.02122
G3 X0.75422 Y1.62634 Z-0.23892 I0.01225 J0.02122
G3 X0.7297 Y1.65084 Z-0.24571 I-0.0245 J0.0
G3 X0.71747 Y1.64756 Z-0.24797 I0.00002 J-0.0245
G3 Y1.60512 Z-0.25702 I0.01225 J-0.02122
G3 X0.75422 Y1.62634 Z-0.26607 I0.01225 J0.02122
G3 X0.7297 Y1.65084 Z-0.27286 I-0.0245 J0.0
G3 X0.71747 Y1.64756 Z-0.27511 I0.00002 J-0.0245
G3 Y1.60512 Z-0.28416 I0.01225 J-0.02122
G3 X0.75422 Y1.62634 Z-0.29321 I0.01225 J0.02122
G3 X0.7297 Y1.65084 Z-0.3 I-0.0245 J0.0
G3 X0.71747 Y1.64756 I0.00002 J-0.0245
G3 Y1.60512 I0.01225 J-0.02122
G3 X0.75422 Y1.62634 I0.01225 J0.02122
G3 X0.7297 Y1.65084 I-0.0245 J0.0
G0 Z0.25
G0 X15.74891 Y1.61032
G1 F75.0 Z-0.2
G3 F120.0 X15.75472 Y1.62634 Z-0.20307 I-0.01919 J0.01602
G3 X15.71722 Y1.64799 Z-0.2123 I-0.025 J0.0
G3 X15.70472 Y1.62638 Z-0.21691 I0.0125 J-0.02165
G3 X15.71722 Y1.60469 Z-0.22153 I0.025 J-0.00004
G3 X15.75472 Y1.62634 Z-0.23076 I0.0125 J0.02165
G3 X15.71722 Y1.64799 Z-0.24 I-0.025 J0.0
G3 X15.70472 Y1.62638 Z-0.24461 I0.0125 J-0.02165
G3 X15.71722 Y1.60469 Z-0.24923 I0.025 J-0.00004
G3 X15.75472 Y1.62634 Z-0.25846 I0.0125 J0.02165
G3 X15.71722 Y1.64799 Z-0.26769 I-0.025 J0.0
G3 X15.70472 Y1.62638 Z-0.2723 I0.0125 J-0.02165
G3 X15.71722 Y1.60469 Z-0.27693 I0.025 J-0.00004
G3 X15.75472 Y1.62634 Z-0.28616 I0.0125 J0.02165
G3 X15.71722 Y1.64799 Z-0.29539 I-0.025 J0.0
G3 X15.70472 Y1.62638 Z-0.3 I0.0125 J-0.02165
G3 X15.71722 Y1.60469 I0.025 J-0.00004
G3 X15.75472 Y1.62634 I0.0125 J0.02165
G3 X15.71722 Y1.64799 I-0.025 J0.0
G3 X15.70472 Y1.62638 I0.0125 J-0.02165
G0 Z0.25
G0 X15.74586 Y4.89543
G1 F75.0 Z-0.2
G3 F120.0 X15.71722 Y4.89799 Z-0.2054 I-0.01614 J-0.01909
G3 Y4.85469 Z-0.21463 I0.0125 J-0.02165
G3 X15.72953 Y4.85134 Z-0.21691 I0.0125 J0.02165
G3 X15.75472 Y4.87634 Z-0.22387 I0.00019 J0.025
G3 X15.71722 Y4.89799 Z-0.2331 I-0.025 J0.0
G3 Y4.85469 Z-0.24233 I0.0125 J-0.02165
G3 X15.72953 Y4.85134 Z-0.24461 I0.0125 J0.02165
G3 X15.75472 Y4.87634 Z-0.25156 I0.00019 J0.025
G3 X15.71722 Y4.89799 Z-0.2608 I-0.025 J0.0
G3 Y4.85469 Z-0.27003 I0.0125 J-0.02165
G3 X15.72953 Y4.85134 Z-0.2723 I0.0125 J0.02165
G3 X15.75472 Y4.87634 Z-0.27926 I0.00019 J0.025
G3 X15.71722 Y4.89799 Z-0.28849 I-0.025 J0.0
G3 Y4.85469 Z-0.29773 I0.0125 J-0.02165
G3 X15.72953 Y4.85134 Z-0.3 I0.0125 J0.02165
G3 X15.75472 Y4.87634 I0.00019 J0.025
G3 X15.71722 Y4.89799 I-0.025 J0.0
G3 Y4.85469 I0.0125 J-0.02165
G3 X15.72953 Y4.85134 I0.0125 J0.02165
G0 Z0.25
G0 X16.00275 Y6.53913
G1 F75.0 Z-0.2
G3 F120.0 X15.97155 Y6.54419 Z-0.20603 I-0.0187 J-0.01659
G3 Y6.50088 Z-0.21527 I0.0125 J-0.02165
G3 X15.98029 Y6.49782 Z-0.21691 I0.0125 J0.02165
G3 X16.00905 Y6.52253 Z-0.2245 I0.00376 J0.02472
G3 X15.97155 Y6.54419 Z-0.23373 I-0.025 J0.0
G3 Y6.50088 Z-0.24296 I0.0125 J-0.02165
G3 X15.98029 Y6.49782 Z-0.24461 I0.0125 J0.02165
G3 X16.00905 Y6.52253 Z-0.2522 I0.00376 J0.02472
G3 X15.97155 Y6.54419 Z-0.26143 I-0.025 J0.0
G3 Y6.50088 Z-0.27066 I0.0125 J-0.02165
G3 X15.98029 Y6.49782 Z-0.2723 I0.0125 J0.02165
G3 X16.00905 Y6.52253 Z-0.27989 I0.00376 J0.02472
G3 X15.97155 Y6.54419 Z-0.28913 I-0.025 J0.0
G3 Y6.50088 Z-0.29836 I0.0125 J-0.02165
G3 X15.98029 Y6.49782 Z-0.3 I0.0125 J0.02165
G3 X16.00905 Y6.52253 I0.00376 J0.02472
G3 X15.97155 Y6.54419 I-0.025 J0.0
G3 Y6.50088 I0.0125 J-0.02165
G3 X15.98029 Y6.49782 I0.0125 J0.02165
G0 Z0.25
G0 X15.48246 Y7.04748
G1 F75.0 Z-0.2
G3 F120.0 X15.47155 Y7.04419 Z-0.20203 I0.00159 J-0.02495
G3 Y7.00088 Z-0.21126 I0.0125 J-0.02165
G3 X15.50123 Y7.00437 Z-0.21691 I0.0125 J0.02165
G3 X15.50905 Y7.02253 Z-0.22049 I-0.01718 J0.01816
G3 X15.47155 Y7.04419 Z-0.22973 I-0.025 J0.0
G3 Y7.00088 Z-0.23896 I0.0125 J-0.02165
G3 X15.50123 Y7.00437 Z-0.24461 I0.0125 J0.02165
G3 X15.50905 Y7.02253 Z-0.24819 I-0.01718 J0.01816
G3 X15.47155 Y7.04419 Z-0.25742 I-0.025 J0.0
G3 Y7.00088 Z-0.26666 I0.0125 J-0.02165
G3 X15.50123 Y7.00437 Z-0.2723 I0.0125 J0.02165
G3 X15.50905 Y7.02253 Z-0.27589 I-0.01718 J0.01816
G3 X15.47155 Y7.04419 Z-0.28512 I-0.025 J0.0
G3 Y7.00088 Z-0.29435 I0.0125 J-0.02165
G3 X15.50123 Y7.00437 Z-0.3 I0.0125 J0.02165
G3 X15.50905 Y7.02253 I-0.01718 J0.01816
G3 X15.47155 Y7.04419 I-0.025 J0.0
G3 Y7.00088 I0.0125 J-0.02165
G3 X15.50123 Y7.00437 I0.0125 J0.02165
G1 F75.0 X15.48987 Y6.99822
G3 F120.0 X15.50123 Y7.00437 Z-0.3023 I-0.00582 J0.02431
G3 X15.50905 Y7.02253 Z-0.30589 I-0.01718 J0.01816
G3 X15.47155 Y7.04419 Z-0.31512 I-0.025 J0.0
G3 Y7.00088 Z-0.32435 I0.0125 J-0.02165
G3 X15.50123 Y7.00437 Z-0.33 I0.0125 J0.02165
G3 X15.50905 Y7.02253 I-0.01718 J0.01816
G3 X15.47155 Y7.04419 I-0.025 J0.0
G3 Y7.00088 I0.0125 J-0.02165
G3 X15.50123 Y7.00437 I0.0125 J0.02165
G0 Z0.25
G0 X15.97752 Y6.54667
G1 F75.0 Z-0.3
G3 F120.0 X15.97155 Y6.54419 Z-0.30114 I0.00653 J-0.02413
G3 X15.96635 Y6.54019 Z-0.3023 I0.0125 J-0.02165
G3 X15.97155 Y6.50088 Z-0.31038 I0.0177 J-0.01766
G3 X16.00905 Y6.52253 Z-0.31961 I0.0125 J0.02165
G3 X15.97155 Y6.54419 Z-0.32884 I-0.025 J0.0
G3 X15.96635 Y6.54019 Z-0.33 I0.0125 J-0.02165
G3 X15.97155 Y6.50088 I0.0177 J-0.01766
G3 X16.00905 Y6.52253 I0.0125 J0.02165
G3 X15.97155 Y6.54419 I-0.025 J0.0
G3 X15.96635 Y6.54019 I0.0125 J-0.02165
G0 Z0.25
G0 X15.74512 Y4.89603
G1 F75.0 Z-0.3
G3 F120.0 X15.73324 Y4.90109 Z-0.3023 I-0.0154 J-0.01969
G3 X15.71722 Y4.89799 Z-0.30523 I-0.00352 J-0.02475
G3 Y4.85469 Z-0.31447 I0.0125 J-0.02165
G3 X15.75472 Y4.87634 Z-0.3237 I0.0125 J0.02165
G3 X15.73324 Y4.90109 Z-0.33 I-0.025 J0.0
G3 X15.71722 Y4.89799 I-0.00352 J-0.02475
G3 Y4.85469 I0.0125 J-0.02165
G3 X15.75472 Y4.87634 I0.0125 J0.02165
G3 X15.73324 Y4.90109 I-0.025 J0.0
G0 Z0.25
G0 X15.74222 Y1.64799
G1 F75.0 Z-0.3
G3 F120.0 X15.72975 Y1.65134 Z-0.3023 I-0.0125 J-0.02165
G3 X15.71722 Y1.64799 Z-0.30462 I-0.00003 J-0.025
G3 Y1.60469 Z-0.31385 I0.0125 J-0.02165
G3 X15.75472 Y1.62634 Z-0.32308 I0.0125 J0.02165
G3 X15.72975 Y1.65134 Z-0.33 I-0.025 J0.0
G3 X15.71722 Y1.64799 I-0.00003 J-0.025
G3 Y1.60469 I0.0125 J-0.02165
G3 X15.75472 Y1.62634 I0.0125 J0.02165
G3 X15.72975 Y1.65134 I-0.025 J0.0
G0 Z0.25
G0 X0.74908 Y1.61132
G1 F75.0 Z-0.3
G3 F120.0 X0.75422 Y1.62634 Z-0.30285 I-0.01936 J0.01501
G1 Y1.62638 Z-0.30286
G3 X0.71747 Y1.64756 Z-0.3119 I-0.0245 J-0.00004
G3 Y1.60512 Z-0.32094 I0.01225 J-0.02122
G3 X0.75422 Y1.62634 Z-0.32999 I0.01225 J0.02122
G1 Y1.62638 Z-0.33
G3 X0.71747 Y1.64756 I-0.0245 J-0.00004
G3 Y1.60512 I0.01225 J-0.02122
G3 X0.75422 Y1.62634 I0.01225 J0.02122
G1 Y1.62638
G0 Z0.25
G0 X0.71482 Y4.85689
G1 F75.0 Z-0.3
G3 F120.0 X0.71747 Y4.85512 Z-0.30056 I0.0149 J0.01945
G3 X0.72991 Y4.85184 Z-0.30286 I0.01225 J0.02122
G3 X0.75422 Y4.87634 Z-0.30961 I-0.00018 J0.0245
G3 X0.71747 Y4.89756 Z-0.31866 I-0.0245 J0.0
G3 Y4.85512 Z-0.32771 I0.01225 J-0.02122
G3 X0.72991 Y4.85184 Z-0.33 I0.01225 J0.02122
G3 X0.75422 Y4.87634 I-0.00018 J0.0245
G3 X0.71747 Y4.89756 I-0.0245 J0.0
G3 Y4.85512 I0.01225 J-0.02122
G3 X0.72991 Y4.85184 I0.01225 J0.02122
G0 Z0.25
G0 X0.47486 Y6.49928
G1 F75.0 Z-0.3
G3 F120.0 X0.48769 Y6.4978 Z-0.3023 I0.00919 J0.02325
G3 X0.50905 Y6.52253 Z-0.30858 I-0.00364 J0.02473
G3 X0.47155 Y6.54419 Z-0.31782 I-0.025 J0.0
G3 Y6.50088 Z-0.32705 I0.0125 J-0.02165
G3 X0.48769 Y6.4978 Z-0.33 I0.0125 J0.02165
G3 X0.50905 Y6.52253 I-0.00364 J0.02473
G3 X0.47155 Y6.54419 I-0.025 J0.0
G3 Y6.50088 I0.0125 J-0.02165
G3 X0.48769 Y6.4978 I0.0125 J0.02165
G0 Z0.25
G0 X0.9601 Y7.01537
G1 F75.0 Z-0.3
G3 F120.0 X0.96687 Y7.00437 Z-0.3023 I0.02395 J0.00717
G3 X0.97155 Y7.00088 Z-0.30333 I0.01718 J0.01816
G3 X1.00905 Y7.02253 Z-0.31257 I0.0125 J0.02165
G3 X0.97155 Y7.04419 Z-0.3218 I-0.025 J0.0
G3 X0.96687 Y7.00437 Z-0.33 I0.0125 J-0.02165
G3 X0.97155 Y7.00088 I0.01718 J0.01816
G3 X1.00905 Y7.02253 I0.0125 J0.02165
G3 X0.97155 Y7.04419 I-0.025 J0.0
G3 X0.96687 Y7.00437 I0.0125 J-0.02165
G1 F75.0 X0.99529 Y7.0002
G3 F120.0 X1.00905 Y7.02253 Z-0.33487 I-0.01124 J0.02233
G3 X0.97155 Y7.04419 Z-0.3441 I-0.025 J0.0
G3 X0.96687 Y7.00437 Z-0.3523 I0.0125 J-0.02165
G3 X0.97155 Y7.00088 Z-0.35333 I0.01718 J0.01816
G3 X1.00905 Y7.02253 Z-0.36257 I0.0125 J0.02165
G3 X0.97155 Y7.04419 Z-0.3718 I-0.025 J0.0
G3 X0.96687 Y7.00437 Z-0.38 I0.0125 J-0.02165
G3 X0.97155 Y7.00088 I0.01718 J0.01816
G3 X1.00905 Y7.02253 I0.0125 J0.02165
G3 X0.97155 Y7.04419 I-0.025 J0.0
G3 X0.96687 Y7.00437 I0.0125 J-0.02165
G1 F75.0 X0.96 Y6.99711
G3 F120.0 X0.96655 Y6.99222 I0.02405 J0.02543
G3 X1.01905 Y7.02253 I0.0175 J0.03031
G3 X0.96655 Y7.05285 I-0.035 J0.0
G3 X0.96 Y6.99711 I0.0175 J-0.03031
G0 Z0.25
G0 X0.47347 Y6.54519
G1 F75.0 Z-0.33
G3 F120.0 X0.47155 Y6.54419 Z-0.33038 I0.01058 J-0.02265
G3 Y6.50088 Z-0.33961 I0.0125 J-0.02165
G3 X0.50905 Y6.52253 Z-0.34885 I0.0125 J0.02165
G3 X0.50175 Y6.54019 Z-0.3523 I-0.025 J0.0
G3 X0.47155 Y6.54419 Z-0.35808 I-0.0177 J-0.01765
G3 Y6.50088 Z-0.36731 I0.0125 J-0.02165
G3 X0.50905 Y6.52253 Z-0.37654 I0.0125 J0.02165
G3 X0.50175 Y6.54019 Z-0.38 I-0.025 J0.0
G3 X0.47155 Y6.54419 I-0.0177 J-0.01765
G3 Y6.50088 I0.0125 J-0.02165
G3 X0.50905 Y6.52253 I0.0125 J0.02165
G3 X0.50175 Y6.54019 I-0.025 J0.0
G1 F75.0 X0.50883 Y6.54725
G3 F120.0 X0.46655 Y6.55285 I-0.02478 J-0.02471
G3 Y6.49222 I0.0175 J-0.03031
G3 X0.51905 Y6.52253 I0.0175 J0.03031
G3 X0.50883 Y6.54725 I-0.035 J0.0
G0 Z0.25
G0 X0.70763 Y4.88693
G1 F75.0 Z-0.33
G3 F120.0 X0.71747 Y4.85512 Z-0.33646 I0.02209 J-0.01059
G3 X0.75422 Y4.87634 Z-0.3455 I0.01225 J0.02122
G3 X0.72651 Y4.90063 Z-0.35286 I-0.0245 J0.0
G3 X0.71747 Y4.89756 Z-0.35455 I0.00321 J-0.02429
G3 Y4.85512 Z-0.3636 I0.01225 J-0.02122
G3 X0.75422 Y4.87634 Z-0.37265 I0.01225 J0.02122
G3 X0.72651 Y4.90063 Z-0.38 I-0.0245 J0.0
G3 X0.71747 Y4.89756 I0.00321 J-0.02429
G3 Y4.85512 I0.01225 J-0.02122
G3 X0.75422 Y4.87634 I0.01225 J0.02122
G3 X0.72651 Y4.90063 I-0.0245 J0.0
G1 F75.0 X0.7252 Y4.91054
G3 F120.0 X0.71247 Y4.90622 I0.00452 J-0.0342
G3 Y4.84646 I0.01725 J-0.02988
G3 X0.76422 Y4.87634 I0.01725 J0.02988
G3 X0.7252 Y4.91054 I-0.0345 J0.0
G0 Z0.25
G0 X0.70919 Y1.6397
G1 F75.0 Z-0.33
G3 F120.0 X0.71747 Y1.60512 Z-0.33702 I0.02053 J-0.01337
G3 X0.75422 Y1.62634 Z-0.34606 I0.01225 J0.02122
G3 X0.72969 Y1.65084 Z-0.35286 I-0.0245 J0.0
G3 X0.71747 Y1.64756 Z-0.35511 I0.00003 J-0.0245
G3 Y1.60512 Z-0.36416 I0.01225 J-0.02122
G3 X0.75422 Y1.62634 Z-0.37321 I0.01225 J0.02122
G3 X0.72969 Y1.65084 Z-0.38 I-0.0245 J0.0
G3 X0.71747 Y1.64756 I0.00003 J-0.0245
G3 Y1.60512 I0.01225 J-0.02122
G3 X0.75422 Y1.62634 I0.01225 J0.02122
G3 X0.72969 Y1.65084 I-0.0245 J0.0
G1 F75.0 X0.72967 Y1.66084
G3 F120.0 X0.71247 Y1.65622 I0.00005 J-0.0345
G3 Y1.59646 I0.01725 J-0.02988
G3 X0.76422 Y1.62634 I0.01725 J0.02988
G3 X0.72967 Y1.66084 I-0.0345 J0.0
G0 Z0.25
G0 X15.72117 Y1.60285
G1 F75.0 Z-0.33
G3 F120.0 X15.75472 Y1.62634 Z-0.33846 I0.00856 J0.02349
G3 X15.71722 Y1.64799 Z-0.3477 I-0.025 J0.0
G3 X15.70472 Y1.6264 Z-0.3523 I0.0125 J-0.02165
G3 X15.71722 Y1.60469 Z-0.35693 I0.025 J-0.00006
G3 X15.75472 Y1.62634 Z-0.36616 I0.0125 J0.02165
G3 X15.71722 Y1.64799 Z-0.37539 I-0.025 J0.0
G3 X15.70472 Y1.6264 Z-0.38 I0.0125 J-0.02165
G3 X15.71722 Y1.60469 I0.025 J-0.00006
G3 X15.75472 Y1.62634 I0.0125 J0.02165
G3 X15.71722 Y1.64799 I-0.025 J0.0
G3 X15.70472 Y1.6264 I0.0125 J-0.02165
G1 F75.0 X15.69472 Y1.62642
G3 F120.0 X15.71222 Y1.59603 I0.035 J-0.00008
G3 X15.76472 Y1.62634 I0.0175 J0.03031
G3 X15.71222 Y1.65665 I-0.035 J0.0
G3 X15.69472 Y1.62642 I0.0175 J-0.03031
G0 Z0.25
G0 X15.75314 Y4.86758
G1 F75.0 Z-0.33
G3 F120.0 X15.75472 Y4.87634 Z-0.33158 I-0.02342 J0.00875
G3 X15.71722 Y4.89799 Z-0.34081 I-0.025 J0.0
G3 Y4.85469 Z-0.35004 I0.0125 J-0.02165
G3 X15.72945 Y4.85134 Z-0.3523 I0.0125 J0.02165
G3 X15.75472 Y4.87634 Z-0.35927 I0.00027 J0.025
G3 X15.71722 Y4.89799 Z-0.36851 I-0.025 J0.0
G3 Y4.85469 Z-0.37774 I0.0125 J-0.02165
G3 X15.72945 Y4.85134 Z-0.38 I0.0125 J0.02165
G3 X15.75472 Y4.87634 I0.00027 J0.025
G3 X15.71722 Y4.89799 I-0.025 J0.0
G3 Y4.85469 I0.0125 J-0.02165
G3 X15.72945 Y4.85134 I0.0125 J0.02165
G1 F75.0 X15.72935 Y4.84134
G3 F120.0 X15.76472 Y4.87634 I0.00038 J0.035
G3 X15.71222 Y4.90665 I-0.035 J0.0
G3 Y4.84603 I0.0175 J-0.03031
G3 X15.72935 Y4.84134 I0.0175 J0.03031
G0 Z0.25
G0 X16.00602 Y6.51061
G1 F75.0 Z-0.33
G3 F120.0 X16.00905 Y6.52253 Z-0.33219 I-0.02197 J0.01193
G3 X15.97155 Y6.54419 Z-0.34142 I-0.025 J0.0
G3 Y6.50088 Z-0.35066 I0.0125 J-0.02165
G3 X15.9803 Y6.49782 Z-0.3523 I0.0125 J0.02165
G3 X16.00905 Y6.52253 Z-0.35989 I0.00374 J0.02472
G3 X15.97155 Y6.54419 Z-0.36912 I-0.025 J0.0
G3 Y6.50088 Z-0.37835 I0.0125 J-0.02165
G3 X15.9803 Y6.49782 Z-0.38 I0.0125 J0.02165
G3 X16.00905 Y6.52253 I0.00374 J0.02472
G3 X15.97155 Y6.54419 I-0.025 J0.0
G3 Y6.50088 I0.0125 J-0.02165
G3 X15.9803 Y6.49782 I0.0125 J0.02165
G1 F75.0 X15.97881 Y6.48793
G3 F120.0 X16.01905 Y6.52253 I0.00524 J0.03461
G3 X15.96655 Y6.55285 I-0.035 J0.0
G3 Y6.49222 I0.0175 J-0.03031
G3 X15.97881 Y6.48793 I0.0175 J0.03031
G0 Z0.25
G0 X15.50708 Y7.03226
G1 F75.0 Z-0.33
G3 F120.0 X15.47155 Y7.04419 Z-0.33747 I-0.02303 J-0.00973
G3 Y7.00088 Z-0.3467 I0.0125 J-0.02165
G3 X15.50103 Y7.00419 Z-0.3523 I0.0125 J0.02165
G3 X15.50905 Y7.02253 Z-0.35594 I-0.01698 J0.01835
G3 X15.47155 Y7.04419 Z-0.36517 I-0.025 J0.0
G3 Y7.00088 Z-0.3744 I0.0125 J-0.02165
G3 X15.50103 Y7.00419 Z-0.38 I0.0125 J0.02165
G3 X15.50905 Y7.02253 I-0.01698 J0.01835
G3 X15.47155 Y7.04419 I-0.025 J0.0
G3 Y7.00088 I0.0125 J-0.02165
G3 X15.50103 Y7.00419 I0.0125 J0.02165
G1 F75.0 X15.50782 Y6.99685
G3 F120.0 X15.51905 Y7.02253 I-0.02377 J0.02569
G3 X15.46655 Y7.05285 I-0.035 J0.0
G3 Y6.99222 I0.0175 J-0.03031
G3 X15.50782 Y6.99685 I0.0175 J0.03031
( PinHoles )
S2000
G0 Z0.1
G0 X4.73405 Y6.89753
G83 Z-0.25 Q0.1 R0.1 F75.0
G83 X9.73405 Z-0.25 Q0.1 R0.1
G80
( Slots )
S2000
G0 Z0.25
G0 X14.24899 Y2.34884
G1 Z0.0
G1 F120.0 X14.72972 Z-0.08477
G3 Y2.40384 Z-0.1 I0.0 J0.0275
G1 X11.22972
G3 Y2.34884 I0.0 J-0.0275
G1 X14.72972
G3 Y2.40384 I0.0 J0.0275
G1 F75.0 Y2.45384
G1 F120.0 X11.22972
G3 Y2.29884 I0.0 J-0.0775
G1 X14.72972
G3 Y2.45384 I0.0 J0.0775
G1 F75.0 Y2.50384
G1 F120.0 X11.22972
G3 Y2.24884 I0.0 J-0.1275
G1 X14.72972
G3 Y2.50384 I0.0 J0.1275
G1 F75.0 Y2.55384
G1 F120.0 X11.22972
G3 Y2.19884 I0.0 J-0.1775
G1 X14.72972
G3 Y2.55384 I0.0 J0.1775
G0 Z0.25
G0 X14.24899 Y2.34884
G1 F75.0 Z-0.1
G1 F120.0 X14.72972 Z-0.18477
G3 Y2.40384 Z-0.2 I0.0 J0.0275
G1 X11.22972
G3 Y2.34884 I0.0 J-0.0275
G1 X14.72972
G3 Y2.40384 I0.0 J0.0275
G1 F75.0 Y2.45384
G1 F120.0 X11.22972
G3 Y2.29884 I0.0 J-0.0775
G1 X14.72972
G3 Y2.45384 I0.0 J0.0775
G1 F75.0 Y2.50384
G1 F120.0 X11.22972
G3 Y2.24884 I0.0 J-0.1275
G1 X14.72972
G3 Y2.50384 I0.0 J0.1275
G1 F75.0 Y2.55384
G1 F120.0 X11.22972
G3 Y2.19884 I0.0 J-0.1775
G1 X14.72972
G3 Y2.55384 I0.0 J0.1775
G0 Z0.25
G0 X14.56091 Y2.34884
G1 F75.0 Z-0.2
G1 F120.0 X14.72972 Z-0.22977
G3 Y2.40384 Z-0.245 I0.0 J0.0275
G1 X11.22972
G3 Y2.34884 I0.0 J-0.0275
G1 X14.72972
G3 Y2.40384 I0.0 J0.0275
G1 F75.0 Y2.45384
G1 F120.0 X11.22972
G3 Y2.29884 I0.0 J-0.0775
G1 X14.72972
G3 Y2.45384 I0.0 J0.0775
G1 F75.0 Y2.50384
G1 F120.0 X11.22972
G3 Y2.24884 I0.0 J-0.1275
G1 X14.72972
G3 Y2.50384 I0.0 J0.1275
G1 F75.0 Y2.55384
G1 F120.0 X11.22972
G3 Y2.19884 I0.0 J-0.1775
G1 X14.72972
G3 Y2.55384 I0.0 J0.1775
G0 Z0.25
G0 X14.75331 Y2.39047
G1 F75.0 Z-0.245
G3 F120.0 X14.72972 Y2.40384 Z-0.25 I-0.02359 J-0.01413
G1 X11.22972
G3 Y2.34884 I0.0 J-0.0275
G1 X14.72972
G3 Y2.40384 I0.0 J0.0275
G1 F75.0 Y2.45384
G1 F120.0 X11.22972
G3 Y2.29884 I0.0 J-0.0775
G1 X14.72972
G3 Y2.45384 I0.0 J0.0775
G1 F75.0 Y2.50384
G1 F120.0 X11.22972
G3 Y2.24884 I0.0 J-0.1275
G1 X14.72972
G3 Y2.50384 I0.0 J0.1275
G1 F75.0 Y2.55384
G1 F120.0 X11.22972
G3 Y2.19884 I0.0 J-0.1775
G1 X14.72972
G3 Y2.55384 I0.0 J0.1775
G1 F75.0 Y2.56384
G1 F120.0 X11.22972
G3 Y2.18884 I0.0 J-0.1875
G1 X14.72972
G3 Y2.56384 I0.0 J0.1875
G0 Z0.25
G0 X14.16259 Y4.84884
G1 F75.0 Z0.0
G1 F120.0 X14.72972 Z-0.1
G3 Y4.90384 I0.0 J0.0275
G1 X11.22972
G3 Y4.84884 I0.0 J-0.0275
G1 X14.72972
G1 F75.0 Y4.79884
G3 F120.0 Y4.95384 I0.0 J0.0775
G1 X11.22972
G3 Y4.79884 I0.0 J-0.0775
G1 X14.72972
G1 F75.0 Y4.74884
G3 F120.0 Y5.00384 I0.0 J0.1275
G1 X11.22972
G3 Y4.74884 I0.0 J-0.1275
G1 X14.72972
G1 F75.0 Y4.69884
G3 F120.0 Y5.05384 I0.0 J0.1775
G1 X11.22972
G3 Y4.69884 I0.0 J-0.1775
G1 X14.72972
G0 Z0.25
G0 X14.16259 Y4.84884
G1 F75.0 Z-0.1
G1 F120.0 X14.72972 Z-0.2
G3 Y4.90384 I0.0 J0.0275
G1 X11.22972
G3 Y4.84884 I0.0 J-0.0275
G1 X14.72972
G1 F75.0 Y4.79884
G3 F120.0 Y4.95384 I0.0 J0.0775
G1 X11.22972
G3 Y4.79884 I0.0 J-0.0775
G1 X14.72972
G1 F75.0 Y4.74884
G3 F120.0 Y5.00384 I0.0 J0.1275
G1 X11.22972
G3 Y4.74884 I0.0 J-0.1275
G1 X14.72972
G1 F75.0 Y4.69884
G3 F120.0 Y5.05384 I0.0 J0.1775
G1 X11.22972
G3 Y4.69884 I0.0 J-0.1775
G1 X14.72972
G0 Z0.25
G0 X14.47451 Y4.84884
G1 F75.0 Z-0.2
G1 F120.0 X14.72972 Z-0.245
G3 Y4.90384 I0.0 J0.0275
G1 X11.22972
G3 Y4.84884 I0.0 J-0.0275
G1 X14.72972
G1 F75.0 Y4.79884
G3 F120.0 Y4.95384 I0.0 J0.0775
G1 X11.22972
G3 Y4.79884 I0.0 J-0.0775
G1 X14.72972
G1 F75.0 Y4.74884
G3 F120.0 Y5.00384 I0.0 J0.1275
G1 X11.22972
G3 Y4.74884 I0.0 J-0.1275
G1 X14.72972
G1 F75.0 Y4.69884
G3 F120.0 Y5.05384 I0.0 J0.1775
G1 X11.22972
G3 Y4.69884 I0.0 J-0.1775
G1 X14.72972
G0 Z0.25
G0 X14.70137 Y4.84884
G1 F75.0 Z-0.245
G1 F120.0 X14.72972 Z-0.25
G3 Y4.90384 I0.0 J0.0275
G1 X11.22972
G3 Y4.84884 I0.0 J-0.0275
G1 X14.72972
G1 F75.0 Y4.79884
G3 F120.0 Y4.95384 I0.0 J0.0775
G1 X11.22972
G3 Y4.79884 I0.0 J-0.0775
G1 X14.72972
G1 F75.0 Y4.74884
G3 F120.0 Y5.00384 I0.0 J0.1275
G1 X11.22972
G3 Y4.74884 I0.0 J-0.1275
G1 X14.72972
G1 F75.0 Y4.69884
G3 F120.0 Y5.05384 I0.0 J0.1775
G1 X11.22972
G3 Y4.69884 I0.0 J-0.1775
G1 X14.72972
G1 F75.0 Y4.68884
G3 F120.0 Y5.06384 I0.0 J0.1875
G1 X11.22972
G3 Y4.68884 I0.0 J-0.1875
G1 X14.72972
( SlotsThru )
S2000
G0 Z0.25
G0 X11.79685 Y4.90084
G1 F75.0 Z0.0
G1 F120.0 X11.22972 Z-0.1
G3 Y4.85184 I0.0 J-0.0245
G1 X14.72972
G3 Y4.90084 I0.0 J0.0245
G1 X11.22972
G0 Z0.25
G0 X11.79685 Y2.40084
G1 F75.0 Z0.0
G1 F120.0 X11.22972 Z-0.1
G3 Y2.35184 I0.0 J-0.0245
G1 X14.72972
G3 Y2.40084 I0.0 J0.0245
G1 X11.22972
G0 Z0.25
G0 X11.79685
G1 F75.0 Z-0.1
G1 F120.0 X11.22972 Z-0.2
G3 Y2.35184 I0.0 J-0.0245
G1 X14.72972
G3 Y2.40084 I0.0 J0.0245
G1 X11.22972
G0 Z0.25
G0 X11.71988 Y4.90084
G1 F75.0 Z-0.1
G1 F120.0 X11.22972 Z-0.18643
G3 Y4.85184 Z-0.2 I0.0 J-0.0245
G1 X14.72972
G3 Y4.90084 I0.0 J0.0245
G1 X11.22972
G3 Y4.85184 I0.0 J-0.0245
G0 Z0.25
G0 X11.71988 Y4.90084
G1 F75.0 Z-0.2
G1 F120.0 X11.22972 Z-0.28643
G3 Y4.85184 Z-0.3 I0.0 J-0.0245
G1 X14.72972
G3 Y4.90084 I0.0 J0.0245
G1 X11.22972
G3 Y4.85184 I0.0 J-0.0245
G0 Z0.25
G0 X11.79685 Y2.40084
G1 F75.0 Z-0.2
G1 F120.0 X11.22972 Z-0.3
G3 Y2.35184 I0.0 J-0.0245
G1 X14.72972
G3 Y2.40084 I0.0 J0.0245
G1 X11.22972
G0 Z0.25
G0 X11.62671
G1 F75.0 Z-0.3
G1 F120.0 X11.22972 Z-0.37
G3 Y2.35184 I0.0 J-0.0245
G1 X14.72972
G3 Y2.40084 I0.0 J0.0245
G1 X11.22972
G0 Z0.25
G0 X11.54974 Y4.90084
G1 F75.0 Z-0.3
G1 F120.0 X11.22972 Z-0.35643
G3 Y4.85184 Z-0.37 I0.0 J-0.0245
G1 X14.72972
G3 Y4.90084 I0.0 J0.0245
G1 X11.22972
G3 Y4.85184 I0.0 J-0.0245
G1 F75.0 X11.20729 Y4.8665
G3 F120.0 X11.22972 Y4.85184 Z-0.375 I0.02244 J0.00984
G1 X14.72972
G3 Y4.90084 I0.0 J0.0245
G1 X11.22972
G3 Y4.85184 I0.0 J-0.0245
G1 F75.0 Y4.84184
G1 F120.0 X14.72972
G3 Y4.91084 I0.0 J0.0345
G1 X11.22972
G3 Y4.84184 I0.0 J-0.0345
G0 Z0.25
G0 X11.25808 Y2.40084
G1 F75.0 Z-0.37
G1 F120.0 X11.22972 Z-0.375
G3 Y2.35184 I0.0 J-0.0245
G1 X14.72972
G3 Y2.40084 I0.0 J0.0245
G1 X11.22972
G1 F75.0 Y2.41084
G3 F120.0 Y2.34184 I0.0 J-0.0345
G1 X14.72972
G3 Y2.41084 I0.0 J0.0345
G1 X11.22972
( RoughInnerPocket )
S2000
G0 Z0.25
G0 X2.92185 Y3.80384
G1 F75.0 Z0.0
G1 F120.0 X2.35472 Z-0.1
G3 X2.30222 Y3.75134 I0.0 J-0.0525
G1 Y1.00134
G3 X2.35472 Y0.94884 I0.0525 J0.0
G1 X10.10472
G3 X10.15722 Y1.00134 I0.0 J0.0525
G1 Y3.75134
G3 X10.10472 Y3.80384 I-0.0525 J0.0
G1 X2.35472
G0 Z0.25
G0 X2.92185
G1 F75.0 Z-0.1
G1 F120.0 X2.35472 Z-0.2
G3 X2.30222 Y3.75134 I0.0 J-0.0525
G1 Y1.00134
G3 X2.35472 Y0.94884 I0.0525 J0.0
G1 X10.10472
G3 X10.15722 Y1.00134 I0.0 J0.0525
G1 Y3.75134
G3 X10.10472 Y3.80384 I-0.0525 J0.0
G1 X2.35472
G0 Z0.25
G0 X2.92185
G1 F75.0 Z-0.2
G1 F120.0 X2.35472 Z-0.3
G3 X2.30222 Y3.75134 I0.0 J-0.0525
G1 Y1.00134
G3 X2.35472 Y0.94884 I0.0525 J0.0
G1 X10.10472
G3 X10.15722 Y1.00134 I0.0 J0.0525
G1 Y3.75134
G3 X10.10472 Y3.80384 I-0.0525 J0.0
G1 X2.35472
G0 Z0.25
G0 X2.66664
G1 F75.0 Z-0.3
G1 F120.0 X2.35472 Z-0.355
G3 X2.30222 Y3.75134 I0.0 J-0.0525
G1 Y1.00134
G3 X2.35472 Y0.94884 I0.0525 J0.0
G1 X10.10472
G3 X10.15722 Y1.00134 I0.0 J0.0525
G1 Y3.75134
G3 X10.10472 Y3.80384 I-0.0525 J0.0
G1 X2.35472
G1 F75.0 X2.41144
G1 F120.0 X2.35472 Z-0.365
G3 X2.30222 Y3.75134 I0.0 J-0.0525
G1 Y1.00134
G3 X2.35472 Y0.94884 I0.0525 J0.0
G1 X10.10472
G3 X10.15722 Y1.00134 I0.0 J0.0525
G1 Y3.75134
G3 X10.10472 Y3.80384 I-0.0525 J0.0
G1 X2.35472
( FinishInnerPocket )
S2000
G0 Z0.25
G0 X4.48145 Y3.81384
G1 F75.0 Z0.0
G1 F120.0 X2.35472 Z-0.375
G3 X2.29222 Y3.75134 I0.0 J-0.0625
G1 Y1.00134
G3 X2.35472 Y0.93884 I0.0625 J0.0
G1 X10.10472
G3 X10.16722 Y1.00134 I0.0 J0.0625
G1 Y3.75134
G3 X10.10472 Y3.81384 I-0.0625 J0.0
G1 X2.35472
G1 F75.0 X2.38308
G1 F120.0 X2.35472 Z-0.38
G3 X2.29222 Y3.75134 I0.0 J-0.0625
G1 Y1.00134
G3 X2.35472 Y0.93884 I0.0625 J0.0
G1 X10.10472
G3 X10.16722 Y1.00134 I0.0 J0.0625
G1 Y3.75134
G3 X10.10472 Y3.81384 I-0.0625 J0.0
G1 X2.35472
( RoughOuterProfile )
S2000
G0 Z0.25
G0 X0.16155 Y6.85496
G1 F75.0 Z0.0
G1 F120.0 Y7.21003 Z-0.06261
G2 X0.29655 Y7.34503 Z-0.1 I0.135 J0.0
G1 X16.17155
G2 X16.30655 Y7.21003 I0.0 J-0.135
G1 Y6.27253
G2 X15.98405 Y5.95003 I-0.3225 J0.0
G1 X0.48405
G2 X0.16155 Y6.27253 I0.0 J0.3225
G1 Y7.21003
G2 X0.29655 Y7.34503 I0.135 J0.0
G0 Z0.25
G0 X0.16155 Y6.85496
G1 F75.0 Z-0.1
G1 F120.0 Y7.21003 Z-0.16261
G2 X0.29655 Y7.34503 Z-0.2 I0.135 J0.0
G1 X16.17155
G2 X16.30655 Y7.21003 I0.0 J-0.135
G1 Y6.27253
G2 X15.98405 Y5.95003 I-0.3225 J0.0
G1 X0.48405
G2 X0.16155 Y6.27253 I0.0 J0.3225
G1 Y7.21003
G2 X0.29655 Y7.34503 I0.135 J0.0
G0 Z0.25
G0 X0.16155 Y6.85496
G1 F75.0 Z-0.2
G1 F120.0 Y7.21003 Z-0.26261
G2 X0.29655 Y7.34503 Z-0.3 I0.135 J0.0
G1 X16.17155
G2 X16.30655 Y7.21003 I0.0 J-0.135
G1 Y6.27253
G2 X15.98405 Y5.95003 I-0.3225 J0.0
G1 X0.48405
G2 X0.16155 Y6.27253 I0.0 J0.3225
G1 Y7.21003
G2 X0.29655 Y7.34503 I0.135 J0.0
G0 Z0.25
G0 X0.16155 Y7.13853
G1 F75.0 Z-0.3
G1 F120.0 Y7.21003 Z-0.31261
G2 X0.29655 Y7.34503 Z-0.35 I0.135 J0.0
G1 X16.17155
G2 X16.30655 Y7.21003 I0.0 J-0.135
G1 Y6.27253
G2 X15.98405 Y5.95003 I-0.3225 J0.0
G1 X0.48405
G2 X0.16155 Y6.27253 I0.0 J0.3225
G1 Y7.21003
G2 X0.29655 Y7.34503 I0.135 J0.0
G1 F75.0 X0.217 Y7.31911
G2 F120.0 X0.29655 Y7.34503 Z-0.365 I0.07955 J-0.10907
G1 X16.17155
G2 X16.30655 Y7.21003 I0.0 J-0.135
G1 Y6.27253
G2 X15.98405 Y5.95003 I-0.3225 J0.0
G1 X0.48405
G2 X0.16155 Y6.27253 I0.0 J0.3225
G1 Y7.21003
G2 X0.29655 Y7.34503 I0.135 J0.0
G0 Z0.25
G0 X0.15722 Y5.03923
G1 F75.0 Z0.0
G1 F120.0 Y5.12634 Z-0.01536
G2 X0.45319 Y5.44774 Z-0.1 I0.3225 J0.0
G2 X0.47972 Y5.44884 I0.02653 J-0.32141
G1 X15.97972
G2 X16.30222 Y5.12634 I0.0 J-0.3225
G1 Y0.43884
G2 X16.16722 Y0.30384 I-0.135 J0.0
G1 X0.29222
G2 X0.15722 Y0.43884 I0.0 J0.135
G1 Y5.12634
G2 X0.45319 Y5.44774 I0.3225 J0.0
G0 Z0.25
G0 X0.15722 Y5.03923
G1 F75.0 Z-0.1
G1 F120.0 Y5.12634 Z-0.11536
G2 X0.45319 Y5.44774 Z-0.2 I0.3225 J0.0
G2 X0.47972 Y5.44884 I0.02653 J-0.32141
G1 X15.97972
G2 X16.30222 Y5.12634 I0.0 J-0.3225
G1 Y0.43884
G2 X16.16722 Y0.30384 I-0.135 J0.0
G1 X0.29222
G2 X0.15722 Y0.43884 I0.0 J0.135
G1 Y5.12634
G2 X0.45319 Y5.44774 I0.3225 J0.0
G0 Z0.25
G0 X0.15722 Y5.03923
G1 F75.0 Z-0.2
G1 F120.0 Y5.12634 Z-0.21536
G2 X0.45319 Y5.44774 Z-0.3 I0.3225 J0.0
G2 X0.47972 Y5.44884 I0.02653 J-0.32141
G1 X15.97972
G2 X16.30222 Y5.12634 I0.0 J-0.3225
G1 Y0.43884
G2 X16.16722 Y0.30384 I-0.135 J0.0
G1 X0.29222
G2 X0.15722 Y0.43884 I0.0 J0.135
G1 Y5.12634
G2 X0.45319 Y5.44774 I0.3225 J0.0
G0 Z0.25
G0 X0.21523 Y5.31086
G1 F75.0 Z-0.3
G2 F120.0 X0.45319 Y5.44774 Z-0.35 I0.26449 J-0.18453
G2 X0.47972 Y5.44884 I0.02653 J-0.32141
G1 X15.97972
G2 X16.30222 Y5.12634 I0.0 J-0.3225
G1 Y0.43884
G2 X16.16722 Y0.30384 I-0.135 J0.0
G1 X0.29222
G2 X0.15722 Y0.43884 I0.0 J0.135
G1 Y5.12634
G2 X0.45319 Y5.44774 I0.3225 J0.0
G1 F75.0 X0.3703 Y5.42971
G2 F120.0 X0.45319 Y5.44774 Z-0.365 I0.10942 J-0.30337
G2 X0.47972 Y5.44884 I0.02653 J-0.32141
G1 X15.97972
G2 X16.30222 Y5.12634 I0.0 J-0.3225
G1 Y0.43884
G2 X16.16722 Y0.30384 I-0.135 J0.0
G1 X0.29222
G2 X0.15722 Y0.43884 I0.0 J0.135
G1 Y5.12634
G2 X0.45319 Y5.44774 I0.3225 J0.0
( FinishOuterProfiles )
S2000
G0 Z0.25
G0 X1.01441 Y5.96003
G1 F75.0 Z0.0
G1 F120.0 X0.48405 Z-0.09352
G2 X0.17155 Y6.27253 Z-0.18007 I0.0 J0.3125
G1 Y7.21003 Z-0.34538
G2 X0.29655 Y7.33503 Z-0.38 I0.125 J0.0
G1 X16.17155
G2 X16.29655 Y7.21003 I0.0 J-0.125
G1 Y6.27253
G2 X15.98405 Y5.96003 I-0.3125 J0.0
G1 X0.48405
G2 X0.17155 Y6.27253 I0.0 J0.3125
G1 Y7.21003
G2 X0.29655 Y7.33503 I0.125 J0.0
G0 Z0.25
G0 X0.16722 Y3.43627
G1 F75.0 Z0.0
G1 F120.0 Y5.12634 Z-0.29801
G2 X0.45389 Y5.43777 Z-0.38 I0.3125 J0.0
G2 X0.47972 Y5.43884 I0.02583 J-0.31143
G1 X15.97972
G2 X16.29222 Y5.12634 I0.0 J-0.3125
G1 Y0.43884
G2 X16.16722 Y0.31384 I-0.125 J0.0
G1 X0.29222
G2 X0.16722 Y0.43884 I0.0 J0.125
G1 Y5.12634
G2 X0.45389 Y5.43777 I0.3125 J0.0
G0 Z0.25
M5
M30
