( Made using CamBam - http://www.cambam.co.uk )
( combinedparts 8/21/2010 3:57:28 PM )
( T0 : 0.125 )
( x,y = 0,0 is at bottom left corner. z=0 is at stock surface )
( position hold-downs at these locations x=0.5, x=15.75, y=0,y=8)
G20
G90
G64
M03 
G00 Z0.1
F130


( HoleCounterSinks )
G17
M3 S0
G0 X0.95323 Y6.99113
G1 F100.0 Z0.0
G2 F130.0 X0.96205 Y7.06064 Z-0.0468 I0.03082 J0.03141
G2 X1.02805 Y7.02253 Z-0.1 I0.022 J-0.03811
G2 X0.96205 Y6.98443 I-0.044 J0.0
G2 Y7.06064 I0.022 J0.03811
G2 X1.02805 Y7.02253 I0.022 J-0.03811
G1 F100.0 X1.07805
G2 F130.0 X0.93705 Y6.94113 I-0.094 J0.0
G2 Y7.10394 I0.047 J0.08141
G2 X1.07805 Y7.02253 I0.047 J-0.08141
G0 Z0.5
G0 X0.4807 Y6.47866
G1 F100.0 Z0.0
G2 F130.0 X0.46205 Y6.48443 Z-0.01136 I0.00335 J0.04387
G2 Y6.56064 Z-0.06457 I0.022 J0.03811
G2 X0.51771 Y6.55087 Z-0.1 I0.022 J-0.03811
G2 X0.52805 Y6.52253 I-0.03366 J-0.02833
G2 X0.46205 Y6.48443 I-0.044 J0.0
G2 Y6.56064 I0.022 J0.03811
G2 X0.51771 Y6.55087 I0.022 J-0.03811
G1 F100.0 X0.55596 Y6.58307
G2 F130.0 X0.57805 Y6.52253 I-0.07191 J-0.06053
G2 X0.43705 Y6.44113 I-0.094 J0.0
G2 Y6.60394 I0.047 J0.08141
G2 X0.55596 Y6.58307 I0.047 J-0.08141
G0 Z0.5
G0 X0.76409 Y4.84886
G1 F100.0 Z0.0
G2 F130.0 X0.70772 Y4.83823 Z-0.03607 I-0.03437 J0.02748
G2 Y4.91444 Z-0.08928 I0.022 J0.03811
G2 X0.72527 Y4.92011 Z-0.1 I0.022 J-0.03811
G2 X0.77372 Y4.87634 I0.00446 J-0.04377
G2 X0.70772 Y4.83823 I-0.044 J0.0
G2 Y4.91444 I0.022 J0.03811
G2 X0.72527 Y4.92011 I0.022 J-0.03811
G1 F100.0 X0.7202 Y4.96985
G2 F130.0 X0.82372 Y4.87634 I0.00952 J-0.09352
G2 X0.68272 Y4.79493 I-0.094 J0.0
G2 Y4.95774 I0.047 J0.08141
G2 X0.7202 Y4.96985 I0.047 J-0.08141
G0 Z0.5
G0 X0.76122 Y1.59561
G1 F100.0 Z0.0
G2 F130.0 X0.70772 Y1.58823 Z-0.03357 I-0.03149 J0.03073
G2 Y1.66444 Z-0.08677 I0.022 J0.03811
G2 X0.7296 Y1.67034 Z-0.1 I0.022 J-0.03811
G2 X0.77372 Y1.62634 I0.00013 J-0.044
G2 X0.70772 Y1.58823 I-0.044 J0.0
G2 Y1.66444 I0.022 J0.03811
G2 X0.7296 Y1.67034 I0.022 J-0.03811
G1 F100.0 X0.72945 Y1.72034
G2 F130.0 X0.82372 Y1.62634 I0.00027 J-0.094
G2 X0.68272 Y1.54493 I-0.094 J0.0
G2 Y1.70774 I0.047 J0.08141
G2 X0.72945 Y1.72034 I0.047 J-0.08141
G0 Z0.5
G0 X15.76073 Y1.65755
G1 F100.0 Z0.0
G2 F130.0 X15.77372 Y1.62634 Z-0.02003 I-0.03101 J-0.03121
G2 X15.70772 Y1.58823 Z-0.07324 I-0.044 J0.0
G2 X15.68572 Y1.62661 Z-0.1 I0.022 J0.03811
G2 X15.70772 Y1.66444 I0.044 J-0.00028
G2 X15.77372 Y1.62634 I0.022 J-0.03811
G2 X15.70772 Y1.58823 I-0.044 J0.0
G2 X15.68572 Y1.62661 I0.022 J0.03811
G1 F100.0 X15.63572 Y1.62693
G2 F130.0 X15.68272 Y1.70774 I0.094 J-0.00059
G2 X15.82372 Y1.62634 I0.047 J-0.08141
G2 X15.68272 Y1.54493 I-0.094 J0.0
G2 X15.63572 Y1.62693 I0.047 J0.08141
G0 Z0.5
G0 X15.69922 Y4.90805
G1 F100.0 Z0.0
G2 F130.0 X15.70772 Y4.91444 Z-0.00616 I0.0305 J-0.03171
G2 X15.77372 Y4.87634 Z-0.05936 I0.022 J-0.03811
G2 X15.72845 Y4.83236 Z-0.1 I-0.044 J0.0
G2 X15.70772 Y4.83823 I0.00127 J0.04398
G2 Y4.91444 I0.022 J0.03811
G2 X15.77372 Y4.87634 I0.022 J-0.03811
G2 X15.72845 Y4.83236 I-0.044 J0.0
G1 F100.0 X15.727 Y4.78238
G2 F130.0 X15.68272 Y4.79493 I0.00272 J0.09396
G2 Y4.95774 I0.047 J0.08141
G2 X15.82372 Y4.87634 I0.047 J-0.08141
G2 X15.727 Y4.78238 I-0.094 J0.0
G0 Z0.5
G0 X15.95748 Y6.55761
G1 F100.0 Z0.0
G2 F130.0 X15.96205 Y6.56064 Z-0.00317 I0.02657 J-0.03507
G2 X16.02805 Y6.52253 Z-0.05637 I0.022 J-0.03811
G2 X15.97762 Y6.47901 Z-0.1 I-0.044 J0.0
G2 X15.96205 Y6.48443 I0.00643 J0.04353
G2 Y6.56064 I0.022 J0.03811
G2 X16.02805 Y6.52253 I0.022 J-0.03811
G2 X15.97762 Y6.47901 I-0.044 J0.0
G1 F100.0 X15.97031 Y6.42954
G2 F130.0 X15.93705 Y6.44113 I0.01374 J0.09299
G2 Y6.60394 I0.047 J0.08141
G2 X16.07805 Y6.52253 I0.047 J-0.08141
G2 X15.97031 Y6.42954 I-0.094 J0.0
G0 Z0.5
G0 X15.44022 Y7.02645
G1 F100.0 Z0.0
G2 F130.0 X15.46205 Y7.06064 Z-0.02434 I0.04383 J-0.00391
G2 X15.52805 Y7.02253 Z-0.07754 I0.022 J-0.03811
G2 X15.51195 Y6.98851 Z-0.1 I-0.044 J0.0
G2 X15.46205 Y6.98443 I-0.0279 J0.03402
G2 Y7.06064 I0.022 J0.03811
G2 X15.52805 Y7.02253 I0.022 J-0.03811
G2 X15.51195 Y6.98851 I-0.044 J0.0
G1 F100.0 X15.54365 Y6.94985
G2 F130.0 X15.43705 Y6.94113 I-0.0596 J0.07269
G2 Y7.10394 I0.047 J0.08141
G2 X15.57805 Y7.02253 I0.047 J-0.08141
G2 X15.54365 Y6.94985 I-0.094 J0.0
G0 Z0.5
G0 X15.45271 Y7.05342
G1 F100.0 Z-0.1
G2 F130.0 X15.46205 Y7.06064 Z-0.10684 I0.03134 J-0.03088
G2 X15.52805 Y7.02253 Z-0.16004 I0.022 J-0.03811
G2 X15.51195 Y6.98851 Z-0.1825 I-0.044 J0.0
G2 X15.46205 Y6.98443 I-0.0279 J0.03402
G2 Y7.06064 I0.022 J0.03811
G2 X15.52805 Y7.02253 I0.022 J-0.03811
G2 X15.51195 Y6.98851 I-0.044 J0.0
G1 F100.0 X15.54365 Y6.94985
G2 F130.0 X15.43705 Y6.94113 I-0.0596 J0.07269
G2 Y7.10394 I0.047 J0.08141
G2 X15.57805 Y7.02253 I0.047 J-0.08141
G2 X15.54365 Y6.94985 I-0.094 J0.0
G0 Z0.5
G0 X16.01869 Y6.49541
G1 F100.0 Z-0.1
G2 F130.0 X15.96205 Y6.48443 Z-0.13633 I-0.03464 J0.02713
G2 X15.95247 Y6.55317 Z-0.1825 I0.022 J0.03811
G2 X15.96205 Y6.56064 I0.03158 J-0.03064
G2 X16.02805 Y6.52253 I0.022 J-0.03811
G2 X15.96205 Y6.48443 I-0.044 J0.0
G2 X15.95247 Y6.55317 I0.022 J0.03811
G1 F100.0 X15.91659 Y6.58799
G2 F130.0 X15.93705 Y6.60394 I0.06746 J-0.06546
G2 X16.07805 Y6.52253 I0.047 J-0.08141
G2 X15.93705 Y6.44113 I-0.094 J0.0
G2 X15.91659 Y6.58799 I0.047 J0.08141
G0 Z0.5
G0 X15.7296 Y4.83234
G1 F100.0 Z-0.1
G2 F130.0 X15.70772 Y4.83823 Z-0.11323 I0.00012 J0.044
G2 Y4.91444 Z-0.16644 I0.022 J0.03811
G2 X15.7345 Y4.92008 Z-0.1825 I0.022 J-0.03811
G2 X15.77372 Y4.87634 I-0.00478 J-0.04374
G2 X15.70772 Y4.83823 I-0.044 J0.0
G2 Y4.91444 I0.022 J0.03811
G2 X15.7345 Y4.92008 I0.022 J-0.03811
G1 F100.0 X15.73992 Y4.96978
G2 F130.0 X15.82372 Y4.87634 I-0.0102 J-0.09344
G2 X15.68272 Y4.79493 I-0.094 J0.0
G2 Y4.95774 I0.047 J0.08141
G2 X15.73992 Y4.96978 I0.047 J-0.08141
G0 Z0.5
G0 X15.73424 Y1.58257
G1 F100.0 Z-0.1
G2 F130.0 X15.70772 Y1.58823 Z-0.11592 I-0.00452 J0.04377
G2 Y1.66444 Z-0.16912 I0.022 J0.03811
G2 X15.72986 Y1.67034 Z-0.1825 I0.022 J-0.03811
G2 X15.77372 Y1.62634 I-0.00013 J-0.044
G2 X15.70772 Y1.58823 I-0.044 J0.0
G2 Y1.66444 I0.022 J0.03811
G2 X15.72986 Y1.67034 I0.022 J-0.03811
G1 F100.0 X15.73001 Y1.72034
G2 F130.0 X15.82372 Y1.62634 I-0.00029 J-0.094
G2 X15.68272 Y1.54493 I-0.094 J0.0
G2 Y1.70774 I0.047 J0.08141
G2 X15.73001 Y1.72034 I0.047 J-0.08141
G0 Z0.5
G0 X0.686 Y1.62141
G1 F100.0 Z-0.1
G2 F130.0 X0.70772 Y1.66444 Z-0.12945 I0.04372 J0.00493
G2 X0.77372 Y1.62661 Z-0.1825 I0.022 J-0.03811
G2 Y1.62634 I-0.044 J-0.00028
G2 X0.70772 Y1.58823 I-0.044 J0.0
G2 Y1.66444 I0.022 J0.03811
G2 X0.77372 Y1.62661 I0.022 J-0.03811
G1 F100.0 X0.82372 Y1.62693
G2 F130.0 Y1.62634 I-0.094 J-0.00059
G2 X0.68272 Y1.54493 I-0.094 J0.0
G2 Y1.70774 I0.047 J0.08141
G2 X0.82372 Y1.62693 I0.047 J-0.08141
G0 Z0.5
G0 X0.7238 Y4.91994
G1 F100.0 Z-0.1
G2 F130.0 X0.77372 Y4.87634 Z-0.14333 I0.00592 J-0.0436
G2 X0.73099 Y4.83236 Z-0.1825 I-0.044 J0.0
G2 X0.70772 Y4.83823 I-0.00127 J0.04398
G2 Y4.91444 I0.022 J0.03811
G2 X0.77372 Y4.87634 I0.022 J-0.03811
G2 X0.73099 Y4.83236 I-0.044 J0.0
G1 F100.0 X0.73244 Y4.78238
G2 F130.0 X0.68272 Y4.79493 I-0.00272 J0.09396
G2 Y4.95774 I0.047 J0.08141
G2 X0.82372 Y4.87634 I0.047 J-0.08141
G2 X0.73244 Y4.78238 I-0.094 J0.0
G0 Z0.5
G0 X0.47326 Y6.56519
G1 F100.0 Z-0.1
G2 F130.0 X0.52805 Y6.52253 Z-0.1462 I0.01079 J-0.04266
G2 X0.49027 Y6.47898 Z-0.1825 I-0.044 J0.0
G2 X0.46205 Y6.48443 I-0.00622 J0.04356
G2 Y6.56064 I0.022 J0.03811
G2 X0.52805 Y6.52253 I0.022 J-0.03811
G2 X0.49027 Y6.47898 I-0.044 J0.0
G1 F100.0 X0.49733 Y6.42948
G2 F130.0 X0.43705 Y6.44113 I-0.01328 J0.09306
G2 Y6.60394 I0.047 J0.08141
G2 X0.57805 Y6.52253 I0.047 J-0.08141
G2 X0.49733 Y6.42948 I-0.094 J0.0
G0 Z0.5
G0 X1.00821 Y7.05931
G1 F100.0 Z-0.1
G2 F130.0 X1.02805 Y7.02253 Z-0.12514 I-0.02416 J-0.03677
G2 X0.96205 Y6.98443 Z-0.17834 I-0.044 J0.0
G2 X0.95614 Y6.98852 Z-0.1825 I0.022 J0.03811
G2 X0.96205 Y7.06064 I0.02791 J0.03401
G2 X1.02805 Y7.02253 I0.022 J-0.03811
G2 X0.96205 Y6.98443 I-0.044 J0.0
G2 X0.95614 Y6.98852 I0.022 J0.03811
G1 F100.0 X0.92442 Y6.94987
G2 F130.0 X0.93705 Y7.10394 I0.05963 J0.07266
G2 X1.07805 Y7.02253 I0.047 J-0.08141
G2 X0.93705 Y6.94113 I-0.094 J0.0
G2 X0.92442 Y6.94987 I0.047 J0.08141
G1 F100.0 X0.96333 Y6.98372
G2 F130.0 X0.96205 Y6.98443 Z-0.18334 I0.02072 J0.03881
G2 X0.95614 Y6.98852 Z-0.1875 I0.022 J0.03811
G2 X0.96205 Y7.06064 I0.02791 J0.03401
G2 X1.02805 Y7.02253 I0.022 J-0.03811
G2 X0.96205 Y6.98443 I-0.044 J0.0
G2 X0.95614 Y6.98852 I0.022 J0.03811
G1 F100.0 X0.92442 Y6.94987
G2 F130.0 X0.93705 Y7.10394 I0.05963 J0.07266
G2 X1.07805 Y7.02253 I0.047 J-0.08141
G2 X0.93705 Y6.94113 I-0.094 J0.0
G2 X0.92442 Y6.94987 I0.047 J0.08141
G0 Z0.5
G0 X0.50902 Y6.55876
G1 F100.0 Z-0.1825
G2 F130.0 X0.51563 Y6.55318 Z-0.1875 I-0.02497 J-0.03623
G2 X0.52805 Y6.52253 I-0.03158 J-0.03064
G2 X0.46205 Y6.48443 I-0.044 J0.0
G2 Y6.56064 I0.022 J0.03811
G2 X0.51563 Y6.55318 I0.022 J-0.03811
G1 F100.0 X0.55151 Y6.588
G2 F130.0 X0.57805 Y6.52253 I-0.06746 J-0.06546
G2 X0.43705 Y6.44113 I-0.094 J0.0
G2 Y6.60394 I0.047 J0.08141
G2 X0.55151 Y6.588 I0.047 J-0.08141
G0 Z0.5
G0 X0.7167 Y4.91837
G1 F100.0 Z-0.1825
G2 F130.0 X0.72517 Y4.9201 Z-0.1875 I0.01303 J-0.04203
G2 X0.77372 Y4.87634 I0.00456 J-0.04376
G2 X0.70772 Y4.83823 I-0.044 J0.0
G2 Y4.91444 I0.022 J0.03811
G2 X0.72517 Y4.9201 I0.022 J-0.03811
G1 F100.0 X0.71999 Y4.96983
G2 F130.0 X0.82372 Y4.87634 I0.00973 J-0.09349
G2 X0.68272 Y4.79493 I-0.094 J0.0
G2 Y4.95774 I0.047 J0.08141
G2 X0.71999 Y4.96983 I0.047 J-0.08141
G0 Z0.5
G0 X0.72099 Y1.66946
G1 F100.0 Z-0.1825
G2 F130.0 X0.72959 Y1.67034 Z-0.1875 I0.00873 J-0.04313
G2 X0.77372 Y1.62634 I0.00013 J-0.044
G2 X0.70772 Y1.58823 I-0.044 J0.0
G2 Y1.66444 I0.022 J0.03811
G2 X0.72959 Y1.67034 I0.022 J-0.03811
G1 F100.0 X0.72945 Y1.72034
G2 F130.0 X0.82372 Y1.62634 I0.00027 J-0.094
G2 X0.68272 Y1.54493 I-0.094 J0.0
G2 Y1.70774 I0.047 J0.08141
G2 X0.72945 Y1.72034 I0.047 J-0.08141
G0 Z0.5
G0 X15.68652 Y1.618
G1 F100.0 Z-0.1825
G2 F130.0 X15.68572 Y1.62661 Z-0.1875 I0.0432 J0.00833
G2 X15.70772 Y1.66444 I0.044 J-0.00028
G2 X15.77372 Y1.62634 I0.022 J-0.03811
G2 X15.70772 Y1.58823 I-0.044 J0.0
G2 X15.68572 Y1.62661 I0.022 J0.03811
G1 F100.0 X15.63572 Y1.62693
G2 F130.0 X15.68272 Y1.70774 I0.094 J-0.00059
G2 X15.82372 Y1.62634 I0.047 J-0.08141
G2 X15.68272 Y1.54493 I-0.094 J0.0
G2 X15.63572 Y1.62693 I0.047 J0.08141
G0 Z0.5
G0 X15.73708 Y4.83296
G1 F100.0 Z-0.1825
G2 F130.0 X15.72845 Y4.83236 Z-0.1875 I-0.00735 J0.04338
G2 X15.70772 Y4.83823 I0.00127 J0.04398
G2 Y4.91444 I0.022 J0.03811
G2 X15.77372 Y4.87634 I0.022 J-0.03811
G2 X15.72845 Y4.83236 I-0.044 J0.0
G1 F100.0 X15.727 Y4.78238
G2 F130.0 X15.68272 Y4.79493 I0.00272 J0.09396
G2 Y4.95774 I0.047 J0.08141
G2 X15.82372 Y4.87634 I0.047 J-0.08141
G2 X15.727 Y4.78238 I-0.094 J0.0
G0 Z0.5
G0 X15.98626 Y6.47859
G1 F100.0 Z-0.1825
G2 F130.0 X15.97762 Y6.47901 Z-0.1875 I-0.00221 J0.04394
G2 X15.96205 Y6.48443 I0.00643 J0.04353
G2 Y6.56064 I0.022 J0.03811
G2 X16.02805 Y6.52253 I0.022 J-0.03811
G2 X15.97762 Y6.47901 I-0.044 J0.0
G1 F100.0 X15.97031 Y6.42954
G2 F130.0 X15.93705 Y6.44113 I0.01374 J0.09299
G2 Y6.60394 I0.047 J0.08141
G2 X16.07805 Y6.52253 I0.047 J-0.08141
G2 X15.97031 Y6.42954 I-0.094 J0.0
G0 Z0.5
G0 X15.51806 Y6.99462
G1 F100.0 Z-0.1825
G2 F130.0 X15.51195 Y6.98851 Z-0.1875 I-0.03401 J0.02791
G2 X15.46205 Y6.98443 I-0.0279 J0.03402
G2 Y7.06064 I0.022 J0.03811
G2 X15.52805 Y7.02253 I0.022 J-0.03811
G2 X15.51195 Y6.98851 I-0.044 J0.0
G1 F100.0 X15.54365 Y6.94985
G2 F130.0 X15.43705 Y6.94113 I-0.0596 J0.07269
G2 Y7.10394 I0.047 J0.08141
G2 X15.57805 Y7.02253 I0.047 J-0.08141
G2 X15.54365 Y6.94985 I-0.094 J0.0
( HolesThru )
S0
G0 Z0.5
G0 X1.00403 Y7.03756
G1 F100.0 Z0.0
G2 F130.0 X1.00905 Y7.02253 Z-0.00931 I-0.01998 J-0.01503
G2 X0.97155 Y7.00088 Z-0.03954 I-0.025 J0.0
G2 Y7.04419 Z-0.06977 I0.0125 J0.02165
G2 X1.00905 Y7.02253 Z-0.1 I0.0125 J-0.02165
G2 X0.97155 Y7.00088 I-0.025 J0.0
G2 Y7.04419 I0.0125 J0.02165
G2 X1.00905 Y7.02253 I0.0125 J-0.02165
G0 Z0.5
G0 X0.48815 Y6.5472
G1 F100.0 Z0.0
G2 F130.0 X0.50215 Y6.53978 Z-0.00931 I-0.0041 J-0.02466
G2 X0.50905 Y6.52253 Z-0.02029 I-0.0181 J-0.01724
G2 X0.47155 Y6.50088 Z-0.05052 I-0.025 J0.0
G2 Y6.54419 Z-0.08075 I0.0125 J0.02165
G2 X0.50215 Y6.53978 Z-0.1 I0.0125 J-0.02165
G2 X0.50905 Y6.52253 I-0.0181 J-0.01724
G2 X0.47155 Y6.50088 I-0.025 J0.0
G2 Y6.54419 I0.0125 J0.02165
G2 X0.50215 Y6.53978 I0.0125 J-0.02165
G0 Z0.5
G0 X0.71019 Y4.89113
G1 F100.0 Z0.0
G2 F130.0 X0.71747 Y4.89756 Z-0.00564 I0.01953 J-0.0148
G2 X0.7264 Y4.90061 Z-0.01112 I0.01225 J-0.02122
G2 X0.75422 Y4.87634 Z-0.03527 I0.00332 J-0.02427
G2 X0.71747 Y4.85512 Z-0.06489 I-0.0245 J0.0
G2 Y4.89756 Z-0.09452 I0.01225 J0.02122
G2 X0.7264 Y4.90061 Z-0.1 I0.01225 J-0.02122
G2 X0.75422 Y4.87634 I0.00332 J-0.02427
G2 X0.71747 Y4.85512 I-0.0245 J0.0
G2 Y4.89756 I0.01225 J0.02122
G2 X0.7264 Y4.90061 I0.01225 J-0.02122
G0 Z0.5
G0 X0.71236 Y1.64363
G1 F100.0 Z0.0
G2 F130.0 X0.71747 Y1.64756 Z-0.00373 I0.01736 J-0.01729
G2 X0.7297 Y1.65084 Z-0.01112 I0.01225 J-0.02122
G2 X0.75422 Y1.62634 Z-0.03336 I0.00002 J-0.0245
G2 X0.71747 Y1.60512 Z-0.06298 I-0.0245 J0.0
G2 Y1.64756 Z-0.09261 I0.01225 J0.02122
G2 X0.7297 Y1.65084 Z-0.1 I0.01225 J-0.02122
G2 X0.75422 Y1.62634 I0.00002 J-0.0245
G2 X0.71747 Y1.60512 I-0.0245 J0.0
G2 Y1.64756 I0.01225 J0.02122
G2 X0.7297 Y1.65084 I0.01225 J-0.02122
G0 Z0.5
G0 X15.70972 Y1.61134
G1 F100.0 Z0.0
G2 F130.0 X15.70472 Y1.62638 Z-0.00931 I0.02 J0.015
G2 X15.71722 Y1.64799 Z-0.0244 I0.025 J-0.00004
G2 X15.75472 Y1.62634 Z-0.05463 I0.0125 J-0.02165
G2 X15.71722 Y1.60469 Z-0.08486 I-0.025 J0.0
G2 X15.70472 Y1.62638 Z-0.1 I0.0125 J0.02165
G2 X15.71722 Y1.64799 I0.025 J-0.00004
G2 X15.75472 Y1.62634 I0.0125 J-0.02165
G2 X15.71722 Y1.60469 I-0.025 J0.0
G2 X15.70472 Y1.62638 I0.0125 J0.02165
G0 Z0.5
G0 X15.7446 Y4.85625
G1 F100.0 Z0.0
G2 F130.0 X15.72953 Y4.85134 Z-0.00931 I-0.01488 J0.02009
G2 X15.71722 Y4.85469 Z-0.01676 I0.00019 J0.025
G2 Y4.89799 Z-0.04699 I0.0125 J0.02165
G2 X15.75472 Y4.87634 Z-0.07722 I0.0125 J-0.02165
G2 X15.72953 Y4.85134 Z-0.1 I-0.025 J0.0
G2 X15.71722 Y4.85469 I0.00019 J0.025
G2 Y4.89799 I0.0125 J0.02165
G2 X15.75472 Y4.87634 I0.0125 J-0.02165
G2 X15.72953 Y4.85134 I-0.025 J0.0
G0 Z0.5
G0 X15.9959 Y6.50052
G1 F100.0 Z0.0
G2 F130.0 X15.98029 Y6.49782 Z-0.00931 I-0.01185 J0.02201
G2 X15.97155 Y6.50088 Z-0.01469 I0.00376 J0.02472
G2 Y6.54419 Z-0.04492 I0.0125 J0.02165
G2 X16.00905 Y6.52253 Z-0.07515 I0.0125 J-0.02165
G2 X15.98029 Y6.49782 Z-0.1 I-0.025 J0.0
G2 X15.97155 Y6.50088 I0.00376 J0.02472
G2 Y6.54419 I0.0125 J0.02165
G2 X16.00905 Y6.52253 I0.0125 J-0.02165
G2 X15.98029 Y6.49782 I-0.025 J0.0
G0 Z0.5
G0 X15.5087 Y7.01835
G1 F100.0 Z0.0
G2 F130.0 X15.50123 Y7.00437 Z-0.00931 I-0.02465 J0.00419
G2 X15.47155 Y7.00088 Z-0.0278 I-0.01718 J0.01816
G2 Y7.04419 Z-0.05803 I0.0125 J0.02165
G2 X15.50905 Y7.02253 Z-0.08826 I0.0125 J-0.02165
G2 X15.50123 Y7.00437 Z-0.1 I-0.025 J0.0
G2 X15.47155 Y7.00088 I-0.01718 J0.01816
G2 Y7.04419 I0.0125 J0.02165
G2 X15.50905 Y7.02253 I0.0125 J-0.02165
G2 X15.50123 Y7.00437 I-0.025 J0.0
G1 F100.0 X15.5087 Y7.01835
G2 F130.0 X15.50123 Y7.00437 Z-0.10931 I-0.02465 J0.00419
G2 X15.47155 Y7.00088 Z-0.1278 I-0.01718 J0.01816
G2 Y7.04419 Z-0.15803 I0.0125 J0.02165
G2 X15.50905 Y7.02253 Z-0.18826 I0.0125 J-0.02165
G2 X15.50123 Y7.00437 Z-0.2 I-0.025 J0.0
G2 X15.47155 Y7.00088 I-0.01718 J0.01816
G2 Y7.04419 I0.0125 J0.02165
G2 X15.50905 Y7.02253 I0.0125 J-0.02165
G2 X15.50123 Y7.00437 I-0.025 J0.0
G0 Z0.5
G0 X15.95929 Y6.52601
G1 F100.0 Z-0.1
G2 F130.0 X15.96635 Y6.54019 Z-0.10931 I0.02476 J-0.00347
G2 X15.97155 Y6.54419 Z-0.1131 I0.0177 J-0.01766
G2 X16.00905 Y6.52253 Z-0.14333 I0.0125 J-0.02165
G2 X15.97155 Y6.50088 Z-0.17356 I-0.025 J0.0
G2 X15.96635 Y6.54019 Z-0.2 I0.0125 J0.02165
G2 X15.97155 Y6.54419 I0.0177 J-0.01766
G2 X16.00905 Y6.52253 I0.0125 J-0.02165
G2 X15.97155 Y6.50088 I-0.025 J0.0
G2 X15.96635 Y6.54019 I0.0125 J0.02165
G0 Z0.5
G0 X15.71765 Y4.89823
G1 F100.0 Z-0.1
G2 F130.0 X15.73324 Y4.90109 Z-0.10931 I0.01207 J-0.02189
G2 X15.75472 Y4.87634 Z-0.12994 I-0.00352 J-0.02475
G2 X15.71722 Y4.85469 Z-0.16017 I-0.025 J0.0
G2 Y4.89799 Z-0.1904 I0.0125 J0.02165
G2 X15.73324 Y4.90109 Z-0.2 I0.0125 J-0.02165
G2 X15.75472 Y4.87634 I-0.00352 J-0.02475
G2 X15.71722 Y4.85469 I-0.025 J0.0
G2 Y4.89799 I0.0125 J0.02165
G2 X15.73324 Y4.90109 I0.0125 J-0.02165
G0 Z0.5
G0 X15.71471 Y1.64633
G1 F100.0 Z-0.1
G2 F130.0 X15.71722 Y1.64799 Z-0.10174 I0.01501 J-0.01999
G2 X15.72975 Y1.65134 Z-0.10931 I0.0125 J-0.02165
G2 X15.75472 Y1.62634 Z-0.13197 I-0.00003 J-0.025
G2 X15.71722 Y1.60469 Z-0.1622 I-0.025 J0.0
G2 Y1.64799 Z-0.19243 I0.0125 J0.02165
G2 X15.72975 Y1.65134 Z-0.2 I0.0125 J-0.02165
G2 X15.75472 Y1.62634 I-0.00003 J-0.025
G2 X15.71722 Y1.60469 I-0.025 J0.0
G2 Y1.64799 I0.0125 J0.02165
G2 X15.72975 Y1.65134 I0.0125 J-0.02165
G0 Z0.5
G0 X0.747 Y1.64371
G1 F100.0 Z-0.1
G2 F130.0 X0.75422 Y1.62638 Z-0.11112 I-0.01728 J-0.01737
G1 Y1.62634 Z-0.11115
G2 X0.71747 Y1.60512 Z-0.14077 I-0.0245 J0.0
G2 Y1.64756 Z-0.1704 I0.01225 J0.02122
G2 X0.75422 Y1.62638 Z-0.2 I0.01225 J-0.02122
G1 Y1.62634
G2 X0.71747 Y1.60512 I-0.0245 J0.0
G2 Y1.64756 I0.01225 J0.02122
G2 X0.75422 Y1.62638 I0.01225 J-0.02122
G0 Z0.5
G0 X0.74719 Y4.85916
G1 F100.0 Z-0.1
G2 F130.0 X0.72991 Y4.85184 Z-0.11112 I-0.01747 J0.01718
G2 X0.71747 Y4.85512 Z-0.11864 I-0.00018 J0.0245
G2 Y4.89756 Z-0.14826 I0.01225 J0.02122
G2 X0.75422 Y4.87634 Z-0.17789 I0.01225 J-0.02122
G2 X0.72991 Y4.85184 Z-0.2 I-0.0245 J0.0
G2 X0.71747 Y4.85512 I-0.00018 J0.0245
G2 Y4.89756 I0.01225 J0.02122
G2 X0.75422 Y4.87634 I0.01225 J-0.02122
G2 X0.72991 Y4.85184 I-0.0245 J0.0
G0 Z0.5
G0 X0.50183 Y6.50496
G1 F100.0 Z-0.1
G2 F130.0 X0.48769 Y6.4978 Z-0.10931 I-0.01778 J0.01758
G2 X0.47155 Y6.50088 Z-0.11898 I-0.00364 J0.02473
G2 Y6.54419 Z-0.14921 I0.0125 J0.02165
G2 X0.50905 Y6.52253 Z-0.17944 I0.0125 J-0.02165
G2 X0.48769 Y6.4978 Z-0.2 I-0.025 J0.0
G2 X0.47155 Y6.50088 I-0.00364 J0.02473
G2 Y6.54419 I0.0125 J0.02165
G2 X0.50905 Y6.52253 I0.0125 J-0.02165
G2 X0.48769 Y6.4978 I-0.025 J0.0
G0 Z0.5
G0 X0.98124 Y6.99769
G1 F100.0 Z-0.1
G2 F130.0 X0.97155 Y7.00088 Z-0.10593 I0.00281 J0.02484
G2 X0.96687 Y7.00437 Z-0.10931 I0.0125 J0.02165
G2 X0.97155 Y7.04419 Z-0.13616 I0.01718 J0.01816
G2 X1.00905 Y7.02253 Z-0.16639 I0.0125 J-0.02165
G2 X0.97155 Y7.00088 Z-0.19662 I-0.025 J0.0
G2 X0.96687 Y7.00437 Z-0.2 I0.0125 J0.02165
G2 X0.97155 Y7.04419 I0.01718 J0.01816
G2 X1.00905 Y7.02253 I0.0125 J-0.02165
G2 X0.97155 Y7.00088 I-0.025 J0.0
G2 X0.96687 Y7.00437 I0.0125 J0.02165
G1 F100.0 X0.98124 Y6.99769
G2 F130.0 X0.97155 Y7.00088 Z-0.20593 I0.00281 J0.02484
G2 X0.96687 Y7.00437 Z-0.20931 I0.0125 J0.02165
G2 X0.97155 Y7.04419 Z-0.23616 I0.01718 J0.01816
G2 X1.00905 Y7.02253 Z-0.26639 I0.0125 J-0.02165
G2 X0.97155 Y7.00088 Z-0.29662 I-0.025 J0.0
G2 X0.96687 Y7.00437 Z-0.3 I0.0125 J0.02165
G2 X0.97155 Y7.04419 I0.01718 J0.01816
G2 X1.00905 Y7.02253 I0.0125 J-0.02165
G2 X0.97155 Y7.00088 I-0.025 J0.0
G2 X0.96687 Y7.00437 I0.0125 J0.02165
G0 Z0.5
G0 X0.48757 Y6.54728
G1 F100.0 Z-0.2
G2 F130.0 X0.50175 Y6.54019 Z-0.20931 I-0.00352 J-0.02475
G2 X0.50905 Y6.52253 Z-0.22063 I-0.0177 J-0.01766
G2 X0.47155 Y6.50088 Z-0.25086 I-0.025 J0.0
G2 Y6.54419 Z-0.28109 I0.0125 J0.02165
G2 X0.50175 Y6.54019 Z-0.3 I0.0125 J-0.02165
G2 X0.50905 Y6.52253 I-0.0177 J-0.01766
G2 X0.47155 Y6.50088 I-0.025 J0.0
G2 Y6.54419 I0.0125 J0.02165
G2 X0.50175 Y6.54019 I0.0125 J-0.02165
G0 Z0.5
G0 X0.71019 Y4.89113
G1 F100.0 Z-0.2
G2 F130.0 X0.71747 Y4.89756 Z-0.20564 I0.01953 J-0.01479
G2 X0.7264 Y4.90061 Z-0.21112 I0.01225 J-0.02122
G2 X0.75422 Y4.87634 Z-0.23527 I0.00333 J-0.02427
G2 X0.71747 Y4.85512 Z-0.26489 I-0.0245 J0.0
G2 Y4.89756 Z-0.29452 I0.01225 J0.02122
G2 X0.7264 Y4.90061 Z-0.3 I0.01225 J-0.02122
G2 X0.75422 Y4.87634 I0.00333 J-0.02427
G2 X0.71747 Y4.85512 I-0.0245 J0.0
G2 Y4.89756 I0.01225 J0.02122
G2 X0.7264 Y4.90061 I0.01225 J-0.02122
G0 Z0.5
G0 X0.71236 Y1.64363
G1 F100.0 Z-0.2
G2 F130.0 X0.71747 Y1.64756 Z-0.20373 I0.01736 J-0.01729
G2 X0.7297 Y1.65084 Z-0.21112 I0.01225 J-0.02122
G2 X0.75422 Y1.62634 Z-0.23336 I0.00002 J-0.0245
G2 X0.71747 Y1.60512 Z-0.26298 I-0.0245 J0.0
G2 Y1.64756 Z-0.29261 I0.01225 J0.02122
G2 X0.7297 Y1.65084 Z-0.3 I0.01225 J-0.02122
G2 X0.75422 Y1.62634 I0.00002 J-0.0245
G2 X0.71747 Y1.60512 I-0.0245 J0.0
G2 Y1.64756 I0.01225 J0.02122
G2 X0.7297 Y1.65084 I0.01225 J-0.02122
G0 Z0.5
G0 X15.70972 Y1.61134
G1 F100.0 Z-0.2
G2 F130.0 X15.70472 Y1.62638 Z-0.20931 I0.02 J0.015
G2 X15.71722 Y1.64799 Z-0.2244 I0.025 J-0.00004
G2 X15.75472 Y1.62634 Z-0.25463 I0.0125 J-0.02165
G2 X15.71722 Y1.60469 Z-0.28486 I-0.025 J0.0
G2 X15.70472 Y1.62638 Z-0.3 I0.0125 J0.02165
G2 X15.71722 Y1.64799 I0.025 J-0.00004
G2 X15.75472 Y1.62634 I0.0125 J-0.02165
G2 X15.71722 Y1.60469 I-0.025 J0.0
G2 X15.70472 Y1.62638 I0.0125 J0.02165
G0 Z0.5
G0 X15.7446 Y4.85625
G1 F100.0 Z-0.2
G2 F130.0 X15.72953 Y4.85134 Z-0.20931 I-0.01488 J0.02009
G2 X15.71722 Y4.85469 Z-0.21676 I0.00019 J0.025
G2 Y4.89799 Z-0.24699 I0.0125 J0.02165
G2 X15.75472 Y4.87634 Z-0.27722 I0.0125 J-0.02165
G2 X15.72953 Y4.85134 Z-0.3 I-0.025 J0.0
G2 X15.71722 Y4.85469 I0.00019 J0.025
G2 Y4.89799 I0.0125 J0.02165
G2 X15.75472 Y4.87634 I0.0125 J-0.02165
G2 X15.72953 Y4.85134 I-0.025 J0.0
G0 Z0.5
G0 X15.9959 Y6.50052
G1 F100.0 Z-0.2
G2 F130.0 X15.98029 Y6.49782 Z-0.20931 I-0.01185 J0.02201
G2 X15.97155 Y6.50088 Z-0.21469 I0.00376 J0.02472
G2 Y6.54419 Z-0.24492 I0.0125 J0.02165
G2 X16.00905 Y6.52253 Z-0.27515 I0.0125 J-0.02165
G2 X15.98029 Y6.49782 Z-0.3 I-0.025 J0.0
G2 X15.97155 Y6.50088 I0.00376 J0.02472
G2 Y6.54419 I0.0125 J0.02165
G2 X16.00905 Y6.52253 I0.0125 J-0.02165
G2 X15.98029 Y6.49782 I-0.025 J0.0
G0 Z0.5
G0 X15.5087 Y7.01835
G1 F100.0 Z-0.2
G2 F130.0 X15.50123 Y7.00437 Z-0.20931 I-0.02465 J0.00419
G2 X15.47155 Y7.00088 Z-0.2278 I-0.01718 J0.01816
G2 Y7.04419 Z-0.25803 I0.0125 J0.02165
G2 X15.50905 Y7.02253 Z-0.28826 I0.0125 J-0.02165
G2 X15.50123 Y7.00437 Z-0.3 I-0.025 J0.0
G2 X15.47155 Y7.00088 I-0.01718 J0.01816
G2 Y7.04419 I0.0125 J0.02165
G2 X15.50905 Y7.02253 I0.0125 J-0.02165
G2 X15.50123 Y7.00437 I-0.025 J0.0
G1 F100.0 X15.49922 Y7.04241
G2 F130.0 X15.50905 Y7.02253 Z-0.31326 I-0.01517 J-0.01987
G2 X15.50123 Y7.00437 Z-0.325 I-0.025 J0.0
G2 X15.47155 Y7.00088 I-0.01718 J0.01816
G2 Y7.04419 I0.0125 J0.02165
G2 X15.50905 Y7.02253 I0.0125 J-0.02165
G2 X15.50123 Y7.00437 I-0.025 J0.0
G0 Z0.5
G0 X15.96946 Y6.50223
G1 F100.0 Z-0.3
G2 F130.0 X15.96635 Y6.54019 Z-0.325 I0.01459 J0.0203
G2 X15.97155 Y6.54419 I0.0177 J-0.01766
G2 X16.00905 Y6.52253 I0.0125 J-0.02165
G2 X15.97155 Y6.50088 I-0.025 J0.0
G2 X15.96635 Y6.54019 I0.0125 J0.02165
G0 Z0.5
G0 X15.70473 Y4.87584
G1 F100.0 Z-0.3
G2 F130.0 X15.71722 Y4.89799 Z-0.3154 I0.025 J0.0005
G2 X15.73324 Y4.90109 Z-0.325 I0.0125 J-0.02165
G2 X15.75472 Y4.87634 I-0.00352 J-0.02475
G2 X15.71722 Y4.85469 I-0.025 J0.0
G2 Y4.89799 I0.0125 J0.02165
G2 X15.73324 Y4.90109 I0.0125 J-0.02165
G0 Z0.5
G0 X15.70504 Y1.62235
G1 F100.0 Z-0.3
G2 F130.0 X15.71722 Y1.64799 Z-0.31743 I0.02468 J0.00399
G2 X15.72975 Y1.65134 Z-0.325 I0.0125 J-0.02165
G2 X15.75472 Y1.62634 I-0.00003 J-0.025
G2 X15.71722 Y1.60469 I-0.025 J0.0
G2 Y1.64799 I0.0125 J0.02165
G2 X15.72975 Y1.65134 I0.0125 J-0.02165
G0 Z0.5
G0 X0.7249 Y1.65036
G1 F100.0 Z-0.3
G2 F130.0 X0.75422 Y1.62638 Z-0.325 I0.00483 J-0.02402
G1 Y1.62634
G2 X0.71747 Y1.60512 I-0.0245 J0.0
G2 Y1.64756 I0.01225 J0.02122
G2 X0.75422 Y1.62638 I0.01225 J-0.02122
G0 Z0.5
G0 X0.75371 Y4.8813
G1 F100.0 Z-0.3
G2 F130.0 X0.75422 Y4.87634 Z-0.30289 I-0.02399 J-0.00497
G2 X0.72991 Y4.85184 Z-0.325 I-0.0245 J0.0
G2 X0.71747 Y4.85512 I-0.00018 J0.0245
G2 Y4.89756 I0.01225 J0.02122
G2 X0.75422 Y4.87634 I0.01225 J-0.02122
G2 X0.72991 Y4.85184 I-0.0245 J0.0
G0 Z0.5
G0 X0.50788 Y6.5301
G1 F100.0 Z-0.3
G2 F130.0 X0.50905 Y6.52253 Z-0.30444 I-0.02383 J-0.00756
G2 X0.48769 Y6.4978 Z-0.325 I-0.025 J0.0
G2 X0.47155 Y6.50088 I-0.00364 J0.02473
G2 Y6.54419 I0.0125 J0.02165
G2 X0.50905 Y6.52253 I0.0125 J-0.02165
G2 X0.48769 Y6.4978 I-0.025 J0.0
G0 Z0.5
G0 X1.00473 Y7.00849
G1 F100.0 Z-0.3
G2 F130.0 X0.97155 Y7.00088 Z-0.32162 I-0.02068 J0.01404
G2 X0.96687 Y7.00437 Z-0.325 I0.0125 J0.02165
G2 X0.97155 Y7.04419 I0.01718 J0.01816
G2 X1.00905 Y7.02253 I0.0125 J-0.02165
G2 X0.97155 Y7.00088 I-0.025 J0.0
G2 X0.96687 Y7.00437 I0.0125 J0.02165
G1 F100.0 X0.99459 Y7.04521
G2 F130.0 X1.00905 Y7.02253 Z-0.34139 I-0.01054 J-0.02267
G2 X0.97155 Y7.00088 Z-0.37162 I-0.025 J0.0
G2 X0.96687 Y7.00437 Z-0.375 I0.0125 J0.02165
G2 X0.97155 Y7.04419 I0.01718 J0.01816
G2 X1.00905 Y7.02253 I0.0125 J-0.02165
G2 X0.97155 Y7.00088 I-0.025 J0.0
G2 X0.96687 Y7.00437 I0.0125 J0.02165
G1 F100.0 X0.96 Y6.99711
G2 F130.0 X0.96655 Y7.05285 I0.02405 J0.02543
G2 X1.01905 Y7.02253 I0.0175 J-0.03031
G2 X0.96655 Y6.99222 I-0.035 J0.0
G2 X0.96 Y6.99711 I0.0175 J0.03031
G0 Z0.5
G0 X0.47285 Y6.50018
G1 F100.0 Z-0.325
G2 F130.0 X0.47155 Y6.50088 Z-0.32586 I0.0112 J0.02235
G2 Y6.54419 Z-0.35609 I0.0125 J0.02165
G2 X0.50175 Y6.54019 Z-0.375 I0.0125 J-0.02165
G2 X0.50905 Y6.52253 I-0.0177 J-0.01765
G2 X0.47155 Y6.50088 I-0.025 J0.0
G2 Y6.54419 I0.0125 J0.02165
G2 X0.50175 Y6.54019 I0.0125 J-0.02165
G1 F100.0 X0.50883 Y6.54725
G2 F130.0 X0.51905 Y6.52253 I-0.02478 J-0.02471
G2 X0.46655 Y6.49222 I-0.035 J0.0
G2 Y6.55285 I0.0175 J0.03031
G2 X0.50883 Y6.54725 I0.0175 J-0.03031
G0 Z0.5
G0 X0.74199 Y4.85513
G1 F100.0 Z-0.325
G2 F130.0 X0.71747 Y4.85512 Z-0.33983 I-0.01227 J0.0212
G2 Y4.89756 Z-0.36945 I0.01225 J0.02122
G2 X0.72651 Y4.90063 Z-0.375 I0.01225 J-0.02122
G2 X0.75422 Y4.87634 I0.00321 J-0.02429
G2 X0.71747 Y4.85512 I-0.0245 J0.0
G2 Y4.89756 I0.01225 J0.02122
G2 X0.72651 Y4.90063 I0.01225 J-0.02122
G1 F100.0 X0.7252 Y4.91054
G2 F130.0 X0.76422 Y4.87634 I0.00452 J-0.0342
G2 X0.71247 Y4.84646 I-0.0345 J0.0
G2 Y4.90622 I0.01725 J0.02988
G2 X0.7252 Y4.91054 I0.01725 J-0.02988
G0 Z0.5
G0 X0.73914 Y1.60372
G1 F100.0 Z-0.325
G2 F130.0 X0.71747 Y1.60512 Z-0.33799 I-0.00942 J0.02262
G2 Y1.64756 Z-0.36761 I0.01225 J0.02122
G2 X0.72969 Y1.65084 Z-0.375 I0.01225 J-0.02122
G2 X0.75422 Y1.62634 I0.00003 J-0.0245
G2 X0.71747 Y1.60512 I-0.0245 J0.0
G2 Y1.64756 I0.01225 J0.02122
G2 X0.72969 Y1.65084 I0.01225 J-0.02122
G1 F100.0 X0.72967 Y1.66084
G2 F130.0 X0.76422 Y1.62634 I0.00005 J-0.0345
G2 X0.71247 Y1.59646 I-0.0345 J0.0
G2 Y1.65622 I0.01725 J0.02988
G2 X0.72967 Y1.66084 I0.01725 J-0.02988
G0 Z0.5
G0 X15.75345 Y1.63421
G1 F100.0 Z-0.325
G2 F130.0 X15.75472 Y1.62634 Z-0.32962 I-0.02373 J-0.00787
G2 X15.71722 Y1.60469 Z-0.35985 I-0.025 J0.0
G2 X15.70472 Y1.6264 Z-0.375 I0.0125 J0.02165
G2 X15.71722 Y1.64799 I0.025 J-0.00006
G2 X15.75472 Y1.62634 I0.0125 J-0.02165
G2 X15.71722 Y1.60469 I-0.025 J0.0
G2 X15.70472 Y1.6264 I0.0125 J0.02165
G1 F100.0 X15.69472 Y1.62642
G2 F130.0 X15.71222 Y1.65665 I0.035 J-0.00008
G2 X15.76472 Y1.62634 I0.0175 J-0.03031
G2 X15.71222 Y1.59603 I-0.035 J0.0
G2 X15.69472 Y1.62642 I0.0175 J0.03031
G0 Z0.5
G0 X15.72205 Y4.90013
G1 F100.0 Z-0.325
G2 F130.0 X15.75472 Y4.87634 Z-0.35217 I0.00767 J-0.0238
G2 X15.72945 Y4.85134 Z-0.375 I-0.025 J0.0
G2 X15.71722 Y4.85469 I0.00027 J0.025
G2 Y4.89799 I0.0125 J0.02165
G2 X15.75472 Y4.87634 I0.0125 J-0.02165
G2 X15.72945 Y4.85134 I-0.025 J0.0
G1 F100.0 X15.72935 Y4.84134
G2 F130.0 X15.71222 Y4.84603 I0.00038 J0.035
G2 Y4.90665 I0.0175 J0.03031
G2 X15.76472 Y4.87634 I0.0175 J-0.03031
G2 X15.72935 Y4.84134 I-0.035 J0.0
G0 Z0.5
G0 X15.97977 Y6.54716
G1 F100.0 Z-0.325
G2 F130.0 X16.00905 Y6.52253 Z-0.35016 I0.00428 J-0.02463
G2 X15.9803 Y6.49782 Z-0.375 I-0.025 J0.0
G2 X15.97155 Y6.50088 I0.00374 J0.02472
G2 Y6.54419 I0.0125 J0.02165
G2 X16.00905 Y6.52253 I0.0125 J-0.02165
G2 X15.9803 Y6.49782 I-0.025 J0.0
G1 F100.0 X15.97881 Y6.48793
G2 F130.0 X15.96655 Y6.49222 I0.00524 J0.03461
G2 Y6.55285 I0.0175 J0.03031
G2 X16.01905 Y6.52253 I0.0175 J-0.03031
G2 X15.97881 Y6.48793 I-0.035 J0.0
G0 Z0.5
G0 X15.46213 Y7.03455
G1 F100.0 Z-0.325
G2 F130.0 X15.47155 Y7.04419 Z-0.33288 I0.02192 J-0.01202
G2 X15.50905 Y7.02253 Z-0.36311 I0.0125 J-0.02165
G2 X15.50103 Y7.00419 Z-0.375 I-0.025 J0.0
G2 X15.47155 Y7.00088 I-0.01698 J0.01835
G2 Y7.04419 I0.0125 J0.02165
G2 X15.50905 Y7.02253 I0.0125 J-0.02165
G2 X15.50103 Y7.00419 I-0.025 J0.0
G1 F100.0 X15.50782 Y6.99685
G2 F130.0 X15.46655 Y6.99222 I-0.02377 J0.02569
G2 Y7.05285 I0.0175 J0.03031
G2 X15.51905 Y7.02253 I0.0175 J-0.03031
G2 X15.50782 Y6.99685 I-0.035 J0.0
( PinHoles )
S0
G0 Z0.1
G0 X4.73405 Y6.89753
G83 Z-0.25 Q0.1 R0.1
G83 X9.73405 Z-0.25 Q0.1 R0.1
G80
( RoughOuterProfile )
S0
G0 Z0.05
G0 X0.46975 Y7.34503
G1 F100.0 Z0.0
G1 F130.0 X0.29655 Z-0.1
G3 X0.16155 Y7.21003 I0.0 J-0.135
G1 Y6.27253
G3 X0.48405 Y5.95003 I0.3225 J0.0
G1 X15.98405
G3 X16.30655 Y6.27253 I0.0 J0.3225
G1 Y7.21003
G3 X16.17155 Y7.34503 I-0.135 J0.0
G1 X0.29655
G0 Z0.05
G0 X0.46975
G1 F100.0 Z-0.1
G1 F130.0 X0.29655 Z-0.2
G3 X0.16155 Y7.21003 I0.0 J-0.135
G1 Y6.27253
G3 X0.48405 Y5.95003 I0.3225 J0.0
G1 X15.98405
G3 X16.30655 Y6.27253 I0.0 J0.3225
G1 Y7.21003
G3 X16.17155 Y7.34503 I-0.135 J0.0
G1 X0.29655
G0 Z0.05
G0 X0.46975
G1 F100.0 Z-0.2
G1 F130.0 X0.29655 Z-0.3
G3 X0.16155 Y7.21003 I0.0 J-0.135
G1 Y6.27253
G3 X0.48405 Y5.95003 I0.3225 J0.0
G1 X15.98405
G3 X16.30655 Y6.27253 I0.0 J0.3225
G1 Y7.21003
G3 X16.17155 Y7.34503 I-0.135 J0.0
G1 X0.29655
G1 F100.0 X0.33985
G1 F130.0 X0.29655 Z-0.325
G3 X0.16155 Y7.21003 I0.0 J-0.135
G1 Y6.27253
G3 X0.48405 Y5.95003 I0.3225 J0.0
G1 X15.98405
G3 X16.30655 Y6.27253 I0.0 J0.3225
G1 Y7.21003
G3 X16.17155 Y7.34503 I-0.135 J0.0
G1 X0.29655
G1 F100.0 X0.38315
G1 F130.0 X0.29655 Z-0.375
G3 X0.16155 Y7.21003 I0.0 J-0.135
G1 Y6.27253
G3 X0.48405 Y5.95003 I0.3225 J0.0
G1 X15.98405
G3 X16.30655 Y6.27253 I0.0 J0.3225
G1 Y7.21003
G3 X16.17155 Y7.34503 I-0.135 J0.0
G1 X0.29655
G0 Z0.05
G0 X0.62636 Y5.44884
G1 F100.0 Z0.0
G1 F130.0 X0.47972 Z-0.08466
G3 X0.45319 Y5.44774 Z-0.1 I0.0 J-0.3225
G3 X0.15722 Y5.12634 I0.02653 J-0.32141
G1 Y0.43884
G3 X0.29222 Y0.30384 I0.135 J0.0
G1 X16.16722
G3 X16.30222 Y0.43884 I0.0 J0.135
G1 Y5.12634
G3 X15.97972 Y5.44884 I-0.3225 J0.0
G1 X0.47972
G3 X0.45319 Y5.44774 I0.0 J-0.3225
G0 Z0.05
G0 X0.62636 Y5.44884
G1 F100.0 Z-0.1
G1 F130.0 X0.47972 Z-0.18466
G3 X0.45319 Y5.44774 Z-0.2 I0.0 J-0.3225
G3 X0.15722 Y5.12634 I0.02653 J-0.32141
G1 Y0.43884
G3 X0.29222 Y0.30384 I0.135 J0.0
G1 X16.16722
G3 X16.30222 Y0.43884 I0.0 J0.135
G1 Y5.12634
G3 X15.97972 Y5.44884 I-0.3225 J0.0
G1 X0.47972
G3 X0.45319 Y5.44774 I0.0 J-0.3225
G0 Z0.05
G0 X0.62636 Y5.44884
G1 F100.0 Z-0.2
G1 F130.0 X0.47972 Z-0.28466
G3 X0.45319 Y5.44774 Z-0.3 I0.0 J-0.3225
G3 X0.15722 Y5.12634 I0.02653 J-0.32141
G1 Y0.43884
G3 X0.29222 Y0.30384 I0.135 J0.0
G1 X16.16722
G3 X16.30222 Y0.43884 I0.0 J0.135
G1 Y5.12634
G3 X15.97972 Y5.44884 I-0.3225 J0.0
G1 X0.47972
G3 X0.45319 Y5.44774 I0.0 J-0.3225
G1 F100.0 X0.49646 Y5.44884
G1 F130.0 X0.47972 Z-0.30966
G3 X0.45319 Y5.44774 Z-0.325 I0.0 J-0.3225
G3 X0.15722 Y5.12634 I0.02653 J-0.32141
G1 Y0.43884
G3 X0.29222 Y0.30384 I0.135 J0.0
G1 X16.16722
G3 X16.30222 Y0.43884 I0.0 J0.135
G1 Y5.12634
G3 X15.97972 Y5.44884 I-0.3225 J0.0
G1 X0.47972
G3 X0.45319 Y5.44774 I0.0 J-0.3225
G1 F100.0 X0.53976 Y5.44884
G1 F130.0 X0.47972 Z-0.35966
G3 X0.45319 Y5.44774 Z-0.375 I0.0 J-0.3225
G3 X0.15722 Y5.12634 I0.02653 J-0.32141
G1 Y0.43884
G3 X0.29222 Y0.30384 I0.135 J0.0
G1 X16.16722
G3 X16.30222 Y0.43884 I0.0 J0.135
G1 Y5.12634
G3 X15.97972 Y5.44884 I-0.3225 J0.0
G1 X0.47972
G3 X0.45319 Y5.44774 I0.0 J-0.3225
( FinishOuterProfiles )
S0
G0 Z0.05
G0 X0.46975 Y7.33503
G1 F100.0 Z0.0
G1 F130.0 X0.29655 Z-0.1
G3 X0.17155 Y7.21003 I0.0 J-0.125
G1 Y6.27253
G3 X0.48405 Y5.96003 I0.3125 J0.0
G1 X15.98405
G3 X16.29655 Y6.27253 I0.0 J0.3125
G1 Y7.21003
G3 X16.17155 Y7.33503 I-0.125 J0.0
G1 X0.29655
G0 Z0.05
G0 X0.46975
G1 F100.0 Z-0.1
G1 F130.0 X0.29655 Z-0.2
G3 X0.17155 Y7.21003 I0.0 J-0.125
G1 Y6.27253
G3 X0.48405 Y5.96003 I0.3125 J0.0
G1 X15.98405
G3 X16.29655 Y6.27253 I0.0 J0.3125
G1 Y7.21003
G3 X16.17155 Y7.33503 I-0.125 J0.0
G1 X0.29655
G0 Z0.05
G0 X0.46975
G1 F100.0 Z-0.2
G1 F130.0 X0.29655 Z-0.3
G3 X0.17155 Y7.21003 I0.0 J-0.125
G1 Y6.27253
G3 X0.48405 Y5.96003 I0.3125 J0.0
G1 X15.98405
G3 X16.29655 Y6.27253 I0.0 J0.3125
G1 Y7.21003
G3 X16.17155 Y7.33503 I-0.125 J0.0
G1 X0.29655
G1 F100.0 X0.33985
G1 F130.0 X0.29655 Z-0.325
G3 X0.17155 Y7.21003 I0.0 J-0.125
G1 Y6.27253
G3 X0.48405 Y5.96003 I0.3125 J0.0
G1 X15.98405
G3 X16.29655 Y6.27253 I0.0 J0.3125
G1 Y7.21003
G3 X16.17155 Y7.33503 I-0.125 J0.0
G1 X0.29655
G1 F100.0 X0.38315
G1 F130.0 X0.29655 Z-0.375
G3 X0.17155 Y7.21003 I0.0 J-0.125
G1 Y6.27253
G3 X0.48405 Y5.96003 I0.3125 J0.0
G1 X15.98405
G3 X16.29655 Y6.27253 I0.0 J0.3125
G1 Y7.21003
G3 X16.17155 Y7.33503 I-0.125 J0.0
G1 X0.29655
G0 Z0.05
G0 X0.62707 Y5.43884
G1 F100.0 Z0.0
G1 F130.0 X0.47972 Z-0.08507
G3 X0.45389 Y5.43777 Z-0.1 I0.0 J-0.3125
G3 X0.16722 Y5.12634 I0.02583 J-0.31143
G1 Y0.43884
G3 X0.29222 Y0.31384 I0.125 J0.0
G1 X16.16722
G3 X16.29222 Y0.43884 I0.0 J0.125
G1 Y5.12634
G3 X15.97972 Y5.43884 I-0.3125 J0.0
G1 X0.47972
G3 X0.45389 Y5.43777 I0.0 J-0.3125
G0 Z0.05
G0 X0.62707 Y5.43884
G1 F100.0 Z-0.1
G1 F130.0 X0.47972 Z-0.18507
G3 X0.45389 Y5.43777 Z-0.2 I0.0 J-0.3125
G3 X0.16722 Y5.12634 I0.02583 J-0.31143
G1 Y0.43884
G3 X0.29222 Y0.31384 I0.125 J0.0
G1 X16.16722
G3 X16.29222 Y0.43884 I0.0 J0.125
G1 Y5.12634
G3 X15.97972 Y5.43884 I-0.3125 J0.0
G1 X0.47972
G3 X0.45389 Y5.43777 I0.0 J-0.3125
G0 Z0.05
G0 X0.62707 Y5.43884
G1 F100.0 Z-0.2
G1 F130.0 X0.47972 Z-0.28507
G3 X0.45389 Y5.43777 Z-0.3 I0.0 J-0.3125
G3 X0.16722 Y5.12634 I0.02583 J-0.31143
G1 Y0.43884
G3 X0.29222 Y0.31384 I0.125 J0.0
G1 X16.16722
G3 X16.29222 Y0.43884 I0.0 J0.125
G1 Y5.12634
G3 X15.97972 Y5.43884 I-0.3125 J0.0
G1 X0.47972
G3 X0.45389 Y5.43777 I0.0 J-0.3125
G1 F100.0 X0.49717 Y5.43884
G1 F130.0 X0.47972 Z-0.31007
G3 X0.45389 Y5.43777 Z-0.325 I0.0 J-0.3125
G3 X0.16722 Y5.12634 I0.02583 J-0.31143
G1 Y0.43884
G3 X0.29222 Y0.31384 I0.125 J0.0
G1 X16.16722
G3 X16.29222 Y0.43884 I0.0 J0.125
G1 Y5.12634
G3 X15.97972 Y5.43884 I-0.3125 J0.0
G1 X0.47972
G3 X0.45389 Y5.43777 I0.0 J-0.3125
G1 F100.0 X0.54047 Y5.43884
G1 F130.0 X0.47972 Z-0.36007
G3 X0.45389 Y5.43777 Z-0.375 I0.0 J-0.3125
G3 X0.16722 Y5.12634 I0.02583 J-0.31143
G1 Y0.43884
G3 X0.29222 Y0.31384 I0.125 J0.0
G1 X16.16722
G3 X16.29222 Y0.43884 I0.0 J0.125
G1 Y5.12634
G3 X15.97972 Y5.43884 I-0.3125 J0.0
G1 X0.47972
G3 X0.45389 Y5.43777 I0.0 J-0.3125
( RoughInnerPocket )
S0
G0 Z0.05
G0 X2.30222 Y3.6606
G1 F100.0 Z0.0
G1 F130.0 Y3.75134 Z-0.05239
G2 X2.35472 Y3.80384 Z-0.1 I0.0525 J0.0
G1 X10.10472
G2 X10.15722 Y3.75134 I0.0 J-0.0525
G1 Y1.00134
G2 X10.10472 Y0.94884 I-0.0525 J0.0
G1 X2.35472
G2 X2.30222 Y1.00134 I0.0 J0.0525
G1 Y3.75134
G2 X2.35472 Y3.80384 I0.0525 J0.0
G0 Z0.05
G0 X2.30222 Y3.6606
G1 F100.0 Z-0.1
G1 F130.0 Y3.75134 Z-0.15239
G2 X2.35472 Y3.80384 Z-0.2 I0.0525 J0.0
G1 X10.10472
G2 X10.15722 Y3.75134 I0.0 J-0.0525
G1 Y1.00134
G2 X10.10472 Y0.94884 I-0.0525 J0.0
G1 X2.35472
G2 X2.30222 Y1.00134 I0.0 J0.0525
G1 Y3.75134
G2 X2.35472 Y3.80384 I0.0525 J0.0
G0 Z0.05
G0 X2.30222 Y3.6606
G1 F100.0 Z-0.2
G1 F130.0 Y3.75134 Z-0.25239
G2 X2.35472 Y3.80384 Z-0.3 I0.0525 J0.0
G1 X10.10472
G2 X10.15722 Y3.75134 I0.0 J-0.0525
G1 Y1.00134
G2 X10.10472 Y0.94884 I-0.0525 J0.0
G1 X2.35472
G2 X2.30222 Y1.00134 I0.0 J0.0525
G1 Y3.75134
G2 X2.35472 Y3.80384 I0.0525 J0.0
G0 Z0.05
G0 X2.30222 Y3.71256
G1 F100.0 Z-0.3
G1 F130.0 Y3.75134 Z-0.32239
G2 X2.35472 Y3.80384 Z-0.37 I0.0525 J0.0
G1 X10.10472
G2 X10.15722 Y3.75134 I0.0 J-0.0525
G1 Y1.00134
G2 X10.10472 Y0.94884 I-0.0525 J0.0
G1 X2.35472
G2 X2.30222 Y1.00134 I0.0 J0.0525
G1 Y3.75134
G2 X2.35472 Y3.80384 I0.0525 J0.0
G1 F100.0 X2.3461 Y3.80313
G2 F130.0 X2.35472 Y3.80384 Z-0.375 I0.00862 J-0.05179
G1 X10.10472
G2 X10.15722 Y3.75134 I0.0 J-0.0525
G1 Y1.00134
G2 X10.10472 Y0.94884 I-0.0525 J0.0
G1 X2.35472
G2 X2.30222 Y1.00134 I0.0 J0.0525
G1 Y3.75134
G2 X2.35472 Y3.80384 I0.0525 J0.0
( FinishInnerPocket )
S0
G0 Z0.05
G0 X2.29222 Y3.67631
G1 F100.0 Z0.0
G1 F130.0 Y3.75134 Z-0.04332
G2 X2.35472 Y3.81384 Z-0.1 I0.0625 J0.0
G1 X10.10472
G2 X10.16722 Y3.75134 I0.0 J-0.0625
G1 Y1.00134
G2 X10.10472 Y0.93884 I-0.0625 J0.0
G1 X2.35472
G2 X2.29222 Y1.00134 I0.0 J0.0625
G1 Y3.75134
G2 X2.35472 Y3.81384 I0.0625 J0.0
G0 Z0.05
G0 X2.29222 Y3.67631
G1 F100.0 Z-0.1
G1 F130.0 Y3.75134 Z-0.14332
G2 X2.35472 Y3.81384 Z-0.2 I0.0625 J0.0
G1 X10.10472
G2 X10.16722 Y3.75134 I0.0 J-0.0625
G1 Y1.00134
G2 X10.10472 Y0.93884 I-0.0625 J0.0
G1 X2.35472
G2 X2.29222 Y1.00134 I0.0 J0.0625
G1 Y3.75134
G2 X2.35472 Y3.81384 I0.0625 J0.0
G0 Z0.05
G0 X2.29222 Y3.67631
G1 F100.0 Z-0.2
G1 F130.0 Y3.75134 Z-0.24332
G2 X2.35472 Y3.81384 Z-0.3 I0.0625 J0.0
G1 X10.10472
G2 X10.16722 Y3.75134 I0.0 J-0.0625
G1 Y1.00134
G2 X10.10472 Y0.93884 I-0.0625 J0.0
G1 X2.35472
G2 X2.29222 Y1.00134 I0.0 J0.0625
G1 Y3.75134
G2 X2.35472 Y3.81384 I0.0625 J0.0
G0 Z0.05
G0 X2.29222 Y3.72827
G1 F100.0 Z-0.3
G1 F130.0 Y3.75134 Z-0.31332
G2 X2.35472 Y3.81384 Z-0.37 I0.0625 J0.0
G1 X10.10472
G2 X10.16722 Y3.75134 I0.0 J-0.0625
G1 Y1.00134
G2 X10.10472 Y0.93884 I-0.0625 J0.0
G1 X2.35472
G2 X2.29222 Y1.00134 I0.0 J0.0625
G1 Y3.75134
G2 X2.35472 Y3.81384 I0.0625 J0.0
G1 F100.0 X2.34609 Y3.81324
G2 F130.0 X2.35472 Y3.81384 Z-0.375 I0.00863 J-0.0619
G1 X10.10472
G2 X10.16722 Y3.75134 I0.0 J-0.0625
G1 Y1.00134
G2 X10.10472 Y0.93884 I-0.0625 J0.0
G1 X2.35472
G2 X2.29222 Y1.00134 I0.0 J0.0625
G1 Y3.75134
G2 X2.35472 Y3.81384 I0.0625 J0.0
( Slots )
S0
G0 Z0.05
G0 X14.55652 Y2.40384
G1 F100.0 Z0.0
G1 F130.0 X14.72972 Z-0.1
G2 Y2.34884 I0.0 J-0.0275
G1 X11.22972
G2 Y2.40384 I0.0 J0.0275
G1 X14.72972
G1 F100.0 Y2.45384
G2 F130.0 Y2.29884 I0.0 J-0.0775
G1 X11.22972
G2 Y2.45384 I0.0 J0.0775
G1 X14.72972
G1 F100.0 Y2.50384
G2 F130.0 Y2.24884 I0.0 J-0.1275
G1 X11.22972
G2 Y2.50384 I0.0 J0.1275
G1 X14.72972
G1 F100.0 Y2.55384
G2 F130.0 Y2.19884 I0.0 J-0.1775
G1 X11.22972
G2 Y2.55384 I0.0 J0.1775
G1 X14.72972
G0 Z0.05
G0 X14.55652 Y2.40384
G1 F100.0 Z-0.1
G1 F130.0 X14.72972 Z-0.2
G2 Y2.34884 I0.0 J-0.0275
G1 X11.22972
G2 Y2.40384 I0.0 J0.0275
G1 X14.72972
G1 F100.0 Y2.45384
G2 F130.0 Y2.29884 I0.0 J-0.0775
G1 X11.22972
G2 Y2.45384 I0.0 J0.0775
G1 X14.72972
G1 F100.0 Y2.50384
G2 F130.0 Y2.24884 I0.0 J-0.1275
G1 X11.22972
G2 Y2.50384 I0.0 J0.1275
G1 X14.72972
G1 F100.0 Y2.55384
G2 F130.0 Y2.19884 I0.0 J-0.1775
G1 X11.22972
G2 Y2.55384 I0.0 J0.1775
G1 X14.72972
G0 Z0.05
G0 X14.65178 Y2.40384
G1 F100.0 Z-0.2
G1 F130.0 X14.72972 Z-0.245
G2 Y2.34884 I0.0 J-0.0275
G1 X11.22972
G2 Y2.40384 I0.0 J0.0275
G1 X14.72972
G1 F100.0 Y2.45384
G2 F130.0 Y2.29884 I0.0 J-0.0775
G1 X11.22972
G2 Y2.45384 I0.0 J0.0775
G1 X14.72972
G1 F100.0 Y2.50384
G2 F130.0 Y2.24884 I0.0 J-0.1275
G1 X11.22972
G2 Y2.50384 I0.0 J0.1275
G1 X14.72972
G1 F100.0 Y2.55384
G2 F130.0 Y2.19884 I0.0 J-0.1775
G1 X11.22972
G2 Y2.55384 I0.0 J0.1775
G1 X14.72972
G0 Z0.05
G0 X14.72106 Y2.40384
G1 F100.0 Z-0.245
G1 F130.0 X14.72972 Z-0.25
G2 Y2.34884 I0.0 J-0.0275
G1 X11.22972
G2 Y2.40384 I0.0 J0.0275
G1 X14.72972
G1 F100.0 Y2.45384
G2 F130.0 Y2.29884 I0.0 J-0.0775
G1 X11.22972
G2 Y2.45384 I0.0 J0.0775
G1 X14.72972
G1 F100.0 Y2.50384
G2 F130.0 Y2.24884 I0.0 J-0.1275
G1 X11.22972
G2 Y2.50384 I0.0 J0.1275
G1 X14.72972
G1 F100.0 Y2.55384
G2 F130.0 Y2.19884 I0.0 J-0.1775
G1 X11.22972
G2 Y2.55384 I0.0 J0.1775
G1 X14.72972
G1 F100.0 Y2.56384
G2 F130.0 Y2.18884 I0.0 J-0.1875
G1 X11.22972
G2 Y2.56384 I0.0 J0.1875
G1 X14.72972
G0 Z0.05
G0 X14.64291 Y4.90384
G1 F100.0 Z0.0
G1 F130.0 X14.72972 Z-0.05012
G2 Y4.84884 Z-0.1 I0.0 J-0.0275
G1 X11.22972
G2 Y4.90384 I0.0 J0.0275
G1 X14.72972
G2 Y4.84884 I0.0 J-0.0275
G1 F100.0 Y4.79884
G1 F130.0 X11.22972
G2 Y4.95384 I0.0 J0.0775
G1 X14.72972
G2 Y4.79884 I0.0 J-0.0775
G1 F100.0 Y4.74884
G1 F130.0 X11.22972
G2 Y5.00384 I0.0 J0.1275
G1 X14.72972
G2 Y4.74884 I0.0 J-0.1275
G1 F100.0 Y4.69884
G1 F130.0 X11.22972
G2 Y5.05384 I0.0 J0.1775
G1 X14.72972
G2 Y4.69884 I0.0 J-0.1775
G0 Z0.05
G0 X14.64291 Y4.90384
G1 F100.0 Z-0.1
G1 F130.0 X14.72972 Z-0.15012
G2 Y4.84884 Z-0.2 I0.0 J-0.0275
G1 X11.22972
G2 Y4.90384 I0.0 J0.0275
G1 X14.72972
G2 Y4.84884 I0.0 J-0.0275
G1 F100.0 Y4.79884
G1 F130.0 X11.22972
G2 Y4.95384 I0.0 J0.0775
G1 X14.72972
G2 Y4.79884 I0.0 J-0.0775
G1 F100.0 Y4.74884
G1 F130.0 X11.22972
G2 Y5.00384 I0.0 J0.1275
G1 X14.72972
G2 Y4.74884 I0.0 J-0.1275
G1 F100.0 Y4.69884
G1 F130.0 X11.22972
G2 Y5.05384 I0.0 J0.1775
G1 X14.72972
G2 Y4.69884 I0.0 J-0.1775
G0 Z0.05
G0 X14.73804 Y4.90255
G1 F100.0 Z-0.2
G2 F130.0 X14.72972 Y4.84884 Z-0.245 I-0.00832 J-0.02621
G1 X11.22972
G2 Y4.90384 I0.0 J0.0275
G1 X14.72972
G2 Y4.84884 I0.0 J-0.0275
G1 F100.0 Y4.79884
G1 F130.0 X11.22972
G2 Y4.95384 I0.0 J0.0775
G1 X14.72972
G2 Y4.79884 I0.0 J-0.0775
G1 F100.0 Y4.74884
G1 F130.0 X11.22972
G2 Y5.00384 I0.0 J0.1275
G1 X14.72972
G2 Y4.74884 I0.0 J-0.1275
G1 F100.0 Y4.69884
G1 F130.0 X11.22972
G2 Y5.05384 I0.0 J0.1775
G1 X14.72972
G2 Y4.69884 I0.0 J-0.1775
G0 Z0.05
G0 X14.73824 Y4.85019
G1 F100.0 Z-0.245
G2 F130.0 X14.72972 Y4.84884 Z-0.25 I-0.00852 J0.02615
G1 X11.22972
G2 Y4.90384 I0.0 J0.0275
G1 X14.72972
G2 Y4.84884 I0.0 J-0.0275
G1 F100.0 Y4.79884
G1 F130.0 X11.22972
G2 Y4.95384 I0.0 J0.0775
G1 X14.72972
G2 Y4.79884 I0.0 J-0.0775
G1 F100.0 Y4.74884
G1 F130.0 X11.22972
G2 Y5.00384 I0.0 J0.1275
G1 X14.72972
G2 Y4.74884 I0.0 J-0.1275
G1 F100.0 Y4.69884
G1 F130.0 X11.22972
G2 Y5.05384 I0.0 J0.1775
G1 X14.72972
G2 Y4.69884 I0.0 J-0.1775
G1 F100.0 Y4.68884
G1 F130.0 X11.22972
G2 Y5.06384 I0.0 J0.1875
G1 X14.72972
G2 Y4.68884 I0.0 J-0.1875
( SlotsThru )
S0
G0 Z0.5
G0 X11.32596 Y4.85184
G1 F100.0 Z0.0
G1 F130.0 X11.22972 Z-0.05556
G2 Y4.90084 Z-0.1 I0.0 J0.0245
G1 X14.72972
G2 Y4.85184 I0.0 J-0.0245
G1 X11.22972
G2 Y4.90084 I0.0 J0.0245
G0 Z0.5
G0 X11.32596 Y2.35184
G1 F100.0 Z0.0
G1 F130.0 X11.22972 Z-0.05556
G2 Y2.40084 Z-0.1 I0.0 J0.0245
G1 X14.72972
G2 Y2.35184 I0.0 J-0.0245
G1 X11.22972
G2 Y2.40084 I0.0 J0.0245
G0 Z0.5
G0 X11.32596 Y2.35184
G1 F100.0 Z-0.1
G1 F130.0 X11.22972 Z-0.15556
G2 Y2.40084 Z-0.2 I0.0 J0.0245
G1 X14.72972
G2 Y2.35184 I0.0 J-0.0245
G1 X11.22972
G2 Y2.40084 I0.0 J0.0245
G0 Z0.5
G0 X11.40293 Y4.85184
G1 F100.0 Z-0.1
G1 F130.0 X11.22972 Z-0.2
G2 Y4.90084 I0.0 J0.0245
G1 X14.72972
G2 Y4.85184 I0.0 J-0.0245
G1 X11.22972
G0 Z0.5
G0 X11.40293
G1 F100.0 Z-0.2
G1 F130.0 X11.22972 Z-0.3
G2 Y4.90084 I0.0 J0.0245
G1 X14.72972
G2 Y4.85184 I0.0 J-0.0245
G1 X11.22972
G0 Z0.5
G0 X11.32596 Y2.35184
G1 F100.0 Z-0.2
G1 F130.0 X11.22972 Z-0.25556
G2 Y2.40084 Z-0.3 I0.0 J0.0245
G1 X14.72972
G2 Y2.35184 I0.0 J-0.0245
G1 X11.22972
G2 Y2.40084 I0.0 J0.0245
G1 F100.0 X11.274 Y2.35184
G1 F130.0 X11.22972 Z-0.32556
G2 Y2.40084 Z-0.37 I0.0 J0.0245
G1 X14.72972
G2 Y2.35184 I0.0 J-0.0245
G1 X11.22972
G2 Y2.40084 I0.0 J0.0245
G0 Z0.5
G0 X11.35097 Y4.85184
G1 F100.0 Z-0.3
G1 F130.0 X11.22972 Z-0.37
G2 Y4.90084 I0.0 J0.0245
G1 X14.72972
G2 Y4.85184 I0.0 J-0.0245
G1 X11.22972
G1 F100.0 X11.23838
G1 F130.0 X11.22972 Z-0.375
G2 Y4.90084 I0.0 J0.0245
G1 X14.72972
G2 Y4.85184 I0.0 J-0.0245
G1 X11.22972
G1 F100.0 Y4.84184
G2 F130.0 Y4.91084 I0.0 J0.0345
G1 X14.72972
G2 Y4.84184 I0.0 J-0.0345
G1 X11.22972
G0 Z0.5
G0 X11.22124 Y2.39932
G1 F100.0 Z-0.37
G2 F130.0 X11.22972 Y2.40084 Z-0.375 I0.00848 J-0.02299
G1 X14.72972
G2 Y2.35184 I0.0 J-0.0245
G1 X11.22972
G2 Y2.40084 I0.0 J0.0245
G1 F100.0 Y2.41084
G1 F130.0 X14.72972
G2 Y2.34184 I0.0 J-0.0345
G1 X11.22972
G2 Y2.41084 I0.0 J0.0345


G00 Z3.0
M05
M30
