( Made using CamBam - http://www.cambam.co.uk )
( combinedparts 7/23/2010 11:21:26 PM )
( T0 : 0.125 )
G20 G90 G64 G40
G0 Z1.5
( T0 : 0.125 )
T0 M6
( Profile1 )
G17
M3 S2000
G0 X-2.45345 Y5.89753
G1 F30.0 Z0.0
G1 F300.0 X-3.70345 Z-0.125
G3 X-3.82845 Y5.77253 I-3.70345 J5.77253
G1 Y4.83503
G3 X-3.51595 Y4.52253 I-3.51595 J4.83503
G1 X11.98405
G3 X12.29655 Y4.83503 I11.98405 J4.83503
G1 Y5.77253
G3 X12.17155 Y5.89753 I12.17155 J5.77253
G1 X-3.70345
G0 Z1.5
G0 X-2.45345
G1 F30.0 Z-0.125
G1 F300.0 X-3.70345 Z-0.25
G3 X-3.82845 Y5.77253 I-3.70345 J5.77253
G1 Y4.83503
G3 X-3.51595 Y4.52253 I-3.51595 J4.83503
G1 X11.98405
G3 X12.29655 Y4.83503 I11.98405 J4.83503
G1 Y5.77253
G3 X12.17155 Y5.89753 I12.17155 J5.77253
G1 X-3.70345
G0 Z1.5
G0 X-2.45345
G1 F30.0 Z-0.25
G1 F300.0 X-3.70345 Z-0.375
G3 X-3.82845 Y5.77253 I-3.70345 J5.77253
G1 Y4.83503
G3 X-3.51595 Y4.52253 I-3.51595 J4.83503
G1 X11.98405
G3 X12.29655 Y4.83503 I11.98405 J4.83503
G1 Y5.77253
G3 X12.17155 Y5.89753 I12.17155 J5.77253
G1 X-3.70345
G0 Z1.5
M5
M30
