( Made using CamBam - http://www.cambam.co.uk )
( combinedparts2 6/16/2011 2:52:50 PM )
( leaves machine tabs to avoid screwups )
( T0 : 0.125 )
G20 G90 G64 G40
G0 Z0.25
( HoleCounterSinks )
G17
M3 S2000
G0 X15.06739 Y1.26445
G1 F75.0 Z0.0
G3 F120.0 X15.02467 Y1.26689 Z-0.00799 I-0.02322 J-0.03133
G3 Y1.19934 Z-0.02239 I0.0195 J-0.03377
G3 X15.08317 Y1.23312 Z-0.03679 I0.0195 J0.03377
G3 X15.02467 Y1.26689 Z-0.05119 I-0.039 J0.0
G3 Y1.19934 Z-0.0656 I0.0195 J-0.03377
G3 X15.08317 Y1.23312 Z-0.08 I0.0195 J0.03377
G3 X15.02467 Y1.26689 I-0.039 J0.0
G3 Y1.19934 I0.0195 J-0.03377
G3 X15.08317 Y1.23312 I0.0195 J0.03377
G1 F75.0 X15.13317
G3 F120.0 X14.99967 Y1.31019 I-0.089 J0.0
G3 Y1.15604 I0.0445 J-0.07708
G3 X15.13317 Y1.23312 I0.0445 J0.07708
G1 F75.0 X15.06739 Y1.26445
G3 F120.0 X15.02467 Y1.26689 Z-0.08799 I-0.02322 J-0.03133
G3 Y1.19934 Z-0.10239 I0.0195 J-0.03377
G3 X15.08317 Y1.23312 Z-0.11679 I0.0195 J0.03377
G3 X15.02467 Y1.26689 Z-0.13119 I-0.039 J0.0
G3 Y1.19934 Z-0.1456 I0.0195 J-0.03377
G3 X15.08317 Y1.23312 Z-0.16 I0.0195 J0.03377
G3 X15.02467 Y1.26689 I-0.039 J0.0
G3 Y1.19934 I0.0195 J-0.03377
G3 X15.08317 Y1.23312 I0.0195 J0.03377
G1 F75.0 X15.13317
G3 F120.0 X14.99967 Y1.31019 I-0.089 J0.0
G3 Y1.15604 I0.0445 J-0.07708
G3 X15.13317 Y1.23312 I0.0445 J0.07708
G0 Z0.25
G0 X15.0055 Y1.23818
G1 F75.0 Z-0.16
G3 F120.0 X15.02467 Y1.19934 Z-0.1681 I0.03867 J-0.00507
G3 X15.08317 Y1.23312 Z-0.1825 I0.0195 J0.03377
G3 X15.02467 Y1.26689 I-0.039 J0.0
G3 Y1.19934 I0.0195 J-0.03377
G3 X15.08317 Y1.23312 I0.0195 J0.03377
G1 F75.0 X15.13317
G3 F120.0 X14.99967 Y1.31019 I-0.089 J0.0
G3 Y1.15604 I0.0445 J-0.07708
G3 X15.13317 Y1.23312 I0.0445 J0.07708
G1 F75.0 X15.07331 Y1.20719
G3 F120.0 X15.08317 Y1.23312 Z-0.1875 I-0.02914 J0.02592
G3 X15.02467 Y1.26689 I-0.039 J0.0
G3 Y1.19934 I0.0195 J-0.03377
G3 X15.08317 Y1.23312 I0.0195 J0.03377
G1 F75.0 X15.13317
G3 F120.0 X14.99967 Y1.31019 I-0.089 J0.0
G3 Y1.15604 I0.0445 J-0.07708
G3 X15.13317 Y1.23312 I0.0445 J0.07708
G1 F75.0 X15.13817
G3 F120.0 X14.99717 Y1.31452 I-0.094 J0.0
G3 Y1.15171 I0.047 J-0.08141
G3 X15.13817 Y1.23312 I0.047 J0.08141
G0 Z0.25
G0 X15.07616 Y4.46081
G1 F75.0 Z0.0
G3 F120.0 X15.08317 Y4.48312 Z-0.00419 I-0.03199 J0.02231
G3 X15.02467 Y4.51689 Z-0.01859 I-0.039 J0.0
G3 Y4.44934 Z-0.03299 I0.0195 J-0.03377
G3 X15.0453 Y4.44413 Z-0.03679 I0.0195 J0.03377
G3 X15.08317 Y4.48312 Z-0.0474 I-0.00113 J0.03898
G3 X15.02467 Y4.51689 Z-0.0618 I-0.039 J0.0
G3 Y4.44934 Z-0.0762 I0.0195 J-0.03377
G3 X15.0453 Y4.44413 Z-0.08 I0.0195 J0.03377
G3 X15.08317 Y4.48312 I-0.00113 J0.03898
G3 X15.02467 Y4.51689 I-0.039 J0.0
G3 Y4.44934 I0.0195 J-0.03377
G3 X15.0453 Y4.44413 I0.0195 J0.03377
G1 F75.0 X15.04674 Y4.39415
G3 F120.0 X15.13317 Y4.48312 I-0.00257 J0.08896
G3 X14.99967 Y4.56019 I-0.089 J0.0
G3 Y4.40604 I0.0445 J-0.07708
G3 X15.04674 Y4.39415 I0.0445 J0.07708
G1 F75.0 X15.07616 Y4.46081
G3 F120.0 X15.08317 Y4.48312 Z-0.08419 I-0.03199 J0.02231
G3 X15.02467 Y4.51689 Z-0.09859 I-0.039 J0.0
G3 Y4.44934 Z-0.11299 I0.0195 J-0.03377
G3 X15.0453 Y4.44413 Z-0.11679 I0.0195 J0.03377
G3 X15.08317 Y4.48312 Z-0.1274 I-0.00113 J0.03898
G3 X15.02467 Y4.51689 Z-0.1418 I-0.039 J0.0
G3 Y4.44934 Z-0.1562 I0.0195 J-0.03377
G3 X15.0453 Y4.44413 Z-0.16 I0.0195 J0.03377
G3 X15.08317 Y4.48312 I-0.00113 J0.03898
G3 X15.02467 Y4.51689 I-0.039 J0.0
G3 Y4.44934 I0.0195 J-0.03377
G3 X15.0453 Y4.44413 I0.0195 J0.03377
G1 F75.0 X15.04674 Y4.39415
G3 F120.0 X15.13317 Y4.48312 I-0.00257 J0.08896
G3 X14.99967 Y4.56019 I-0.089 J0.0
G3 Y4.40604 I0.0445 J-0.07708
G3 X15.04674 Y4.39415 I0.0445 J0.07708
G0 Z0.25
G0 X15.04812 Y4.52192
G1 F75.0 Z-0.16
G3 F120.0 X15.02467 Y4.51689 Z-0.1643 I-0.00395 J-0.0388
G3 Y4.44934 Z-0.1787 I0.0195 J-0.03377
G3 X15.0453 Y4.44413 Z-0.1825 I0.0195 J0.03377
G3 X15.08317 Y4.48312 I-0.00113 J0.03898
G3 X15.02467 Y4.51689 I-0.039 J0.0
G3 Y4.44934 I0.0195 J-0.03377
G3 X15.0453 Y4.44413 I0.0195 J0.03377
G1 F75.0 X15.04674 Y4.39415
G3 F120.0 X15.13317 Y4.48312 I-0.00257 J0.08896
G3 X14.99967 Y4.56019 I-0.089 J0.0
G3 Y4.40604 I0.0445 J-0.07708
G3 X15.04674 Y4.39415 I0.0445 J0.07708
G1 F75.0 X15.0191 Y4.45324
G3 F120.0 X15.02467 Y4.44934 Z-0.1837 I0.02507 J0.02987
G3 X15.0453 Y4.44413 Z-0.1875 I0.0195 J0.03377
G3 X15.08317 Y4.48312 I-0.00113 J0.03898
G3 X15.02467 Y4.51689 I-0.039 J0.0
G3 Y4.44934 I0.0195 J-0.03377
G3 X15.0453 Y4.44413 I0.0195 J0.03377
G1 F75.0 X15.04674 Y4.39415
G3 F120.0 X15.13317 Y4.48312 I-0.00257 J0.08896
G3 X14.99967 Y4.56019 I-0.089 J0.0
G3 Y4.40604 I0.0445 J-0.07708
G3 X15.04674 Y4.39415 I0.0445 J0.07708
G1 F75.0 X15.04689 Y4.38915
G3 F120.0 X15.13817 Y4.48312 I-0.00272 J0.09396
G3 X14.99717 Y4.56452 I-0.094 J0.0
G3 Y4.40171 I0.047 J-0.08141
G3 X15.04689 Y4.38915 I0.047 J0.08141
G0 Z0.25
G0 X15.33799 Y5.69969
G1 F75.0 Z0.0
G3 F120.0 X15.35075 Y5.72855 Z-0.00573 I-0.02623 J0.02886
G3 X15.29225 Y5.76233 Z-0.02013 I-0.039 J0.0
G3 Y5.69478 Z-0.03453 I0.0195 J-0.03377
G3 X15.30419 Y5.69029 Z-0.03679 I0.0195 J0.03377
G3 X15.35075 Y5.72855 Z-0.04894 I0.00757 J0.03826
G3 X15.29225 Y5.76233 Z-0.06334 I-0.039 J0.0
G3 Y5.69478 Z-0.07774 I0.0195 J-0.03377
G3 X15.30419 Y5.69029 Z-0.08 I0.0195 J0.03377
G3 X15.35075 Y5.72855 I0.00757 J0.03826
G3 X15.29225 Y5.76233 I-0.039 J0.0
G3 Y5.69478 I0.0195 J-0.03377
G3 X15.30419 Y5.69029 I0.0195 J0.03377
G1 F75.0 X15.29449 Y5.64124
G3 F120.0 X15.40075 Y5.72855 I0.01727 J0.08731
G3 X15.26725 Y5.80563 I-0.089 J0.0
G3 Y5.65148 I0.0445 J-0.07708
G3 X15.29449 Y5.64124 I0.0445 J0.07708
G1 F75.0 X15.33799 Y5.69969
G3 F120.0 X15.35075 Y5.72855 Z-0.08573 I-0.02623 J0.02886
G3 X15.29225 Y5.76233 Z-0.10013 I-0.039 J0.0
G3 Y5.69478 Z-0.11453 I0.0195 J-0.03377
G3 X15.30419 Y5.69029 Z-0.11679 I0.0195 J0.03377
G3 X15.35075 Y5.72855 Z-0.12894 I0.00757 J0.03826
G3 X15.29225 Y5.76233 Z-0.14334 I-0.039 J0.0
G3 Y5.69478 Z-0.15774 I0.0195 J-0.03377
G3 X15.30419 Y5.69029 Z-0.16 I0.0195 J0.03377
G3 X15.35075 Y5.72855 I0.00757 J0.03826
G3 X15.29225 Y5.76233 I-0.039 J0.0
G3 Y5.69478 I0.0195 J-0.03377
G3 X15.30419 Y5.69029 I0.0195 J0.03377
G1 F75.0 X15.29449 Y5.64124
G3 F120.0 X15.40075 Y5.72855 I0.01727 J0.08731
G3 X15.26725 Y5.80563 I-0.089 J0.0
G3 Y5.65148 I0.0445 J-0.07708
G3 X15.29449 Y5.64124 I0.0445 J0.07708
G0 Z0.25
G0 X15.32423 Y5.7655
G1 F75.0 Z-0.16
G3 F120.0 X15.29225 Y5.76233 Z-0.16584 I-0.01247 J-0.03695
G3 Y5.69478 Z-0.18024 I0.0195 J-0.03377
G3 X15.30419 Y5.69029 Z-0.1825 I0.0195 J0.03377
G3 X15.35075 Y5.72855 I0.00757 J0.03826
G3 X15.29225 Y5.76233 I-0.039 J0.0
G3 Y5.69478 I0.0195 J-0.03377
G3 X15.30419 Y5.69029 I0.0195 J0.03377
G1 F75.0 X15.29449 Y5.64124
G3 F120.0 X15.40075 Y5.72855 I0.01727 J0.08731
G3 X15.26725 Y5.80563 I-0.089 J0.0
G3 Y5.65148 I0.0445 J-0.07708
G3 X15.29449 Y5.64124 I0.0445 J0.07708
G1 F75.0 X15.28067 Y5.705
G3 F120.0 X15.29225 Y5.69478 Z-0.18524 I0.03108 J0.02355
G3 X15.30419 Y5.69029 Z-0.1875 I0.0195 J0.03377
G3 X15.35075 Y5.72855 I0.00757 J0.03826
G3 X15.29225 Y5.76233 I-0.039 J0.0
G3 Y5.69478 I0.0195 J-0.03377
G3 X15.30419 Y5.69029 I0.0195 J0.03377
G1 F75.0 X15.29449 Y5.64124
G3 F120.0 X15.40075 Y5.72855 I0.01727 J0.08731
G3 X15.26725 Y5.80563 I-0.089 J0.0
G3 Y5.65148 I0.0445 J-0.07708
G3 X15.29449 Y5.64124 I0.0445 J0.07708
G1 F75.0 X15.29352 Y5.63634
G3 F120.0 X15.40575 Y5.72855 I0.01824 J0.09221
G3 X15.26475 Y5.80996 I-0.094 J0.0
G3 Y5.64715 I0.047 J-0.08141
G3 X15.29352 Y5.63634 I0.047 J0.08141
G0 Z0.25
G0 X14.85072 Y6.23031
G1 F75.0 Z0.0
G3 F120.0 X14.79225 Y6.26233 Z-0.01409 I-0.03896 J-0.00176
G3 Y6.19478 Z-0.0285 I0.0195 J-0.03377
G3 X14.83637 Y6.1983 Z-0.03679 I0.0195 J0.03377
G3 X14.85075 Y6.22855 Z-0.0429 I-0.02461 J0.03025
G3 X14.79225 Y6.26233 Z-0.0573 I-0.039 J0.0
G3 Y6.19478 Z-0.0717 I0.0195 J-0.03377
G3 X14.83637 Y6.1983 Z-0.08 I0.0195 J0.03377
G3 X14.85075 Y6.22855 I-0.02461 J0.03025
G3 X14.79225 Y6.26233 I-0.039 J0.0
G3 Y6.19478 I0.0195 J-0.03377
G3 X14.83637 Y6.1983 I0.0195 J0.03377
G1 F75.0 X14.86792 Y6.15951
G3 F120.0 X14.90075 Y6.22855 I-0.05616 J0.06904
G3 X14.76725 Y6.30563 I-0.089 J0.0
G3 Y6.15148 I0.0445 J-0.07708
G3 X14.86792 Y6.15951 I0.0445 J0.07708
G1 F75.0 X14.85072 Y6.23031
G3 F120.0 X14.79225 Y6.26233 Z-0.09409 I-0.03896 J-0.00176
G3 Y6.19478 Z-0.1085 I0.0195 J-0.03377
G3 X14.83637 Y6.1983 Z-0.11679 I0.0195 J0.03377
G3 X14.85075 Y6.22855 Z-0.1229 I-0.02461 J0.03025
G3 X14.79225 Y6.26233 Z-0.1373 I-0.039 J0.0
G3 Y6.19478 Z-0.1517 I0.0195 J-0.03377
G3 X14.83637 Y6.1983 Z-0.16 I0.0195 J0.03377
G3 X14.85075 Y6.22855 I-0.02461 J0.03025
G3 X14.79225 Y6.26233 I-0.039 J0.0
G3 Y6.19478 I0.0195 J-0.03377
G3 X14.83637 Y6.1983 I0.0195 J0.03377
G1 F75.0 X14.86792 Y6.15951
G3 F120.0 X14.90075 Y6.22855 I-0.05616 J0.06904
G3 X14.76725 Y6.30563 I-0.089 J0.0
G3 Y6.15148 I0.0445 J-0.07708
G3 X14.86792 Y6.15951 I0.0445 J0.07708
G0 Z0.25
G0 X14.79128 Y6.26175
G1 F75.0 Z-0.16
G3 F120.0 X14.79225 Y6.19478 Z-0.1742 I0.02047 J-0.0332
G3 X14.83637 Y6.1983 Z-0.1825 I0.0195 J0.03377
G3 X14.85075 Y6.22855 I-0.02461 J0.03025
G3 X14.79225 Y6.26233 I-0.039 J0.0
G3 Y6.19478 I0.0195 J-0.03377
G3 X14.83637 Y6.1983 I0.0195 J0.03377
G1 F75.0 X14.86792 Y6.15951
G3 F120.0 X14.90075 Y6.22855 I-0.05616 J0.06904
G3 X14.76725 Y6.30563 I-0.089 J0.0
G3 Y6.15148 I0.0445 J-0.07708
G3 X14.86792 Y6.15951 I0.0445 J0.07708
G1 F75.0 X14.81003 Y6.18959
G3 F120.0 X14.83637 Y6.1983 Z-0.1875 I0.00172 J0.03896
G3 X14.85075 Y6.22855 I-0.02461 J0.03025
G3 X14.79225 Y6.26233 I-0.039 J0.0
G3 Y6.19478 I0.0195 J-0.03377
G3 X14.83637 Y6.1983 I0.0195 J0.03377
G1 F75.0 X14.86792 Y6.15951
G3 F120.0 X14.90075 Y6.22855 I-0.05616 J0.06904
G3 X14.76725 Y6.30563 I-0.089 J0.0
G3 Y6.15148 I0.0445 J-0.07708
G3 X14.86792 Y6.15951 I0.0445 J0.07708
G1 F75.0 X14.87107 Y6.15563
G3 F120.0 X14.90575 Y6.22855 I-0.05932 J0.07292
G3 X14.76475 Y6.30996 I-0.094 J0.0
G3 Y6.14715 I0.047 J-0.08141
G3 X14.87107 Y6.15563 I0.047 J0.08141
G0 Z0.25
G0 X0.80464 Y6.25976
G1 F75.0 Z0.0
G3 F120.0 X0.76175 Y6.26233 Z-0.00802 I-0.02338 J-0.03121
G3 Y6.19478 Z-0.02243 I0.0195 J-0.03377
G3 X0.82025 Y6.22835 Z-0.03679 I0.0195 J0.03377
G1 Y6.22855 Z-0.03683
G3 X0.76175 Y6.26233 Z-0.05123 I-0.039 J0.0
G3 Y6.19478 Z-0.06563 I0.0195 J-0.03377
G3 X0.82025 Y6.22835 Z-0.08 I0.0195 J0.03377
G3 Y6.22855 I-0.039 J0.0002
G3 X0.76175 Y6.26233 I-0.039 J0.0
G3 Y6.19478 I0.0195 J-0.03377
G3 X0.82025 Y6.22835 I0.0195 J0.03377
G1 F75.0 X0.87025 Y6.22809
G3 F120.0 Y6.22855 I-0.089 J0.00046
G3 X0.73675 Y6.30563 I-0.089 J0.0
G3 Y6.15148 I0.0445 J-0.07708
G3 X0.87025 Y6.22809 I0.0445 J0.07708
G1 F75.0 X0.80464 Y6.25976
G3 F120.0 X0.76175 Y6.26233 Z-0.08802 I-0.02338 J-0.03121
G3 Y6.19478 Z-0.10243 I0.0195 J-0.03377
G3 X0.82025 Y6.22835 Z-0.11679 I0.0195 J0.03377
G1 Y6.22855 Z-0.11683
G3 X0.76175 Y6.26233 Z-0.13123 I-0.039 J0.0
G3 Y6.19478 Z-0.14563 I0.0195 J-0.03377
G3 X0.82025 Y6.22835 Z-0.16 I0.0195 J0.03377
G3 Y6.22855 I-0.039 J0.0002
G3 X0.76175 Y6.26233 I-0.039 J0.0
G3 Y6.19478 I0.0195 J-0.03377
G3 X0.82025 Y6.22835 I0.0195 J0.03377
G1 F75.0 X0.87025 Y6.22809
G3 F120.0 Y6.22855 I-0.089 J0.00046
G3 X0.73675 Y6.30563 I-0.089 J0.0
G3 Y6.15148 I0.0445 J-0.07708
G3 X0.87025 Y6.22809 I0.0445 J0.07708
G0 Z0.25
G0 X0.74261 Y6.23382
G1 F75.0 Z-0.16
G3 F120.0 X0.76175 Y6.19478 Z-0.16813 I0.03864 J-0.00527
G3 X0.82025 Y6.22835 Z-0.1825 I0.0195 J0.03377
G3 Y6.22855 I-0.039 J0.0002
G3 X0.76175 Y6.26233 I-0.039 J0.0
G3 Y6.19478 I0.0195 J-0.03377
G3 X0.82025 Y6.22835 I0.0195 J0.03377
G1 F75.0 X0.87025 Y6.22809
G3 F120.0 Y6.22855 I-0.089 J0.00046
G3 X0.73675 Y6.30563 I-0.089 J0.0
G3 Y6.15148 I0.0445 J-0.07708
G3 X0.87025 Y6.22809 I0.0445 J0.07708
G1 F75.0 X0.81026 Y6.20248
G3 F120.0 X0.82025 Y6.22835 Z-0.1875 I-0.029 J0.02607
G3 Y6.22855 I-0.039 J0.0002
G3 X0.76175 Y6.26233 I-0.039 J0.0
G3 Y6.19478 I0.0195 J-0.03377
G3 X0.82025 Y6.22835 I0.0195 J0.03377
G1 F75.0 X0.87025 Y6.22809
G3 F120.0 Y6.22855 I-0.089 J0.00046
G3 X0.73675 Y6.30563 I-0.089 J0.0
G3 Y6.15148 I0.0445 J-0.07708
G3 X0.87025 Y6.22809 I0.0445 J0.07708
G1 F75.0 X0.87525 Y6.22807
G3 F120.0 Y6.22855 I-0.094 J0.00049
G3 X0.73425 Y6.30996 I-0.094 J0.0
G3 Y6.14715 I0.047 J-0.08141
G3 X0.87525 Y6.22807 I0.047 J0.08141
G0 Z0.25
G0 X0.27886 Y5.76748
G1 F75.0 Z0.0
G3 F120.0 X0.26175 Y5.76233 Z-0.00318 I0.00239 J-0.03893
G3 Y5.69478 Z-0.01758 I0.0195 J-0.03377
G3 X0.32025 Y5.72855 Z-0.03198 I0.0195 J0.03377
G3 X0.3111 Y5.75365 Z-0.03679 I-0.039 J0.0
G3 X0.26175 Y5.76233 Z-0.04639 I-0.02985 J-0.0251
G3 Y5.69478 Z-0.06079 I0.0195 J-0.03377
G3 X0.32025 Y5.72855 Z-0.07519 I0.0195 J0.03377
G3 X0.3111 Y5.75365 Z-0.08 I-0.039 J0.0
G3 X0.26175 Y5.76233 I-0.02985 J-0.0251
G3 Y5.69478 I0.0195 J-0.03377
G3 X0.32025 Y5.72855 I0.0195 J0.03377
G3 X0.3111 Y5.75365 I-0.039 J0.0
G1 F75.0 X0.34937 Y5.78583
G3 F120.0 X0.23675 Y5.80563 I-0.06812 J-0.05728
G3 Y5.65148 I0.0445 J-0.07708
G3 X0.37025 Y5.72855 I0.0445 J0.07708
G3 X0.34937 Y5.78583 I-0.089 J0.0
G1 F75.0 X0.27886 Y5.76748
G3 F120.0 X0.26175 Y5.76233 Z-0.08318 I0.00239 J-0.03893
G3 Y5.69478 Z-0.09758 I0.0195 J-0.03377
G3 X0.32025 Y5.72855 Z-0.11198 I0.0195 J0.03377
G3 X0.3111 Y5.75365 Z-0.11679 I-0.039 J0.0
G3 X0.26175 Y5.76233 Z-0.12639 I-0.02985 J-0.0251
G3 Y5.69478 Z-0.14079 I0.0195 J-0.03377
G3 X0.32025 Y5.72855 Z-0.15519 I0.0195 J0.03377
G3 X0.3111 Y5.75365 Z-0.16 I-0.039 J0.0
G3 X0.26175 Y5.76233 I-0.02985 J-0.0251
G3 Y5.69478 I0.0195 J-0.03377
G3 X0.32025 Y5.72855 I0.0195 J0.03377
G3 X0.3111 Y5.75365 I-0.039 J0.0
G1 F75.0 X0.34937 Y5.78583
G3 F120.0 X0.23675 Y5.80563 I-0.06812 J-0.05728
G3 Y5.65148 I0.0445 J-0.07708
G3 X0.37025 Y5.72855 I0.0445 J0.07708
G3 X0.34937 Y5.78583 I-0.089 J0.0
G0 Z0.25
G0 X0.2484 Y5.70754
G1 F75.0 Z-0.16
G3 F120.0 X0.26175 Y5.69478 Z-0.16329 I0.03286 J0.02101
G3 X0.32025 Y5.72855 Z-0.17769 I0.0195 J0.03377
G3 X0.3111 Y5.75365 Z-0.1825 I-0.039 J0.0
G3 X0.26175 Y5.76233 I-0.02985 J-0.0251
G3 Y5.69478 I0.0195 J-0.03377
G3 X0.32025 Y5.72855 I0.0195 J0.03377
G3 X0.3111 Y5.75365 I-0.039 J0.0
G1 F75.0 X0.34937 Y5.78583
G3 F120.0 X0.23675 Y5.80563 I-0.06812 J-0.05728
G3 Y5.65148 I0.0445 J-0.07708
G3 X0.37025 Y5.72855 I0.0445 J0.07708
G3 X0.34937 Y5.78583 I-0.089 J0.0
G1 F75.0 X0.32024 Y5.72746
G3 F120.0 X0.32025 Y5.72855 Z-0.18269 I-0.03898 J0.00109
G3 X0.3111 Y5.75365 Z-0.1875 I-0.039 J0.0
G3 X0.26175 Y5.76233 I-0.02985 J-0.0251
G3 Y5.69478 I0.0195 J-0.03377
G3 X0.32025 Y5.72855 I0.0195 J0.03377
G3 X0.3111 Y5.75365 I-0.039 J0.0
G1 F75.0 X0.34937 Y5.78583
G3 F120.0 X0.23675 Y5.80563 I-0.06812 J-0.05728
G3 Y5.65148 I0.0445 J-0.07708
G3 X0.37025 Y5.72855 I0.0445 J0.07708
G3 X0.34937 Y5.78583 I-0.089 J0.0
G1 F75.0 X0.3532 Y5.78905
G3 F120.0 X0.23425 Y5.80996 I-0.07194 J-0.0605
G3 Y5.64715 I0.047 J-0.08141
G3 X0.37525 Y5.72855 I0.047 J0.08141
G3 X0.3532 Y5.78905 I-0.094 J0.0
G0 Z0.25
G0 X0.479 Y4.50236
G1 F75.0 Z0.0
G3 F120.0 X0.49342 Y4.44934 Z-0.01075 I0.03392 J-0.01925
G3 X0.55192 Y4.48312 Z-0.02515 I0.0195 J0.03377
G3 X0.50818 Y4.52183 Z-0.03679 I-0.039 J0.0
G3 X0.49342 Y4.51689 Z-0.03956 I0.00473 J-0.03871
G3 Y4.44934 Z-0.05396 I0.0195 J-0.03377
G3 X0.55192 Y4.48312 Z-0.06836 I0.0195 J0.03377
G3 X0.50818 Y4.52183 Z-0.08 I-0.039 J0.0
G3 X0.49342 Y4.51689 I0.00473 J-0.03871
G3 Y4.44934 I0.0195 J-0.03377
G3 X0.55192 Y4.48312 I0.0195 J0.03377
G3 X0.50818 Y4.52183 I-0.039 J0.0
G1 F75.0 X0.50211 Y4.57146
G3 F120.0 X0.46842 Y4.56019 I0.0108 J-0.08834
G3 Y4.40604 I0.0445 J-0.07708
G3 X0.60192 Y4.48312 I0.0445 J0.07708
G3 X0.50211 Y4.57146 I-0.089 J0.0
G1 F75.0 X0.479 Y4.50236
G3 F120.0 X0.49342 Y4.44934 Z-0.09075 I0.03392 J-0.01925
G3 X0.55192 Y4.48312 Z-0.10515 I0.0195 J0.03377
G3 X0.50818 Y4.52183 Z-0.11679 I-0.039 J0.0
G3 X0.49342 Y4.51689 Z-0.11956 I0.00473 J-0.03871
G3 Y4.44934 Z-0.13396 I0.0195 J-0.03377
G3 X0.55192 Y4.48312 Z-0.14836 I0.0195 J0.03377
G3 X0.50818 Y4.52183 Z-0.16 I-0.039 J0.0
G3 X0.49342 Y4.51689 I0.00473 J-0.03871
G3 Y4.44934 I0.0195 J-0.03377
G3 X0.55192 Y4.48312 I0.0195 J0.03377
G3 X0.50818 Y4.52183 I-0.039 J0.0
G1 F75.0 X0.50211 Y4.57146
G3 F120.0 X0.46842 Y4.56019 I0.0108 J-0.08834
G3 Y4.40604 I0.0445 J-0.07708
G3 X0.60192 Y4.48312 I0.0445 J0.07708
G3 X0.50211 Y4.57146 I-0.089 J0.0
G0 Z0.25
G0 X0.51258 Y4.44412
G1 F75.0 Z-0.16
G3 F120.0 X0.55192 Y4.48312 Z-0.17086 I0.00034 J0.039
G3 X0.50818 Y4.52183 Z-0.1825 I-0.039 J0.0
G3 X0.49342 Y4.51689 I0.00473 J-0.03871
G3 Y4.44934 I0.0195 J-0.03377
G3 X0.55192 Y4.48312 I0.0195 J0.03377
G3 X0.50818 Y4.52183 I-0.039 J0.0
G1 F75.0 X0.50211 Y4.57146
G3 F120.0 X0.46842 Y4.56019 I0.0108 J-0.08834
G3 Y4.40604 I0.0445 J-0.07708
G3 X0.60192 Y4.48312 I0.0445 J0.07708
G3 X0.50211 Y4.57146 I-0.089 J0.0
G1 F75.0 X0.53511 Y4.51518
G3 F120.0 X0.50818 Y4.52183 Z-0.1875 I-0.02219 J-0.03207
G3 X0.49342 Y4.51689 I0.00473 J-0.03871
G3 Y4.44934 I0.0195 J-0.03377
G3 X0.55192 Y4.48312 I0.0195 J0.03377
G3 X0.50818 Y4.52183 I-0.039 J0.0
G1 F75.0 X0.50211 Y4.57146
G3 F120.0 X0.46842 Y4.56019 I0.0108 J-0.08834
G3 Y4.40604 I0.0445 J-0.07708
G3 X0.60192 Y4.48312 I0.0445 J0.07708
G3 X0.50211 Y4.57146 I-0.089 J0.0
G1 F75.0 X0.50151 Y4.57642
G3 F120.0 X0.46592 Y4.56452 I0.01141 J-0.0933
G3 Y4.40171 I0.047 J-0.08141
G3 X0.60692 Y4.48312 I0.047 J0.08141
G3 X0.50151 Y4.57642 I-0.094 J0.0
G0 Z0.25
G0 X0.48151 Y1.25623
G1 F75.0 Z0.0
G3 F120.0 X0.49342 Y1.19934 Z-0.01156 I0.03141 J-0.02312
G3 X0.55192 Y1.23312 Z-0.02597 I0.0195 J0.03377
G3 X0.51279 Y1.27212 Z-0.03679 I-0.039 J0.0
G3 X0.49342 Y1.26689 Z-0.04037 I0.00013 J-0.039
G3 Y1.19934 Z-0.05477 I0.0195 J-0.03377
G3 X0.55192 Y1.23312 Z-0.06917 I0.0195 J0.03377
G3 X0.51279 Y1.27212 Z-0.08 I-0.039 J0.0
G3 X0.49342 Y1.26689 I0.00013 J-0.039
G3 Y1.19934 I0.0195 J-0.03377
G3 X0.55192 Y1.23312 I0.0195 J0.03377
G3 X0.51279 Y1.27212 I-0.039 J0.0
G1 F75.0 X0.51262 Y1.32212
G3 F120.0 X0.46842 Y1.31019 I0.0003 J-0.089
G3 Y1.15604 I0.0445 J-0.07708
G3 X0.60192 Y1.23312 I0.0445 J0.07708
G3 X0.51262 Y1.32212 I-0.089 J0.0
G1 F75.0 X0.48151 Y1.25623
G3 F120.0 X0.49342 Y1.19934 Z-0.09156 I0.03141 J-0.02312
G3 X0.55192 Y1.23312 Z-0.10597 I0.0195 J0.03377
G3 X0.51279 Y1.27212 Z-0.11679 I-0.039 J0.0
G3 X0.49342 Y1.26689 Z-0.12037 I0.00013 J-0.039
G3 Y1.19934 Z-0.13477 I0.0195 J-0.03377
G3 X0.55192 Y1.23312 Z-0.14917 I0.0195 J0.03377
G3 X0.51279 Y1.27212 Z-0.16 I-0.039 J0.0
G3 X0.49342 Y1.26689 I0.00013 J-0.039
G3 Y1.19934 I0.0195 J-0.03377
G3 X0.55192 Y1.23312 I0.0195 J0.03377
G3 X0.51279 Y1.27212 I-0.039 J0.0
G1 F75.0 X0.51262 Y1.32212
G3 F120.0 X0.46842 Y1.31019 I0.0003 J-0.089
G3 Y1.15604 I0.0445 J-0.07708
G3 X0.60192 Y1.23312 I0.0445 J0.07708
G3 X0.51262 Y1.32212 I-0.089 J0.0
G0 Z0.25
G0 X0.50798 Y1.19443
G1 F75.0 Z-0.16
G3 F120.0 X0.55192 Y1.23312 Z-0.17167 I0.00494 J0.03869
G3 X0.51279 Y1.27212 Z-0.1825 I-0.039 J0.0
G3 X0.49342 Y1.26689 I0.00013 J-0.039
G3 Y1.19934 I0.0195 J-0.03377
G3 X0.55192 Y1.23312 I0.0195 J0.03377
G3 X0.51279 Y1.27212 I-0.039 J0.0
G1 F75.0 X0.51262 Y1.32212
G3 F120.0 X0.46842 Y1.31019 I0.0003 J-0.089
G3 Y1.15604 I0.0445 J-0.07708
G3 X0.60192 Y1.23312 I0.0445 J0.07708
G3 X0.51262 Y1.32212 I-0.089 J0.0
G1 F75.0 X0.53874 Y1.26234
G3 F120.0 X0.51279 Y1.27212 Z-0.1875 I-0.02582 J-0.02923
G3 X0.49342 Y1.26689 I0.00013 J-0.039
G3 Y1.19934 I0.0195 J-0.03377
G3 X0.55192 Y1.23312 I0.0195 J0.03377
G3 X0.51279 Y1.27212 I-0.039 J0.0
G1 F75.0 X0.51262 Y1.32212
G3 F120.0 X0.46842 Y1.31019 I0.0003 J-0.089
G3 Y1.15604 I0.0445 J-0.07708
G3 X0.60192 Y1.23312 I0.0445 J0.07708
G3 X0.51262 Y1.32212 I-0.089 J0.0
G1 F75.0 X0.5126 Y1.32712
G3 F120.0 X0.46592 Y1.31452 I0.00032 J-0.094
G3 Y1.15171 I0.047 J-0.08141
G3 X0.60692 Y1.23312 I0.047 J0.08141
G3 X0.5126 Y1.32712 I-0.094 J0.0
( HolesThru )
S2000
G0 Z0.25
G0 X0.80035 Y6.24469
G1 F75.0 Z0.0
G3 F120.0 X0.76875 Y6.2502 Z-0.00614 I-0.0191 J-0.01613
G3 Y6.2069 Z-0.01537 I0.0125 J-0.02165
G3 X0.80625 Y6.22855 Z-0.02461 I0.0125 J0.02165
G3 X0.76875 Y6.2502 Z-0.03384 I-0.025 J0.0
G3 Y6.2069 Z-0.04307 I0.0125 J-0.02165
G3 X0.80625 Y6.22855 Z-0.0523 I0.0125 J0.02165
G3 X0.76875 Y6.2502 Z-0.06154 I-0.025 J0.0
G3 Y6.2069 Z-0.07077 I0.0125 J-0.02165
G3 X0.80625 Y6.22855 Z-0.08 I0.0125 J0.02165
G3 X0.76875 Y6.2502 I-0.025 J0.0
G3 Y6.2069 I0.0125 J-0.02165
G3 X0.80625 Y6.22855 I0.0125 J0.02165
G1 F75.0 X0.80035 Y6.24469
G3 F120.0 X0.76875 Y6.2502 Z-0.08614 I-0.0191 J-0.01613
G3 Y6.2069 Z-0.09537 I0.0125 J-0.02165
G3 X0.80625 Y6.22855 Z-0.10461 I0.0125 J0.02165
G3 X0.76875 Y6.2502 Z-0.11384 I-0.025 J0.0
G3 Y6.2069 Z-0.12307 I0.0125 J-0.02165
G3 X0.80625 Y6.22855 Z-0.1323 I0.0125 J0.02165
G3 X0.76875 Y6.2502 Z-0.14154 I-0.025 J0.0
G3 Y6.2069 Z-0.15077 I0.0125 J-0.02165
G3 X0.80625 Y6.22855 Z-0.16 I0.0125 J0.02165
G3 X0.76875 Y6.2502 I-0.025 J0.0
G3 Y6.2069 I0.0125 J-0.02165
G3 X0.80625 Y6.22855 I0.0125 J0.02165
G1 F75.0 X0.80035 Y6.24469
G3 F120.0 X0.76875 Y6.2502 Z-0.16614 I-0.0191 J-0.01613
G3 Y6.2069 Z-0.17537 I0.0125 J-0.02165
G3 X0.80625 Y6.22855 Z-0.18461 I0.0125 J0.02165
G3 X0.76875 Y6.2502 Z-0.19384 I-0.025 J0.0
G3 Y6.2069 Z-0.20307 I0.0125 J-0.02165
G3 X0.80625 Y6.22855 Z-0.2123 I0.0125 J0.02165
G3 X0.76875 Y6.2502 Z-0.22154 I-0.025 J0.0
G3 Y6.2069 Z-0.23077 I0.0125 J-0.02165
G3 X0.80625 Y6.22855 Z-0.24 I0.0125 J0.02165
G3 X0.76875 Y6.2502 I-0.025 J0.0
G3 Y6.2069 I0.0125 J-0.02165
G3 X0.80625 Y6.22855 I0.0125 J0.02165
G1 F75.0 X0.80035 Y6.24469
G3 F120.0 X0.76875 Y6.2502 Z-0.24614 I-0.0191 J-0.01613
G3 Y6.2069 Z-0.25537 I0.0125 J-0.02165
G3 X0.80625 Y6.22855 Z-0.26461 I0.0125 J0.02165
G3 X0.76875 Y6.2502 Z-0.27384 I-0.025 J0.0
G3 Y6.2069 Z-0.28307 I0.0125 J-0.02165
G3 X0.80625 Y6.22855 Z-0.2923 I0.0125 J0.02165
G3 X0.76875 Y6.2502 Z-0.30154 I-0.025 J0.0
G3 Y6.2069 Z-0.31077 I0.0125 J-0.02165
G3 X0.80625 Y6.22855 Z-0.32 I0.0125 J0.02165
G3 X0.76875 Y6.2502 I-0.025 J0.0
G3 Y6.2069 I0.0125 J-0.02165
G3 X0.80625 Y6.22855 I0.0125 J0.02165
G1 F75.0 X0.80292 Y6.21608
G3 F120.0 X0.80625 Y6.22855 Z-0.3223 I-0.02167 J0.01247
G3 X0.76875 Y6.2502 Z-0.33154 I-0.025 J0.0
G3 Y6.2069 Z-0.34077 I0.0125 J-0.02165
G3 X0.80625 Y6.22855 Z-0.35 I0.0125 J0.02165
G3 X0.76875 Y6.2502 I-0.025 J0.0
G3 Y6.2069 I0.0125 J-0.02165
G3 X0.80625 Y6.22855 I0.0125 J0.02165
G1 F75.0 X0.78976 Y6.25206
G3 F120.0 X0.76875 Y6.2502 Z-0.35384 I-0.0085 J-0.02351
G3 Y6.2069 Z-0.36307 I0.0125 J-0.02165
G3 X0.80625 Y6.22855 Z-0.3723 I0.0125 J0.02165
G3 X0.76875 Y6.2502 Z-0.38154 I-0.025 J0.0
G3 Y6.2069 Z-0.39077 I0.0125 J-0.02165
G3 X0.80625 Y6.22855 Z-0.4 I0.0125 J0.02165
G3 X0.76875 Y6.2502 I-0.025 J0.0
G3 Y6.2069 I0.0125 J-0.02165
G3 X0.80625 Y6.22855 I0.0125 J0.02165
G1 F75.0 X0.81625
G3 F120.0 X0.76375 Y6.25886 I-0.035 J0.0
G3 Y6.19824 I0.0175 J-0.03031
G3 X0.81625 Y6.22855 I0.0175 J0.03031
G0 Z0.25
G0 X0.28419 Y5.75338
G1 F75.0 Z0.0
G3 F120.0 X0.26875 Y5.7502 Z-0.00283 I-0.00294 J-0.02483
G3 Y5.7069 Z-0.01206 I0.0125 J-0.02165
G3 X0.30625 Y5.72855 Z-0.02129 I0.0125 J0.02165
G3 X0.29952 Y5.74562 Z-0.02461 I-0.025 J0.0
G3 X0.26875 Y5.7502 Z-0.03052 I-0.01827 J-0.01707
G3 Y5.7069 Z-0.03976 I0.0125 J-0.02165
G3 X0.30625 Y5.72855 Z-0.04899 I0.0125 J0.02165
G3 X0.29952 Y5.74562 Z-0.0523 I-0.025 J0.0
G3 X0.26875 Y5.7502 Z-0.05822 I-0.01827 J-0.01707
G3 Y5.7069 Z-0.06745 I0.0125 J-0.02165
G3 X0.30625 Y5.72855 Z-0.07669 I0.0125 J0.02165
G3 X0.29952 Y5.74562 Z-0.08 I-0.025 J0.0
G3 X0.26875 Y5.7502 I-0.01827 J-0.01707
G3 Y5.7069 I0.0125 J-0.02165
G3 X0.30625 Y5.72855 I0.0125 J0.02165
G3 X0.29952 Y5.74562 I-0.025 J0.0
G1 F75.0 X0.28419 Y5.75338
G3 F120.0 X0.26875 Y5.7502 Z-0.08283 I-0.00294 J-0.02483
G3 Y5.7069 Z-0.09206 I0.0125 J-0.02165
G3 X0.30625 Y5.72855 Z-0.10129 I0.0125 J0.02165
G3 X0.29952 Y5.74562 Z-0.10461 I-0.025 J0.0
G3 X0.26875 Y5.7502 Z-0.11052 I-0.01827 J-0.01707
G3 Y5.7069 Z-0.11976 I0.0125 J-0.02165
G3 X0.30625 Y5.72855 Z-0.12899 I0.0125 J0.02165
G3 X0.29952 Y5.74562 Z-0.1323 I-0.025 J0.0
G3 X0.26875 Y5.7502 Z-0.13822 I-0.01827 J-0.01707
G3 Y5.7069 Z-0.14745 I0.0125 J-0.02165
G3 X0.30625 Y5.72855 Z-0.15669 I0.0125 J0.02165
G3 X0.29952 Y5.74562 Z-0.16 I-0.025 J0.0
G3 X0.26875 Y5.7502 I-0.01827 J-0.01707
G3 Y5.7069 I0.0125 J-0.02165
G3 X0.30625 Y5.72855 I0.0125 J0.02165
G3 X0.29952 Y5.74562 I-0.025 J0.0
G1 F75.0 X0.28419 Y5.75338
G3 F120.0 X0.26875 Y5.7502 Z-0.16283 I-0.00294 J-0.02483
G3 Y5.7069 Z-0.17206 I0.0125 J-0.02165
G3 X0.30625 Y5.72855 Z-0.18129 I0.0125 J0.02165
G3 X0.29952 Y5.74562 Z-0.18461 I-0.025 J0.0
G3 X0.26875 Y5.7502 Z-0.19052 I-0.01827 J-0.01707
G3 Y5.7069 Z-0.19976 I0.0125 J-0.02165
G3 X0.30625 Y5.72855 Z-0.20899 I0.0125 J0.02165
G3 X0.29952 Y5.74562 Z-0.2123 I-0.025 J0.0
G3 X0.26875 Y5.7502 Z-0.21822 I-0.01827 J-0.01707
G3 Y5.7069 Z-0.22745 I0.0125 J-0.02165
G3 X0.30625 Y5.72855 Z-0.23669 I0.0125 J0.02165
G3 X0.29952 Y5.74562 Z-0.24 I-0.025 J0.0
G3 X0.26875 Y5.7502 I-0.01827 J-0.01707
G3 Y5.7069 I0.0125 J-0.02165
G3 X0.30625 Y5.72855 I0.0125 J0.02165
G3 X0.29952 Y5.74562 I-0.025 J0.0
G1 F75.0 X0.28419 Y5.75338
G3 F120.0 X0.26875 Y5.7502 Z-0.24283 I-0.00294 J-0.02483
G3 Y5.7069 Z-0.25206 I0.0125 J-0.02165
G3 X0.30625 Y5.72855 Z-0.26129 I0.0125 J0.02165
G3 X0.29952 Y5.74562 Z-0.26461 I-0.025 J0.0
G3 X0.26875 Y5.7502 Z-0.27052 I-0.01827 J-0.01707
G3 Y5.7069 Z-0.27976 I0.0125 J-0.02165
G3 X0.30625 Y5.72855 Z-0.28899 I0.0125 J0.02165
G3 X0.29952 Y5.74562 Z-0.2923 I-0.025 J0.0
G3 X0.26875 Y5.7502 Z-0.29822 I-0.01827 J-0.01707
G3 Y5.7069 Z-0.30745 I0.0125 J-0.02165
G3 X0.30625 Y5.72855 Z-0.31669 I0.0125 J0.02165
G3 X0.29952 Y5.74562 Z-0.32 I-0.025 J0.0
G3 X0.26875 Y5.7502 I-0.01827 J-0.01707
G3 Y5.7069 I0.0125 J-0.02165
G3 X0.30625 Y5.72855 I0.0125 J0.02165
G3 X0.29952 Y5.74562 I-0.025 J0.0
G1 F75.0 X0.3056 Y5.73423
G3 F120.0 X0.29952 Y5.74562 Z-0.3223 I-0.02435 J-0.00568
G3 X0.26875 Y5.7502 Z-0.32822 I-0.01827 J-0.01707
G3 Y5.7069 Z-0.33745 I0.0125 J-0.02165
G3 X0.30625 Y5.72855 Z-0.34669 I0.0125 J0.02165
G3 X0.29952 Y5.74562 Z-0.35 I-0.025 J0.0
G3 X0.26875 Y5.7502 I-0.01827 J-0.01707
G3 Y5.7069 I0.0125 J-0.02165
G3 X0.30625 Y5.72855 I0.0125 J0.02165
G3 X0.29952 Y5.74562 I-0.025 J0.0
G1 F75.0 X0.27141 Y5.75153
G3 F120.0 X0.26875 Y5.7502 Z-0.35052 I0.00984 J-0.02298
G3 Y5.7069 Z-0.35976 I0.0125 J-0.02165
G3 X0.30625 Y5.72855 Z-0.36899 I0.0125 J0.02165
G3 X0.29952 Y5.74562 Z-0.3723 I-0.025 J0.0
G3 X0.26875 Y5.7502 Z-0.37822 I-0.01827 J-0.01707
G3 Y5.7069 Z-0.38745 I0.0125 J-0.02165
G3 X0.30625 Y5.72855 Z-0.39669 I0.0125 J0.02165
G3 X0.29952 Y5.74562 Z-0.4 I-0.025 J0.0
G3 X0.26875 Y5.7502 I-0.01827 J-0.01707
G3 Y5.7069 I0.0125 J-0.02165
G3 X0.30625 Y5.72855 I0.0125 J0.02165
G3 X0.29952 Y5.74562 I-0.025 J0.0
G1 F75.0 X0.30683 Y5.75245
G3 F120.0 X0.26375 Y5.75886 I-0.02557 J-0.0239
G3 Y5.69824 I0.0175 J-0.03031
G3 X0.31625 Y5.72855 I0.0175 J0.03031
G3 X0.30683 Y5.75245 I-0.035 J0.0
G0 Z0.25
G0 X0.50135 Y4.50471
G1 F75.0 Z0.0
G1 F120.0 X0.50067 Y4.50433 Z-0.00014
G3 Y4.4619 Z-0.00918 I0.01225 J-0.02122
G3 X0.53742 Y4.48312 Z-0.01823 I0.01225 J0.02122
G3 X0.50899 Y4.5073 Z-0.02571 I-0.0245 J0.0
G3 X0.50067 Y4.50433 Z-0.02728 I0.00393 J-0.02418
G3 Y4.4619 Z-0.03633 I0.01225 J-0.02122
G3 X0.53742 Y4.48312 Z-0.04538 I0.01225 J0.02122
G3 X0.50899 Y4.5073 Z-0.05286 I-0.0245 J0.0
G3 X0.50067 Y4.50433 Z-0.05442 I0.00393 J-0.02418
G3 Y4.4619 Z-0.06347 I0.01225 J-0.02122
G3 X0.53742 Y4.48312 Z-0.07252 I0.01225 J0.02122
G3 X0.50899 Y4.5073 Z-0.08 I-0.0245 J0.0
G3 X0.50067 Y4.50433 I0.00393 J-0.02418
G3 Y4.4619 I0.01225 J-0.02122
G3 X0.53742 Y4.48312 I0.01225 J0.02122
G3 X0.50899 Y4.5073 I-0.0245 J0.0
G1 F75.0 X0.50135 Y4.50471
G1 F120.0 X0.50067 Y4.50433 Z-0.08014
G3 Y4.4619 Z-0.08918 I0.01225 J-0.02122
G3 X0.53742 Y4.48312 Z-0.09823 I0.01225 J0.02122
G3 X0.50899 Y4.5073 Z-0.10571 I-0.0245 J0.0
G3 X0.50067 Y4.50433 Z-0.10728 I0.00393 J-0.02418
G3 Y4.4619 Z-0.11633 I0.01225 J-0.02122
G3 X0.53742 Y4.48312 Z-0.12538 I0.01225 J0.02122
G3 X0.50899 Y4.5073 Z-0.13286 I-0.0245 J0.0
G3 X0.50067 Y4.50433 Z-0.13442 I0.00393 J-0.02418
G3 Y4.4619 Z-0.14347 I0.01225 J-0.02122
G3 X0.53742 Y4.48312 Z-0.15252 I0.01225 J0.02122
G3 X0.50899 Y4.5073 Z-0.16 I-0.0245 J0.0
G3 X0.50067 Y4.50433 I0.00393 J-0.02418
G3 Y4.4619 I0.01225 J-0.02122
G3 X0.53742 Y4.48312 I0.01225 J0.02122
G3 X0.50899 Y4.5073 I-0.0245 J0.0
G1 F75.0 X0.50135 Y4.50471
G1 F120.0 X0.50067 Y4.50433 Z-0.16014
G3 Y4.4619 Z-0.16918 I0.01225 J-0.02122
G3 X0.53742 Y4.48312 Z-0.17823 I0.01225 J0.02122
G3 X0.50899 Y4.5073 Z-0.18571 I-0.0245 J0.0
G3 X0.50067 Y4.50433 Z-0.18728 I0.00393 J-0.02418
G3 Y4.4619 Z-0.19633 I0.01225 J-0.02122
G3 X0.53742 Y4.48312 Z-0.20538 I0.01225 J0.02122
G3 X0.50899 Y4.5073 Z-0.21286 I-0.0245 J0.0
G3 X0.50067 Y4.50433 Z-0.21442 I0.00393 J-0.02418
G3 Y4.4619 Z-0.22347 I0.01225 J-0.02122
G3 X0.53742 Y4.48312 Z-0.23252 I0.01225 J0.02122
G3 X0.50899 Y4.5073 Z-0.24 I-0.0245 J0.0
G3 X0.50067 Y4.50433 I0.00393 J-0.02418
G3 Y4.4619 I0.01225 J-0.02122
G3 X0.53742 Y4.48312 I0.01225 J0.02122
G3 X0.50899 Y4.5073 I-0.0245 J0.0
G1 F75.0 X0.50135 Y4.50471
G1 F120.0 X0.50067 Y4.50433 Z-0.24014
G3 Y4.4619 Z-0.24918 I0.01225 J-0.02122
G3 X0.53742 Y4.48312 Z-0.25823 I0.01225 J0.02122
G3 X0.50899 Y4.5073 Z-0.26571 I-0.0245 J0.0
G3 X0.50067 Y4.50433 Z-0.26728 I0.00393 J-0.02418
G3 Y4.4619 Z-0.27633 I0.01225 J-0.02122
G3 X0.53742 Y4.48312 Z-0.28538 I0.01225 J0.02122
G3 X0.50899 Y4.5073 Z-0.29286 I-0.0245 J0.0
G3 X0.50067 Y4.50433 Z-0.29442 I0.00393 J-0.02418
G3 Y4.4619 Z-0.30347 I0.01225 J-0.02122
G3 X0.53742 Y4.48312 Z-0.31252 I0.01225 J0.02122
G3 X0.50899 Y4.5073 Z-0.32 I-0.0245 J0.0
G3 X0.50067 Y4.50433 I0.00393 J-0.02418
G3 Y4.4619 I0.01225 J-0.02122
G3 X0.53742 Y4.48312 I0.01225 J0.02122
G3 X0.50899 Y4.5073 I-0.0245 J0.0
G1 F75.0 X0.52467 Y4.50461
G3 F120.0 X0.50899 Y4.5073 Z-0.32286 I-0.01175 J-0.0215
G3 X0.50067 Y4.50433 Z-0.32442 I0.00393 J-0.02418
G3 Y4.4619 Z-0.33347 I0.01225 J-0.02122
G3 X0.53742 Y4.48312 Z-0.34252 I0.01225 J0.02122
G3 X0.50899 Y4.5073 Z-0.35 I-0.0245 J0.0
G3 X0.50067 Y4.50433 I0.00393 J-0.02418
G3 Y4.4619 I0.01225 J-0.02122
G3 X0.53742 Y4.48312 I0.01225 J0.02122
G3 X0.50899 Y4.5073 I-0.0245 J0.0
G1 F75.0 X0.49052 Y4.49305
G3 F120.0 X0.50067 Y4.4619 Z-0.35633 I0.0224 J-0.00993
G3 X0.53742 Y4.48312 Z-0.36538 I0.01225 J0.02122
G3 X0.50899 Y4.5073 Z-0.37286 I-0.0245 J0.0
G3 X0.50067 Y4.50433 Z-0.37442 I0.00393 J-0.02418
G3 Y4.4619 Z-0.38347 I0.01225 J-0.02122
G3 X0.53742 Y4.48312 Z-0.39252 I0.01225 J0.02122
G3 X0.50899 Y4.5073 Z-0.4 I-0.0245 J0.0
G3 X0.50067 Y4.50433 I0.00393 J-0.02418
G3 Y4.4619 I0.01225 J-0.02122
G3 X0.53742 Y4.48312 I0.01225 J0.02122
G3 X0.50899 Y4.5073 I-0.0245 J0.0
G1 F75.0 X0.50739 Y4.51717
G3 F120.0 X0.49567 Y4.51299 I0.00553 J-0.03405
G3 Y4.45324 I0.01725 J-0.02988
G3 X0.54742 Y4.48312 I0.01725 J0.02988
G3 X0.50739 Y4.51717 I-0.0345 J0.0
G0 Z0.25
G0 X0.50492 Y1.25627
G1 F75.0 Z0.0
G3 F120.0 X0.50067 Y1.25433 Z-0.00082 I0.008 J-0.02316
G3 Y1.2119 Z-0.00987 I0.01225 J-0.02122
G3 X0.53742 Y1.23312 Z-0.01892 I0.01225 J0.02122
G3 X0.51288 Y1.25762 Z-0.02571 I-0.0245 J0.0
G3 X0.50067 Y1.25433 Z-0.02797 I0.00004 J-0.0245
G3 Y1.2119 Z-0.03702 I0.01225 J-0.02122
G3 X0.53742 Y1.23312 Z-0.04606 I0.01225 J0.02122
G3 X0.51288 Y1.25762 Z-0.05286 I-0.0245 J0.0
G3 X0.50067 Y1.25433 Z-0.05511 I0.00004 J-0.0245
G3 Y1.2119 Z-0.06416 I0.01225 J-0.02122
G3 X0.53742 Y1.23312 Z-0.07321 I0.01225 J0.02122
G3 X0.51288 Y1.25762 Z-0.08 I-0.0245 J0.0
G3 X0.50067 Y1.25433 I0.00004 J-0.0245
G3 Y1.2119 I0.01225 J-0.02122
G3 X0.53742 Y1.23312 I0.01225 J0.02122
G3 X0.51288 Y1.25762 I-0.0245 J0.0
G1 F75.0 X0.50492 Y1.25627
G3 F120.0 X0.50067 Y1.25433 Z-0.08082 I0.008 J-0.02316
G3 Y1.2119 Z-0.08987 I0.01225 J-0.02122
G3 X0.53742 Y1.23312 Z-0.09892 I0.01225 J0.02122
G3 X0.51288 Y1.25762 Z-0.10571 I-0.0245 J0.0
G3 X0.50067 Y1.25433 Z-0.10797 I0.00004 J-0.0245
G3 Y1.2119 Z-0.11702 I0.01225 J-0.02122
G3 X0.53742 Y1.23312 Z-0.12606 I0.01225 J0.02122
G3 X0.51288 Y1.25762 Z-0.13286 I-0.0245 J0.0
G3 X0.50067 Y1.25433 Z-0.13511 I0.00004 J-0.0245
G3 Y1.2119 Z-0.14416 I0.01225 J-0.02122
G3 X0.53742 Y1.23312 Z-0.15321 I0.01225 J0.02122
G3 X0.51288 Y1.25762 Z-0.16 I-0.0245 J0.0
G3 X0.50067 Y1.25433 I0.00004 J-0.0245
G3 Y1.2119 I0.01225 J-0.02122
G3 X0.53742 Y1.23312 I0.01225 J0.02122
G3 X0.51288 Y1.25762 I-0.0245 J0.0
G1 F75.0 X0.50492 Y1.25627
G3 F120.0 X0.50067 Y1.25433 Z-0.16082 I0.008 J-0.02316
G3 Y1.2119 Z-0.16987 I0.01225 J-0.02122
G3 X0.53742 Y1.23312 Z-0.17892 I0.01225 J0.02122
G3 X0.51288 Y1.25762 Z-0.18571 I-0.0245 J0.0
G3 X0.50067 Y1.25433 Z-0.18797 I0.00004 J-0.0245
G3 Y1.2119 Z-0.19702 I0.01225 J-0.02122
G3 X0.53742 Y1.23312 Z-0.20606 I0.01225 J0.02122
G3 X0.51288 Y1.25762 Z-0.21286 I-0.0245 J0.0
G3 X0.50067 Y1.25433 Z-0.21511 I0.00004 J-0.0245
G3 Y1.2119 Z-0.22416 I0.01225 J-0.02122
G3 X0.53742 Y1.23312 Z-0.23321 I0.01225 J0.02122
G3 X0.51288 Y1.25762 Z-0.24 I-0.0245 J0.0
G3 X0.50067 Y1.25433 I0.00004 J-0.0245
G3 Y1.2119 I0.01225 J-0.02122
G3 X0.53742 Y1.23312 I0.01225 J0.02122
G3 X0.51288 Y1.25762 I-0.0245 J0.0
G1 F75.0 X0.50492 Y1.25627
G3 F120.0 X0.50067 Y1.25433 Z-0.24082 I0.008 J-0.02316
G3 Y1.2119 Z-0.24987 I0.01225 J-0.02122
G3 X0.53742 Y1.23312 Z-0.25892 I0.01225 J0.02122
G3 X0.51288 Y1.25762 Z-0.26571 I-0.0245 J0.0
G3 X0.50067 Y1.25433 Z-0.26797 I0.00004 J-0.0245
G3 Y1.2119 Z-0.27702 I0.01225 J-0.02122
G3 X0.53742 Y1.23312 Z-0.28606 I0.01225 J0.02122
G3 X0.51288 Y1.25762 Z-0.29286 I-0.0245 J0.0
G3 X0.50067 Y1.25433 Z-0.29511 I0.00004 J-0.0245
G3 Y1.2119 Z-0.30416 I0.01225 J-0.02122
G3 X0.53742 Y1.23312 Z-0.31321 I0.01225 J0.02122
G3 X0.51288 Y1.25762 Z-0.32 I-0.0245 J0.0
G3 X0.50067 Y1.25433 I0.00004 J-0.0245
G3 Y1.2119 I0.01225 J-0.02122
G3 X0.53742 Y1.23312 I0.01225 J0.02122
G3 X0.51288 Y1.25762 I-0.0245 J0.0
G1 F75.0 X0.52793 Y1.25248
G3 F120.0 X0.51288 Y1.25762 Z-0.32286 I-0.01501 J-0.01936
G3 X0.50067 Y1.25433 Z-0.32511 I0.00004 J-0.0245
G3 Y1.2119 Z-0.33416 I0.01225 J-0.02122
G3 X0.53742 Y1.23312 Z-0.34321 I0.01225 J0.02122
G3 X0.51288 Y1.25762 Z-0.35 I-0.0245 J0.0
G3 X0.50067 Y1.25433 I0.00004 J-0.0245
G3 Y1.2119 I0.01225 J-0.02122
G3 X0.53742 Y1.23312 I0.01225 J0.02122
G3 X0.51288 Y1.25762 I-0.0245 J0.0
G1 F75.0 X0.49238 Y1.24648
G3 F120.0 X0.50067 Y1.2119 Z-0.35702 I0.02054 J-0.01336
G3 X0.53742 Y1.23312 Z-0.36606 I0.01225 J0.02122
G3 X0.51288 Y1.25762 Z-0.37286 I-0.0245 J0.0
G3 X0.50067 Y1.25433 Z-0.37511 I0.00004 J-0.0245
G3 Y1.2119 Z-0.38416 I0.01225 J-0.02122
G3 X0.53742 Y1.23312 Z-0.39321 I0.01225 J0.02122
G3 X0.51288 Y1.25762 Z-0.4 I-0.0245 J0.0
G3 X0.50067 Y1.25433 I0.00004 J-0.0245
G3 Y1.2119 I0.01225 J-0.02122
G3 X0.53742 Y1.23312 I0.01225 J0.02122
G3 X0.51288 Y1.25762 I-0.0245 J0.0
G1 F75.0 X0.51286 Y1.26762
G3 F120.0 X0.49567 Y1.26299 I0.00006 J-0.0345
G3 Y1.20324 I0.01725 J-0.02988
G3 X0.54742 Y1.23312 I0.01725 J0.02988
G3 X0.51286 Y1.26762 I-0.0345 J0.0
G0 Z0.25
G0 X15.02503 Y1.21703
G1 F75.0 Z0.0
G3 F120.0 X15.03167 Y1.21147 Z-0.00153 I0.01914 J0.01609
G3 X15.06917 Y1.23312 Z-0.01077 I0.0125 J0.02165
G3 X15.03167 Y1.25477 Z-0.02 I-0.025 J0.0
G3 X15.01917 Y1.23318 Z-0.02461 I0.0125 J-0.02165
G3 X15.03167 Y1.21147 Z-0.02923 I0.025 J-0.00006
G3 X15.06917 Y1.23312 Z-0.03846 I0.0125 J0.02165
G3 X15.03167 Y1.25477 Z-0.0477 I-0.025 J0.0
G3 X15.01917 Y1.23318 Z-0.0523 I0.0125 J-0.02165
G3 X15.03167 Y1.21147 Z-0.05693 I0.025 J-0.00006
G3 X15.06917 Y1.23312 Z-0.06616 I0.0125 J0.02165
G3 X15.03167 Y1.25477 Z-0.07539 I-0.025 J0.0
G3 X15.01917 Y1.23318 Z-0.08 I0.0125 J-0.02165
G3 X15.03167 Y1.21147 I0.025 J-0.00006
G3 X15.06917 Y1.23312 I0.0125 J0.02165
G3 X15.03167 Y1.25477 I-0.025 J0.0
G3 X15.01917 Y1.23318 I0.0125 J-0.02165
G1 F75.0 X15.02503 Y1.21703
G3 F120.0 X15.03167 Y1.21147 Z-0.08153 I0.01914 J0.01609
G3 X15.06917 Y1.23312 Z-0.09077 I0.0125 J0.02165
G3 X15.03167 Y1.25477 Z-0.1 I-0.025 J0.0
G3 X15.01917 Y1.23318 Z-0.10461 I0.0125 J-0.02165
G3 X15.03167 Y1.21147 Z-0.10923 I0.025 J-0.00006
G3 X15.06917 Y1.23312 Z-0.11846 I0.0125 J0.02165
G3 X15.03167 Y1.25477 Z-0.1277 I-0.025 J0.0
G3 X15.01917 Y1.23318 Z-0.1323 I0.0125 J-0.02165
G3 X15.03167 Y1.21147 Z-0.13693 I0.025 J-0.00006
G3 X15.06917 Y1.23312 Z-0.14616 I0.0125 J0.02165
G3 X15.03167 Y1.25477 Z-0.15539 I-0.025 J0.0
G3 X15.01917 Y1.23318 Z-0.16 I0.0125 J-0.02165
G3 X15.03167 Y1.21147 I0.025 J-0.00006
G3 X15.06917 Y1.23312 I0.0125 J0.02165
G3 X15.03167 Y1.25477 I-0.025 J0.0
G3 X15.01917 Y1.23318 I0.0125 J-0.02165
G1 F75.0 X15.02503 Y1.21703
G3 F120.0 X15.03167 Y1.21147 Z-0.16153 I0.01914 J0.01609
G3 X15.06917 Y1.23312 Z-0.17077 I0.0125 J0.02165
G3 X15.03167 Y1.25477 Z-0.18 I-0.025 J0.0
G3 X15.01917 Y1.23318 Z-0.18461 I0.0125 J-0.02165
G3 X15.03167 Y1.21147 Z-0.18923 I0.025 J-0.00006
G3 X15.06917 Y1.23312 Z-0.19846 I0.0125 J0.02165
G3 X15.03167 Y1.25477 Z-0.2077 I-0.025 J0.0
G3 X15.01917 Y1.23318 Z-0.2123 I0.0125 J-0.02165
G3 X15.03167 Y1.21147 Z-0.21693 I0.025 J-0.00006
G3 X15.06917 Y1.23312 Z-0.22616 I0.0125 J0.02165
G3 X15.03167 Y1.25477 Z-0.23539 I-0.025 J0.0
G3 X15.01917 Y1.23318 Z-0.24 I0.0125 J-0.02165
G3 X15.03167 Y1.21147 I0.025 J-0.00006
G3 X15.06917 Y1.23312 I0.0125 J0.02165
G3 X15.03167 Y1.25477 I-0.025 J0.0
G3 X15.01917 Y1.23318 I0.0125 J-0.02165
G1 F75.0 X15.02503 Y1.21703
G3 F120.0 X15.03167 Y1.21147 Z-0.24153 I0.01914 J0.01609
G3 X15.06917 Y1.23312 Z-0.25077 I0.0125 J0.02165
G3 X15.03167 Y1.25477 Z-0.26 I-0.025 J0.0
G3 X15.01917 Y1.23318 Z-0.26461 I0.0125 J-0.02165
G3 X15.03167 Y1.21147 Z-0.26923 I0.025 J-0.00006
G3 X15.06917 Y1.23312 Z-0.27846 I0.0125 J0.02165
G3 X15.03167 Y1.25477 Z-0.2877 I-0.025 J0.0
G3 X15.01917 Y1.23318 Z-0.2923 I0.0125 J-0.02165
G3 X15.03167 Y1.21147 Z-0.29693 I0.025 J-0.00006
G3 X15.06917 Y1.23312 Z-0.30616 I0.0125 J0.02165
G3 X15.03167 Y1.25477 Z-0.31539 I-0.025 J0.0
G3 X15.01917 Y1.23318 Z-0.32 I0.0125 J-0.02165
G3 X15.03167 Y1.21147 I0.025 J-0.00006
G3 X15.06917 Y1.23312 I0.0125 J0.02165
G3 X15.03167 Y1.25477 I-0.025 J0.0
G3 X15.01917 Y1.23318 I0.0125 J-0.02165
G1 F75.0 X15.02253 Y1.24564
G3 F120.0 X15.01917 Y1.23318 Z-0.3223 I0.02164 J-0.01252
G3 X15.03167 Y1.21147 Z-0.32693 I0.025 J-0.00006
G3 X15.06917 Y1.23312 Z-0.33616 I0.0125 J0.02165
G3 X15.03167 Y1.25477 Z-0.34539 I-0.025 J0.0
G3 X15.01917 Y1.23318 Z-0.35 I0.0125 J-0.02165
G3 X15.03167 Y1.21147 I0.025 J-0.00006
G3 X15.06917 Y1.23312 I0.0125 J0.02165
G3 X15.03167 Y1.25477 I-0.025 J0.0
G3 X15.01917 Y1.23318 I0.0125 J-0.02165
G1 F75.0 X15.03561 Y1.20963
G3 F120.0 X15.06917 Y1.23312 Z-0.35846 I0.00856 J0.02349
G3 X15.03167 Y1.25477 Z-0.3677 I-0.025 J0.0
G3 X15.01917 Y1.23318 Z-0.3723 I0.0125 J-0.02165
G3 X15.03167 Y1.21147 Z-0.37693 I0.025 J-0.00006
G3 X15.06917 Y1.23312 Z-0.38616 I0.0125 J0.02165
G3 X15.03167 Y1.25477 Z-0.39539 I-0.025 J0.0
G3 X15.01917 Y1.23318 Z-0.4 I0.0125 J-0.02165
G3 X15.03167 Y1.21147 I0.025 J-0.00006
G3 X15.06917 Y1.23312 I0.0125 J0.02165
G3 X15.03167 Y1.25477 I-0.025 J0.0
G3 X15.01917 Y1.23318 I0.0125 J-0.02165
G1 F75.0 X15.00917 Y1.2332
G3 F120.0 X15.02667 Y1.2028 I0.035 J-0.00008
G3 X15.07917 Y1.23312 I0.0175 J0.03031
G3 X15.02667 Y1.26343 I-0.035 J0.0
G3 X15.00917 Y1.2332 I0.0175 J-0.03031
G0 Z0.25
G0 X15.0601 Y4.46385
G1 F75.0 Z0.0
G3 F120.0 X15.06917 Y4.48312 Z-0.00388 I-0.01593 J0.01927
G3 X15.03167 Y4.50477 Z-0.01311 I-0.025 J0.0
G3 Y4.46147 Z-0.02234 I0.0125 J-0.02165
G3 X15.0439 Y4.45812 Z-0.02461 I0.0125 J0.02165
G3 X15.06917 Y4.48312 Z-0.03158 I0.00027 J0.025
G3 X15.03167 Y4.50477 Z-0.04081 I-0.025 J0.0
G3 Y4.46147 Z-0.05004 I0.0125 J-0.02165
G3 X15.0439 Y4.45812 Z-0.0523 I0.0125 J0.02165
G3 X15.06917 Y4.48312 Z-0.05927 I0.00027 J0.025
G3 X15.03167 Y4.50477 Z-0.06851 I-0.025 J0.0
G3 Y4.46147 Z-0.07774 I0.0125 J-0.02165
G3 X15.0439 Y4.45812 Z-0.08 I0.0125 J0.02165
G3 X15.06917 Y4.48312 I0.00027 J0.025
G3 X15.03167 Y4.50477 I-0.025 J0.0
G3 Y4.46147 I0.0125 J-0.02165
G3 X15.0439 Y4.45812 I0.0125 J0.02165
G1 F75.0 X15.0601 Y4.46385
G3 F120.0 X15.06917 Y4.48312 Z-0.08388 I-0.01593 J0.01927
G3 X15.03167 Y4.50477 Z-0.09311 I-0.025 J0.0
G3 Y4.46147 Z-0.10234 I0.0125 J-0.02165
G3 X15.0439 Y4.45812 Z-0.10461 I0.0125 J0.02165
G3 X15.06917 Y4.48312 Z-0.11158 I0.00027 J0.025
G3 X15.03167 Y4.50477 Z-0.12081 I-0.025 J0.0
G3 Y4.46147 Z-0.13004 I0.0125 J-0.02165
G3 X15.0439 Y4.45812 Z-0.1323 I0.0125 J0.02165
G3 X15.06917 Y4.48312 Z-0.13927 I0.00027 J0.025
G3 X15.03167 Y4.50477 Z-0.14851 I-0.025 J0.0
G3 Y4.46147 Z-0.15774 I0.0125 J-0.02165
G3 X15.0439 Y4.45812 Z-0.16 I0.0125 J0.02165
G3 X15.06917 Y4.48312 I0.00027 J0.025
G3 X15.03167 Y4.50477 I-0.025 J0.0
G3 Y4.46147 I0.0125 J-0.02165
G3 X15.0439 Y4.45812 I0.0125 J0.02165
G1 F75.0 X15.0601 Y4.46385
G3 F120.0 X15.06917 Y4.48312 Z-0.16388 I-0.01593 J0.01927
G3 X15.03167 Y4.50477 Z-0.17311 I-0.025 J0.0
G3 Y4.46147 Z-0.18234 I0.0125 J-0.02165
G3 X15.0439 Y4.45812 Z-0.18461 I0.0125 J0.02165
G3 X15.06917 Y4.48312 Z-0.19158 I0.00027 J0.025
G3 X15.03167 Y4.50477 Z-0.20081 I-0.025 J0.0
G3 Y4.46147 Z-0.21004 I0.0125 J-0.02165
G3 X15.0439 Y4.45812 Z-0.2123 I0.0125 J0.02165
G3 X15.06917 Y4.48312 Z-0.21927 I0.00027 J0.025
G3 X15.03167 Y4.50477 Z-0.22851 I-0.025 J0.0
G3 Y4.46147 Z-0.23774 I0.0125 J-0.02165
G3 X15.0439 Y4.45812 Z-0.24 I0.0125 J0.02165
G3 X15.06917 Y4.48312 I0.00027 J0.025
G3 X15.03167 Y4.50477 I-0.025 J0.0
G3 Y4.46147 I0.0125 J-0.02165
G3 X15.0439 Y4.45812 I0.0125 J0.02165
G1 F75.0 X15.0601 Y4.46385
G3 F120.0 X15.06917 Y4.48312 Z-0.24388 I-0.01593 J0.01927
G3 X15.03167 Y4.50477 Z-0.25311 I-0.025 J0.0
G3 Y4.46147 Z-0.26234 I0.0125 J-0.02165
G3 X15.0439 Y4.45812 Z-0.26461 I0.0125 J0.02165
G3 X15.06917 Y4.48312 Z-0.27158 I0.00027 J0.025
G3 X15.03167 Y4.50477 Z-0.28081 I-0.025 J0.0
G3 Y4.46147 Z-0.29004 I0.0125 J-0.02165
G3 X15.0439 Y4.45812 Z-0.2923 I0.0125 J0.02165
G3 X15.06917 Y4.48312 Z-0.29927 I0.00027 J0.025
G3 X15.03167 Y4.50477 Z-0.30851 I-0.025 J0.0
G3 Y4.46147 Z-0.31774 I0.0125 J-0.02165
G3 X15.0439 Y4.45812 Z-0.32 I0.0125 J0.02165
G3 X15.06917 Y4.48312 I0.00027 J0.025
G3 X15.03167 Y4.50477 I-0.025 J0.0
G3 Y4.46147 I0.0125 J-0.02165
G3 X15.0439 Y4.45812 I0.0125 J0.02165
G1 F75.0 X15.03146 Y4.46159
G1 F120.0 X15.03167 Y4.46147 Z-0.32004
G3 X15.0439 Y4.45812 Z-0.3223 I0.0125 J0.02165
G3 X15.06917 Y4.48312 Z-0.32927 I0.00027 J0.025
G3 X15.03167 Y4.50477 Z-0.33851 I-0.025 J0.0
G3 Y4.46147 Z-0.34774 I0.0125 J-0.02165
G3 X15.0439 Y4.45812 Z-0.35 I0.0125 J0.02165
G3 X15.06917 Y4.48312 I0.00027 J0.025
G3 X15.03167 Y4.50477 I-0.025 J0.0
G3 Y4.46147 I0.0125 J-0.02165
G3 X15.0439 Y4.45812 I0.0125 J0.02165
G1 F75.0 X15.06759 Y4.47436
G3 F120.0 X15.06917 Y4.48312 Z-0.35158 I-0.02342 J0.00875
G3 X15.03167 Y4.50477 Z-0.36081 I-0.025 J0.0
G3 Y4.46147 Z-0.37004 I0.0125 J-0.02165
G3 X15.0439 Y4.45812 Z-0.3723 I0.0125 J0.02165
G3 X15.06917 Y4.48312 Z-0.37927 I0.00027 J0.025
G3 X15.03167 Y4.50477 Z-0.38851 I-0.025 J0.0
G3 Y4.46147 Z-0.39774 I0.0125 J-0.02165
G3 X15.0439 Y4.45812 Z-0.4 I0.0125 J0.02165
G3 X15.06917 Y4.48312 I0.00027 J0.025
G3 X15.03167 Y4.50477 I-0.025 J0.0
G3 Y4.46147 I0.0125 J-0.02165
G3 X15.0439 Y4.45812 I0.0125 J0.02165
G1 F75.0 X15.04379 Y4.44812
G3 F120.0 X15.07917 Y4.48312 I0.00038 J0.035
G3 X15.02667 Y4.51343 I-0.035 J0.0
G3 Y4.4528 I0.0175 J-0.03031
G3 X15.04379 Y4.44812 I0.0175 J0.03031
G0 Z0.25
G0 X15.32363 Y5.70655
G1 F75.0 Z0.0
G3 F120.0 X15.33675 Y5.72855 Z-0.00474 I-0.01188 J0.022
G3 X15.29925 Y5.7502 Z-0.01397 I-0.025 J0.0
G3 Y5.7069 Z-0.02321 I0.0125 J-0.02165
G3 X15.30663 Y5.70408 Z-0.02461 I0.0125 J0.02165
G3 X15.33675 Y5.72855 Z-0.03244 I0.00512 J0.02447
G3 X15.29925 Y5.7502 Z-0.04167 I-0.025 J0.0
G3 Y5.7069 Z-0.0509 I0.0125 J-0.02165
G3 X15.30663 Y5.70408 Z-0.0523 I0.0125 J0.02165
G3 X15.33675 Y5.72855 Z-0.06014 I0.00512 J0.02447
G3 X15.29925 Y5.7502 Z-0.06937 I-0.025 J0.0
G3 Y5.7069 Z-0.0786 I0.0125 J-0.02165
G3 X15.30663 Y5.70408 Z-0.08 I0.0125 J0.02165
G3 X15.33675 Y5.72855 I0.00512 J0.02447
G3 X15.29925 Y5.7502 I-0.025 J0.0
G3 Y5.7069 I0.0125 J-0.02165
G3 X15.30663 Y5.70408 I0.0125 J0.02165
G1 F75.0 X15.32363 Y5.70655
G3 F120.0 X15.33675 Y5.72855 Z-0.08474 I-0.01188 J0.022
G3 X15.29925 Y5.7502 Z-0.09397 I-0.025 J0.0
G3 Y5.7069 Z-0.10321 I0.0125 J-0.02165
G3 X15.30663 Y5.70408 Z-0.10461 I0.0125 J0.02165
G3 X15.33675 Y5.72855 Z-0.11244 I0.00512 J0.02447
G3 X15.29925 Y5.7502 Z-0.12167 I-0.025 J0.0
G3 Y5.7069 Z-0.1309 I0.0125 J-0.02165
G3 X15.30663 Y5.70408 Z-0.1323 I0.0125 J0.02165
G3 X15.33675 Y5.72855 Z-0.14014 I0.00512 J0.02447
G3 X15.29925 Y5.7502 Z-0.14937 I-0.025 J0.0
G3 Y5.7069 Z-0.1586 I0.0125 J-0.02165
G3 X15.30663 Y5.70408 Z-0.16 I0.0125 J0.02165
G3 X15.33675 Y5.72855 I0.00512 J0.02447
G3 X15.29925 Y5.7502 I-0.025 J0.0
G3 Y5.7069 I0.0125 J-0.02165
G3 X15.30663 Y5.70408 I0.0125 J0.02165
G1 F75.0 X15.32363 Y5.70655
G3 F120.0 X15.33675 Y5.72855 Z-0.16474 I-0.01188 J0.022
G3 X15.29925 Y5.7502 Z-0.17397 I-0.025 J0.0
G3 Y5.7069 Z-0.18321 I0.0125 J-0.02165
G3 X15.30663 Y5.70408 Z-0.18461 I0.0125 J0.02165
G3 X15.33675 Y5.72855 Z-0.19244 I0.00512 J0.02447
G3 X15.29925 Y5.7502 Z-0.20167 I-0.025 J0.0
G3 Y5.7069 Z-0.2109 I0.0125 J-0.02165
G3 X15.30663 Y5.70408 Z-0.2123 I0.0125 J0.02165
G3 X15.33675 Y5.72855 Z-0.22014 I0.00512 J0.02447
G3 X15.29925 Y5.7502 Z-0.22937 I-0.025 J0.0
G3 Y5.7069 Z-0.2386 I0.0125 J-0.02165
G3 X15.30663 Y5.70408 Z-0.24 I0.0125 J0.02165
G3 X15.33675 Y5.72855 I0.00512 J0.02447
G3 X15.29925 Y5.7502 I-0.025 J0.0
G3 Y5.7069 I0.0125 J-0.02165
G3 X15.30663 Y5.70408 I0.0125 J0.02165
G1 F75.0 X15.32363 Y5.70655
G3 F120.0 X15.33675 Y5.72855 Z-0.24474 I-0.01188 J0.022
G3 X15.29925 Y5.7502 Z-0.25397 I-0.025 J0.0
G3 Y5.7069 Z-0.26321 I0.0125 J-0.02165
G3 X15.30663 Y5.70408 Z-0.26461 I0.0125 J0.02165
G3 X15.33675 Y5.72855 Z-0.27244 I0.00512 J0.02447
G3 X15.29925 Y5.7502 Z-0.28167 I-0.025 J0.0
G3 Y5.7069 Z-0.2909 I0.0125 J-0.02165
G3 X15.30663 Y5.70408 Z-0.2923 I0.0125 J0.02165
G3 X15.33675 Y5.72855 Z-0.30014 I0.00512 J0.02447
G3 X15.29925 Y5.7502 Z-0.30937 I-0.025 J0.0
G3 Y5.7069 Z-0.3186 I0.0125 J-0.02165
G3 X15.30663 Y5.70408 Z-0.32 I0.0125 J0.02165
G3 X15.33675 Y5.72855 I0.00512 J0.02447
G3 X15.29925 Y5.7502 I-0.025 J0.0
G3 Y5.7069 I0.0125 J-0.02165
G3 X15.30663 Y5.70408 I0.0125 J0.02165
G1 F75.0 X15.29511 Y5.7099
G3 F120.0 X15.29925 Y5.7069 Z-0.3209 I0.01665 J0.01865
G3 X15.30663 Y5.70408 Z-0.3223 I0.0125 J0.02165
G3 X15.33675 Y5.72855 Z-0.33014 I0.00512 J0.02447
G3 X15.29925 Y5.7502 Z-0.33937 I-0.025 J0.0
G3 Y5.7069 Z-0.3486 I0.0125 J-0.02165
G3 X15.30663 Y5.70408 Z-0.35 I0.0125 J0.02165
G3 X15.33675 Y5.72855 I0.00512 J0.02447
G3 X15.29925 Y5.7502 I-0.025 J0.0
G3 Y5.7069 I0.0125 J-0.02165
G3 X15.30663 Y5.70408 I0.0125 J0.02165
G1 F75.0 X15.33302 Y5.71541
G3 F120.0 X15.33675 Y5.72855 Z-0.35244 I-0.02127 J0.01314
G3 X15.29925 Y5.7502 Z-0.36167 I-0.025 J0.0
G3 Y5.7069 Z-0.3709 I0.0125 J-0.02165
G3 X15.30663 Y5.70408 Z-0.3723 I0.0125 J0.02165
G3 X15.33675 Y5.72855 Z-0.38014 I0.00512 J0.02447
G3 X15.29925 Y5.7502 Z-0.38937 I-0.025 J0.0
G3 Y5.7069 Z-0.3986 I0.0125 J-0.02165
G3 X15.30663 Y5.70408 Z-0.4 I0.0125 J0.02165
G3 X15.33675 Y5.72855 I0.00512 J0.02447
G3 X15.29925 Y5.7502 I-0.025 J0.0
G3 Y5.7069 I0.0125 J-0.02165
G3 X15.30663 Y5.70408 I0.0125 J0.02165
G1 F75.0 X15.30459 Y5.69429
G3 F120.0 X15.34675 Y5.72855 I0.00717 J0.03426
G3 X15.29425 Y5.75886 I-0.035 J0.0
G3 Y5.69824 I0.0175 J-0.03031
G3 X15.30459 Y5.69429 I0.0175 J0.03031
G0 Z0.25
G0 X14.83656 Y6.22545
G1 F75.0 Z0.0
G3 F120.0 X14.83675 Y6.22855 Z-0.00055 I-0.02481 J0.0031
G3 X14.79925 Y6.2502 Z-0.00978 I-0.025 J0.0
G3 Y6.2069 Z-0.01901 I0.0125 J-0.02165
G3 X14.82871 Y6.21018 Z-0.02461 I0.0125 J0.02165
G3 X14.83675 Y6.22855 Z-0.02825 I-0.01695 J0.01838
G3 X14.79925 Y6.2502 Z-0.03748 I-0.025 J0.0
G3 Y6.2069 Z-0.04671 I0.0125 J-0.02165
G3 X14.82871 Y6.21018 Z-0.0523 I0.0125 J0.02165
G3 X14.83675 Y6.22855 Z-0.05594 I-0.01695 J0.01838
G3 X14.79925 Y6.2502 Z-0.06517 I-0.025 J0.0
G3 Y6.2069 Z-0.07441 I0.0125 J-0.02165
G3 X14.82871 Y6.21018 Z-0.08 I0.0125 J0.02165
G3 X14.83675 Y6.22855 I-0.01695 J0.01838
G3 X14.79925 Y6.2502 I-0.025 J0.0
G3 Y6.2069 I0.0125 J-0.02165
G3 X14.82871 Y6.21018 I0.0125 J0.02165
G1 F75.0 X14.83656 Y6.22545
G3 F120.0 X14.83675 Y6.22855 Z-0.08055 I-0.02481 J0.0031
G3 X14.79925 Y6.2502 Z-0.08978 I-0.025 J0.0
G3 Y6.2069 Z-0.09901 I0.0125 J-0.02165
G3 X14.82871 Y6.21018 Z-0.10461 I0.0125 J0.02165
G3 X14.83675 Y6.22855 Z-0.10825 I-0.01695 J0.01838
G3 X14.79925 Y6.2502 Z-0.11748 I-0.025 J0.0
G3 Y6.2069 Z-0.12671 I0.0125 J-0.02165
G3 X14.82871 Y6.21018 Z-0.1323 I0.0125 J0.02165
G3 X14.83675 Y6.22855 Z-0.13594 I-0.01695 J0.01838
G3 X14.79925 Y6.2502 Z-0.14517 I-0.025 J0.0
G3 Y6.2069 Z-0.15441 I0.0125 J-0.02165
G3 X14.82871 Y6.21018 Z-0.16 I0.0125 J0.02165
G3 X14.83675 Y6.22855 I-0.01695 J0.01838
G3 X14.79925 Y6.2502 I-0.025 J0.0
G3 Y6.2069 I0.0125 J-0.02165
G3 X14.82871 Y6.21018 I0.0125 J0.02165
G1 F75.0 X14.83656 Y6.22545
G3 F120.0 X14.83675 Y6.22855 Z-0.16055 I-0.02481 J0.0031
G3 X14.79925 Y6.2502 Z-0.16978 I-0.025 J0.0
G3 Y6.2069 Z-0.17901 I0.0125 J-0.02165
G3 X14.82871 Y6.21018 Z-0.18461 I0.0125 J0.02165
G3 X14.83675 Y6.22855 Z-0.18825 I-0.01695 J0.01838
G3 X14.79925 Y6.2502 Z-0.19748 I-0.025 J0.0
G3 Y6.2069 Z-0.20671 I0.0125 J-0.02165
G3 X14.82871 Y6.21018 Z-0.2123 I0.0125 J0.02165
G3 X14.83675 Y6.22855 Z-0.21594 I-0.01695 J0.01838
G3 X14.79925 Y6.2502 Z-0.22517 I-0.025 J0.0
G3 Y6.2069 Z-0.23441 I0.0125 J-0.02165
G3 X14.82871 Y6.21018 Z-0.24 I0.0125 J0.02165
G3 X14.83675 Y6.22855 I-0.01695 J0.01838
G3 X14.79925 Y6.2502 I-0.025 J0.0
G3 Y6.2069 I0.0125 J-0.02165
G3 X14.82871 Y6.21018 I0.0125 J0.02165
G1 F75.0 X14.83656 Y6.22545
G3 F120.0 X14.83675 Y6.22855 Z-0.24055 I-0.02481 J0.0031
G3 X14.79925 Y6.2502 Z-0.24978 I-0.025 J0.0
G3 Y6.2069 Z-0.25901 I0.0125 J-0.02165
G3 X14.82871 Y6.21018 Z-0.26461 I0.0125 J0.02165
G3 X14.83675 Y6.22855 Z-0.26825 I-0.01695 J0.01838
G3 X14.79925 Y6.2502 Z-0.27748 I-0.025 J0.0
G3 Y6.2069 Z-0.28671 I0.0125 J-0.02165
G3 X14.82871 Y6.21018 Z-0.2923 I0.0125 J0.02165
G3 X14.83675 Y6.22855 Z-0.29594 I-0.01695 J0.01838
G3 X14.79925 Y6.2502 Z-0.30517 I-0.025 J0.0
G3 Y6.2069 Z-0.31441 I0.0125 J-0.02165
G3 X14.82871 Y6.21018 Z-0.32 I0.0125 J0.02165
G3 X14.83675 Y6.22855 I-0.01695 J0.01838
G3 X14.79925 Y6.2502 I-0.025 J0.0
G3 Y6.2069 I0.0125 J-0.02165
G3 X14.82871 Y6.21018 I0.0125 J0.02165
G1 F75.0 X14.81728 Y6.20417
G3 F120.0 X14.82871 Y6.21018 Z-0.3223 I-0.00552 J0.02438
G3 X14.83675 Y6.22855 Z-0.32594 I-0.01695 J0.01838
G3 X14.79925 Y6.2502 Z-0.33517 I-0.025 J0.0
G3 Y6.2069 Z-0.34441 I0.0125 J-0.02165
G3 X14.82871 Y6.21018 Z-0.35 I0.0125 J0.02165
G3 X14.83675 Y6.22855 I-0.01695 J0.01838
G3 X14.79925 Y6.2502 I-0.025 J0.0
G3 Y6.2069 I0.0125 J-0.02165
G3 X14.82871 Y6.21018 I0.0125 J0.02165
G1 F75.0 X14.8348 Y6.23824
G3 F120.0 X14.79925 Y6.2502 Z-0.35748 I-0.02305 J-0.00969
G3 Y6.2069 Z-0.36671 I0.0125 J-0.02165
G3 X14.82871 Y6.21018 Z-0.3723 I0.0125 J0.02165
G3 X14.83675 Y6.22855 Z-0.37594 I-0.01695 J0.01838
G3 X14.79925 Y6.2502 Z-0.38517 I-0.025 J0.0
G3 Y6.2069 Z-0.39441 I0.0125 J-0.02165
G3 X14.82871 Y6.21018 Z-0.4 I0.0125 J0.02165
G3 X14.83675 Y6.22855 I-0.01695 J0.01838
G3 X14.79925 Y6.2502 I-0.025 J0.0
G3 Y6.2069 I0.0125 J-0.02165
G3 X14.82871 Y6.21018 I0.0125 J0.02165
G1 F75.0 X14.83549 Y6.20283
G3 F120.0 X14.84675 Y6.22855 I-0.02373 J0.02573
G3 X14.79425 Y6.25886 I-0.035 J0.0
G3 Y6.19824 I0.0175 J-0.03031
G3 X14.83549 Y6.20283 I0.0175 J0.03031
( PinHoles )
S2000
G0 Z0.1
G0 X4.0305 Y6.10355
G98
G83 Z-0.25 Q0.1 R0.1 F75.0
G83 X7.5305 Z-0.25 Q0.1 R0.1
G80
( Slots )
S2000
G0 Z0.25
G0 X13.56344 Y4.45562
G1 Z0.0
G1 F120.0 X14.04417 Z-0.08477
G3 Y4.51062 Z-0.1 I0.0 J0.0275
G1 X12.01292
G3 Y4.45562 I0.0 J-0.0275
G1 X14.04417
G3 Y4.51062 I0.0 J0.0275
G1 F75.0 Y4.56062
G1 F120.0 X12.01292
G3 Y4.40562 I0.0 J-0.0775
G1 X14.04417
G3 Y4.56062 I0.0 J0.0775
G1 F75.0 Y4.61062
G1 F120.0 X12.01292
G3 Y4.35562 I0.0 J-0.1275
G1 X14.04417
G3 Y4.61062 I0.0 J0.1275
G1 F75.0 Y4.66062
G1 F120.0 X12.01292
G3 Y4.30562 I0.0 J-0.1775
G1 X14.04417
G3 Y4.66062 I0.0 J0.1775
G0 Z0.25
G0 X13.56344 Y4.45562
G1 F75.0 Z-0.1
G1 F120.0 X14.04417 Z-0.18477
G3 Y4.51062 Z-0.2 I0.0 J0.0275
G1 X12.01292
G3 Y4.45562 I0.0 J-0.0275
G1 X14.04417
G3 Y4.51062 I0.0 J0.0275
G1 F75.0 Y4.56062
G1 F120.0 X12.01292
G3 Y4.40562 I0.0 J-0.0775
G1 X14.04417
G3 Y4.56062 I0.0 J0.0775
G1 F75.0 Y4.61062
G1 F120.0 X12.01292
G3 Y4.35562 I0.0 J-0.1275
G1 X14.04417
G3 Y4.61062 I0.0 J0.1275
G1 F75.0 Y4.66062
G1 F120.0 X12.01292
G3 Y4.30562 I0.0 J-0.1775
G1 X14.04417
G3 Y4.66062 I0.0 J0.1775
G0 Z0.25
G0 X13.87536 Y4.45562
G1 F75.0 Z-0.2
G1 F120.0 X14.04417 Z-0.22977
G3 Y4.51062 Z-0.245 I0.0 J0.0275
G1 X12.01292
G3 Y4.45562 I0.0 J-0.0275
G1 X14.04417
G3 Y4.51062 I0.0 J0.0275
G1 F75.0 Y4.56062
G1 F120.0 X12.01292
G3 Y4.40562 I0.0 J-0.0775
G1 X14.04417
G3 Y4.56062 I0.0 J0.0775
G1 F75.0 Y4.61062
G1 F120.0 X12.01292
G3 Y4.35562 I0.0 J-0.1275
G1 X14.04417
G3 Y4.61062 I0.0 J0.1275
G1 F75.0 Y4.66062
G1 F120.0 X12.01292
G3 Y4.30562 I0.0 J-0.1775
G1 X14.04417
G3 Y4.66062 I0.0 J0.1775
G0 Z0.25
G0 X14.06776 Y4.49725
G1 F75.0 Z-0.245
G3 F120.0 X14.04417 Y4.51062 Z-0.25 I-0.02359 J-0.01413
G1 X12.01292
G3 Y4.45562 I0.0 J-0.0275
G1 X14.04417
G3 Y4.51062 I0.0 J0.0275
G1 F75.0 Y4.56062
G1 F120.0 X12.01292
G3 Y4.40562 I0.0 J-0.0775
G1 X14.04417
G3 Y4.56062 I0.0 J0.0775
G1 F75.0 Y4.61062
G1 F120.0 X12.01292
G3 Y4.35562 I0.0 J-0.1275
G1 X14.04417
G3 Y4.61062 I0.0 J0.1275
G1 F75.0 Y4.66062
G1 F120.0 X12.01292
G3 Y4.30562 I0.0 J-0.1775
G1 X14.04417
G3 Y4.66062 I0.0 J0.1775
G1 F75.0 Y4.67062
G1 F120.0 X12.01292
G3 Y4.29562 I0.0 J-0.1875
G1 X14.04417
G3 Y4.67062 I0.0 J0.1875
G0 Z0.25
G0 X13.56344 Y1.95562
G1 F75.0 Z0.0
G1 F120.0 X14.04417 Z-0.08477
G3 Y2.01062 Z-0.1 I0.0 J0.0275
G1 X12.01292
G3 Y1.95562 I0.0 J-0.0275
G1 X14.04417
G3 Y2.01062 I0.0 J0.0275
G1 F75.0 Y2.06062
G1 F120.0 X12.01292
G3 Y1.90562 I0.0 J-0.0775
G1 X14.04417
G3 Y2.06062 I0.0 J0.0775
G1 F75.0 Y2.11062
G1 F120.0 X12.01292
G3 Y1.85562 I0.0 J-0.1275
G1 X14.04417
G3 Y2.11062 I0.0 J0.1275
G1 F75.0 Y2.16062
G1 F120.0 X12.01292
G3 Y1.80562 I0.0 J-0.1775
G1 X14.04417
G3 Y2.16062 I0.0 J0.1775
G0 Z0.25
G0 X13.56344 Y1.95562
G1 F75.0 Z-0.1
G1 F120.0 X14.04417 Z-0.18477
G3 Y2.01062 Z-0.2 I0.0 J0.0275
G1 X12.01292
G3 Y1.95562 I0.0 J-0.0275
G1 X14.04417
G3 Y2.01062 I0.0 J0.0275
G1 F75.0 Y2.06062
G1 F120.0 X12.01292
G3 Y1.90562 I0.0 J-0.0775
G1 X14.04417
G3 Y2.06062 I0.0 J0.0775
G1 F75.0 Y2.11062
G1 F120.0 X12.01292
G3 Y1.85562 I0.0 J-0.1275
G1 X14.04417
G3 Y2.11062 I0.0 J0.1275
G1 F75.0 Y2.16062
G1 F120.0 X12.01292
G3 Y1.80562 I0.0 J-0.1775
G1 X14.04417
G3 Y2.16062 I0.0 J0.1775
G0 Z0.25
G0 X13.87536 Y1.95562
G1 F75.0 Z-0.2
G1 F120.0 X14.04417 Z-0.22977
G3 Y2.01062 Z-0.245 I0.0 J0.0275
G1 X12.01292
G3 Y1.95562 I0.0 J-0.0275
G1 X14.04417
G3 Y2.01062 I0.0 J0.0275
G1 F75.0 Y2.06062
G1 F120.0 X12.01292
G3 Y1.90562 I0.0 J-0.0775
G1 X14.04417
G3 Y2.06062 I0.0 J0.0775
G1 F75.0 Y2.11062
G1 F120.0 X12.01292
G3 Y1.85562 I0.0 J-0.1275
G1 X14.04417
G3 Y2.11062 I0.0 J0.1275
G1 F75.0 Y2.16062
G1 F120.0 X12.01292
G3 Y1.80562 I0.0 J-0.1775
G1 X14.04417
G3 Y2.16062 I0.0 J0.1775
G0 Z0.25
G0 X14.06776 Y1.99725
G1 F75.0 Z-0.245
G3 F120.0 X14.04417 Y2.01062 Z-0.25 I-0.02359 J-0.01413
G1 X12.01292
G3 Y1.95562 I0.0 J-0.0275
G1 X14.04417
G3 Y2.01062 I0.0 J0.0275
G1 F75.0 Y2.06062
G1 F120.0 X12.01292
G3 Y1.90562 I0.0 J-0.0775
G1 X14.04417
G3 Y2.06062 I0.0 J0.0775
G1 F75.0 Y2.11062
G1 F120.0 X12.01292
G3 Y1.85562 I0.0 J-0.1275
G1 X14.04417
G3 Y2.11062 I0.0 J0.1275
G1 F75.0 Y2.16062
G1 F120.0 X12.01292
G3 Y1.80562 I0.0 J-0.1775
G1 X14.04417
G3 Y2.16062 I0.0 J0.1775
G1 F75.0 Y2.17062
G1 F120.0 X12.01292
G3 Y1.79562 I0.0 J-0.1875
G1 X14.04417
G3 Y2.17062 I0.0 J0.1875
( SlotsThru )
S2000
G0 Z0.25
G0 X13.55401 Y4.45862
G1 F75.0 Z0.0
G1 F120.0 X14.04417 Z-0.08643
G3 Y4.50762 Z-0.1 I0.0 J0.0245
G1 X12.01292
G3 Y4.45862 I0.0 J-0.0245
G1 X14.04417
G3 Y4.50762 I0.0 J0.0245
G0 Z0.25
G0 X13.55401 Y4.45862
G1 F75.0 Z-0.1
G1 F120.0 X14.04417 Z-0.18643
G3 Y4.50762 Z-0.2 I0.0 J0.0245
G1 X12.01292
G3 Y4.45862 I0.0 J-0.0245
G1 X14.04417
G3 Y4.50762 I0.0 J0.0245
G0 Z0.25
G0 X13.55401 Y4.45862
G1 F75.0 Z-0.2
G1 F120.0 X14.04417 Z-0.28643
G3 Y4.50762 Z-0.3 I0.0 J0.0245
G1 X12.01292
G3 Y4.45862 I0.0 J-0.0245
G1 X14.04417
G3 Y4.50762 I0.0 J0.0245
G0 Z0.25
G0 X13.58237 Y4.45862
G1 F75.0 Z-0.3
G1 F120.0 X14.04417 Z-0.38143
G3 Y4.50762 Z-0.395 I0.0 J0.0245
G1 X12.01292
G3 Y4.45862 I0.0 J-0.0245
G1 X14.04417
G3 Y4.50762 I0.0 J0.0245
G1 F75.0 X14.06661 Y4.49296
G3 F120.0 X14.04417 Y4.50762 Z-0.4 I-0.02244 J-0.00984
G1 X12.01292
G3 Y4.45862 I0.0 J-0.0245
G1 X14.04417
G3 Y4.50762 I0.0 J0.0245
G1 F75.0 Y4.51762
G1 F120.0 X12.01292
G3 Y4.44862 I0.0 J-0.0345
G1 X14.04417
G3 Y4.51762 I0.0 J0.0345
G0 Z0.25
G0 X13.55401 Y1.95862
G1 F75.0 Z0.0
G1 F120.0 X14.04417 Z-0.08643
G3 Y2.00762 Z-0.1 I0.0 J0.0245
G1 X12.01292
G3 Y1.95862 I0.0 J-0.0245
G1 X14.04417
G3 Y2.00762 I0.0 J0.0245
G0 Z0.25
G0 X13.55401 Y1.95862
G1 F75.0 Z-0.1
G1 F120.0 X14.04417 Z-0.18643
G3 Y2.00762 Z-0.2 I0.0 J0.0245
G1 X12.01292
G3 Y1.95862 I0.0 J-0.0245
G1 X14.04417
G3 Y2.00762 I0.0 J0.0245
G0 Z0.25
G0 X13.55401 Y1.95862
G1 F75.0 Z-0.2
G1 F120.0 X14.04417 Z-0.28643
G3 Y2.00762 Z-0.3 I0.0 J0.0245
G1 X12.01292
G3 Y1.95862 I0.0 J-0.0245
G1 X14.04417
G3 Y2.00762 I0.0 J0.0245
G0 Z0.25
G0 X13.58237 Y1.95862
G1 F75.0 Z-0.3
G1 F120.0 X14.04417 Z-0.38143
G3 Y2.00762 Z-0.395 I0.0 J0.0245
G1 X12.01292
G3 Y1.95862 I0.0 J-0.0245
G1 X14.04417
G3 Y2.00762 I0.0 J0.0245
G1 F75.0 X14.06661 Y1.99296
G3 F120.0 X14.04417 Y2.00762 Z-0.4 I-0.02244 J-0.00984
G1 X12.01292
G3 Y1.95862 I0.0 J-0.0245
G1 X14.04417
G3 Y2.00762 I0.0 J0.0245
G1 F75.0 Y2.01762
G1 F120.0 X12.01292
G3 Y1.94862 I0.0 J-0.0345
G1 X14.04417
G3 Y2.01762 I0.0 J0.0345
( RoughInnerPocket )
S2000
G0 Z0.25
G0 X2.70505 Y3.41062
G1 F75.0 Z0.0
G1 F120.0 X2.13792 Z-0.1
G3 X2.08542 Y3.35812 I0.0 J-0.0525
G1 Y0.60812
G3 X2.13792 Y0.55562 I0.0525 J0.0
G1 X11.51292
G3 X11.56542 Y0.60812 I0.0 J0.0525
G1 Y3.35812
G3 X11.51292 Y3.41062 I-0.0525 J0.0
G1 X2.13792
G0 Z0.25
G0 X2.70505
G1 F75.0 Z-0.1
G1 F120.0 X2.13792 Z-0.2
G3 X2.08542 Y3.35812 I0.0 J-0.0525
G1 Y0.60812
G3 X2.13792 Y0.55562 I0.0525 J0.0
G1 X11.51292
G3 X11.56542 Y0.60812 I0.0 J0.0525
G1 Y3.35812
G3 X11.51292 Y3.41062 I-0.0525 J0.0
G1 X2.13792
G0 Z0.25
G0 X2.4782
G1 F75.0 Z-0.2
G1 F120.0 X2.13792 Z-0.26
G3 X2.08542 Y3.35812 I0.0 J-0.0525
G1 Y0.60812
G3 X2.13792 Y0.55562 I0.0525 J0.0
G1 X11.51292
G3 X11.56542 Y0.60812 I0.0 J0.0525
G1 Y3.35812
G3 X11.51292 Y3.41062 I-0.0525 J0.0
G1 X2.13792
G0 Z0.25
G0 X2.70505
G1 F75.0 Z-0.26
G1 F120.0 X2.13792 Z-0.36
G3 X2.08542 Y3.35812 I0.0 J-0.0525
G1 Y0.60812
G3 X2.13792 Y0.55562 I0.0525 J0.0
G1 X11.51292
G3 X11.56542 Y0.60812 I0.0 J0.0525
G1 Y3.35812
G3 X11.51292 Y3.41062 I-0.0525 J0.0
G1 X2.13792
( RoughOuterProfile )
S2000
G0 Z0.25
G0 X-0.042 Y6.06098
G1 F75.0 Z0.0
G1 F120.0 Y6.41605 Z-0.06261
G2 X0.093 Y6.55105 Z-0.1 I0.135 J0.0
G1 X15.49925
G2 X15.63425 Y6.41605 I0.0 J-0.135
G1 Y5.47855
G2 X15.31175 Y5.15605 I-0.3225 J0.0
G1 X0.2805
G2 X-0.042 Y5.47855 I0.0 J0.3225
G1 Y6.41605
G2 X0.093 Y6.55105 I0.135 J0.0
G0 Z0.25
G0 X-0.042 Y6.06098
G1 F75.0 Z-0.1
G1 F120.0 Y6.41605 Z-0.16261
G2 X0.093 Y6.55105 Z-0.2 I0.135 J0.0
G1 X15.49925
G2 X15.63425 Y6.41605 I0.0 J-0.135
G1 Y5.47855
G2 X15.31175 Y5.15605 I-0.3225 J0.0
G1 X0.2805
G2 X-0.042 Y5.47855 I0.0 J0.3225
G1 Y6.41605
G2 X0.093 Y6.55105 I0.135 J0.0
G0 Z0.25
G0 X-0.042 Y6.28783
G1 F75.0 Z-0.2
G1 F120.0 Y6.41605 Z-0.22261
G2 X0.093 Y6.55105 Z-0.26 I0.135 J0.0
G1 X15.49925
G2 X15.63425 Y6.41605 I0.0 J-0.135
G1 Y5.47855
G2 X15.31175 Y5.15605 I-0.3225 J0.0
G1 X0.2805
G2 X-0.042 Y5.47855 I0.0 J0.3225
G1 Y6.41605
G2 X0.093 Y6.55105 I0.135 J0.0
G0 Z0.25
G0 X-0.042 Y6.06098
G1 F75.0 Z-0.26
G1 F120.0 Y6.41605 Z-0.32261
G2 X0.093 Y6.55105 Z-0.36 I0.135 J0.0
G1 X15.49925
G2 X15.63425 Y6.41605 I0.0 J-0.135
G1 Y5.47855
G2 X15.31175 Y5.15605 I-0.3225 J0.0
G1 X0.2805
G2 X-0.042 Y5.47855 I0.0 J0.3225
G1 Y6.41605
G2 X0.093 Y6.55105 I0.135 J0.0
G0 Z0.25
G0 X-0.05958 Y4.64251
G1 F75.0 Z0.0
G1 F120.0 Y4.73312 Z-0.01598
G2 X0.23291 Y5.05422 Z-0.1 I0.3225 J0.0
G2 X0.26292 Y5.05562 I0.03001 J-0.3211
G1 X15.29417
G2 X15.61667 Y4.73312 I0.0 J-0.3225
G1 Y0.04562
G2 X15.48167 Y-0.08938 I-0.135 J0.0
G1 X0.07542
G2 X-0.05958 Y0.04562 I0.0 J0.135
G1 Y4.73312
G2 X0.23291 Y5.05422 I0.3225 J0.0
G0 Z0.25
G0 X-0.05958 Y4.64251
G1 F75.0 Z-0.1
G1 F120.0 Y4.73312 Z-0.11598
G2 X0.23291 Y5.05422 Z-0.2 I0.3225 J0.0
G2 X0.26292 Y5.05562 I0.03001 J-0.3211
G1 X15.29417
G2 X15.61667 Y4.73312 I0.0 J-0.3225
G1 Y0.04562
G2 X15.48167 Y-0.08938 I-0.135 J0.0
G1 X0.07542
G2 X-0.05958 Y0.04562 I0.0 J0.135
G1 Y4.73312
G2 X0.23291 Y5.05422 I0.3225 J0.0
G0 Z0.25
G0 X-0.03122 Y4.86535
G1 F75.0 Z-0.2
G2 F120.0 X0.23291 Y5.05422 Z-0.26 I0.29414 J-0.13223
G2 X0.26292 Y5.05562 I0.03001 J-0.3211
G1 X15.29417
G2 X15.61667 Y4.73312 I0.0 J-0.3225
G1 Y0.04562
G2 X15.48167 Y-0.08938 I-0.135 J0.0
G1 X0.07542
G2 X-0.05958 Y0.04562 I0.0 J0.135
G1 Y4.73312
G2 X0.23291 Y5.05422 I0.3225 J0.0
G0 Z0.25
G0 X-0.05958 Y4.64251
G1 F75.0 Z-0.26
G1 F120.0 Y4.73312 Z-0.27598
G2 X0.23291 Y5.05422 Z-0.36 I0.3225 J0.0
G2 X0.26292 Y5.05562 I0.03001 J-0.3211
G1 X15.29417
G2 X15.61667 Y4.73312 I0.0 J-0.3225
G1 Y0.04562
G2 X15.48167 Y-0.08938 I-0.135 J0.0
G1 X0.07542
G2 X-0.05958 Y0.04562 I0.0 J0.135
G1 Y4.73312
G2 X0.23291 Y5.05422 I0.3225 J0.0
( FinishProfiles )
S2000
G0 Z0.25
G0 X0.44352 Y-0.07938
G1 F75.0 Z0.0
G1 F120.0 X2.65532 Z-0.39
G1 X0.07542
G2 X-0.04958 Y0.04562 I0.0 J0.125
G1 Y4.73312
G2 X0.26292 Y5.04562 I0.3125 J0.0
G1 X2.72078
G0 Z0.25
G0 X0.50898 Y5.16605
G1 F75.0 Z0.0
G1 F120.0 X2.72078 Z-0.39
G1 X0.2805
G2 X-0.032 Y5.47855 I0.0 J0.3125
G1 Y6.41605
G2 X0.093 Y6.54105 I0.125 J0.0
G1 X1.93527
G0 Z0.25
G0 X4.34345
G1 F75.0 Z0.0
G1 F120.0 X2.13165 Z-0.39
G1 X15.49925
G2 X15.62425 Y6.41605 I0.0 J-0.125
G1 Y5.47855
G2 X15.31175 Y5.16605 I-0.3125 J0.0
G1 X12.63133
G0 Z0.25
G0 X14.84313 Y5.04562
G1 F75.0 Z0.0
G1 F120.0 X12.63133 Z-0.39
G1 X15.29417
G2 X15.60667 Y4.73312 I0.0 J-0.3125
G1 Y0.04562
G2 X15.48167 Y-0.07938 I-0.125 J0.0
G1 X13.24665
G0 Z0.25
G0 X10.79919
G1 F75.0 Z0.0
G1 F120.0 X13.01099 Z-0.39
G1 X3.00881
G0 Z0.25
G0 X5.40389 Y5.04562
G1 F75.0 Z0.0
G1 F120.0 X3.19209 Z-0.39
G1 X12.42186
G0 Z0.25
G0 X10.21006 Y5.16605
G1 F75.0 Z0.0
G1 F120.0 X12.42186 Z-0.39
G1 X3.19209
( FinishPocket )
S2000
G0 Z0.25
G0 X2.07542 Y2.12847
G1 F75.0 Z0.0
G1 F120.0 Y3.35812 Z-0.21682
G2 X2.13792 Y3.42062 Z-0.23413 I0.0625 J0.0
G1 X3.0219 Z-0.39
G1 X2.13792
G3 X2.07542 Y3.35812 I0.0 J-0.0625
G1 Y0.60812
G3 X2.13792 Y0.54562 I0.0625 J0.0
G1 X9.38454
G0 Z0.25
G0 X11.57542 Y0.76356
G1 F75.0 Z0.0
G1 F120.0 Y0.60812 Z-0.02741
G2 X11.51292 Y0.54562 Z-0.04472 I-0.0625 J0.0
G1 X9.55474 Z-0.39
G1 X11.51292
G3 X11.57542 Y0.60812 I0.0 J0.0625
G1 Y3.35812
G3 X11.51292 Y3.42062 I-0.0625 J0.0
G1 X3.25755
G0 Z0.25
M5
M30
