( Made using CamBam - http://www.cambam.co.uk )
( combinedparts 8/1/2010 5:04:48 PM )
( T0 : 0.125 )
G20 G90 G64 G40
G0 Z0.5
( T0 : 0.125 )
T0 M6
( Pocket1 )
G17
M3 S0
G0 X0.9532 Y6.9911
G1 F30.0 Z0.0
G2 F300.0 X0.962 Y7.0606 Z-0.0468 I0.984 J7.0225
G2 X1.028 Y7.0225 Z-0.1 I0.984 J7.0225
G2 X0.962 Y6.9844 I0.984 J7.0225
G2 Y7.0606 I0.984 J7.0225
G2 X1.028 Y7.0225 I0.984 J7.0225
G1 F30.0 X1.078
G2 F300.0 X0.937 Y6.9411 I0.984 J7.0225
G2 Y7.1039 I0.984 J7.0225
G2 X1.078 Y7.0225 I0.984 J7.0225
G0 Z0.5
G0 X0.9532 Y6.9911
G1 F30.0 Z-0.1
G2 F300.0 X0.962 Y7.0606 Z-0.1468 I0.984 J7.0225
G2 X1.028 Y7.0225 Z-0.2 I0.984 J7.0225
G2 X0.962 Y6.9844 I0.984 J7.0225
G2 Y7.0606 I0.984 J7.0225
G2 X1.028 Y7.0225 I0.984 J7.0225
G1 F30.0 X1.078
G2 F300.0 X0.937 Y6.9411 I0.984 J7.0225
G2 Y7.1039 I0.984 J7.0225
G2 X1.078 Y7.0225 I0.984 J7.0225
G0 Z0.5
G0 X0.9532 Y6.9911
G1 F30.0 Z-0.2
G2 F300.0 X0.962 Y7.0606 Z-0.2468 I0.984 J7.0225
G2 X1.028 Y7.0225 Z-0.3 I0.984 J7.0225
G2 X0.962 Y6.9844 I0.984 J7.0225
G2 Y7.0606 I0.984 J7.0225
G2 X1.028 Y7.0225 I0.984 J7.0225
G1 F30.0 X1.078
G2 F300.0 X0.937 Y6.9411 I0.984 J7.0225
G2 Y7.1039 I0.984 J7.0225
G2 X1.078 Y7.0225 I0.984 J7.0225
G0 Z0.5
G0 X0.9433 Y7.0391
G1 F30.0 Z-0.3
G2 F300.0 X0.962 Y7.0606 Z-0.3168 I0.984 J7.0225
G2 X1.028 Y7.0225 Z-0.37 I0.984 J7.0225
G2 X0.962 Y6.9844 I0.984 J7.0225
G2 Y7.0606 I0.984 J7.0225
G2 X1.028 Y7.0225 I0.984 J7.0225
G1 F30.0 X1.078
G2 F300.0 X0.937 Y6.9411 I0.984 J7.0225
G2 Y7.1039 I0.984 J7.0225
G2 X1.078 Y7.0225 I0.984 J7.0225
G1 F30.0 X1.0272 Y7.0311
G2 F300.0 X1.028 Y7.0225 Z-0.375 I0.984 J7.0225
G2 X0.962 Y6.9844 I0.984 J7.0225
G2 Y7.0606 I0.984 J7.0225
G2 X1.028 Y7.0225 I0.984 J7.0225
G1 F30.0 X1.078
G2 F300.0 X0.937 Y6.9411 I0.984 J7.0225
G2 Y7.1039 I0.984 J7.0225
G2 X1.078 Y7.0225 I0.984 J7.0225
G0 Z0.5
M5
M30
