( Made using CamBam - http://www.cambam.co.uk )
( combinedparts 8/1/2010 5:08:01 PM )
( T0 : 0.125 )
G20 G90 G64 G40
G0 Z0.05
( T0 : 0.125 )
T0 M6
( Slots )
G17
M3 S0
G0 X14.55652 Y2.40384
G1 F100.0 Z0.0
G1 F130.0 X14.72972 Z-0.1
G2 Y2.34884 I0.0 J-0.0275
G1 X11.22972
G2 Y2.40384 I0.0 J0.0275
G1 X14.72972
G1 F100.0 Y2.45384
G2 F130.0 Y2.29884 I0.0 J-0.0775
G1 X11.22972
G2 Y2.45384 I0.0 J0.0775
G1 X14.72972
G1 F100.0 Y2.50384
G2 F130.0 Y2.24884 I0.0 J-0.1275
G1 X11.22972
G2 Y2.50384 I0.0 J0.1275
G1 X14.72972
G1 F100.0 Y2.55384
G2 F130.0 Y2.19884 I0.0 J-0.1775
G1 X11.22972
G2 Y2.55384 I0.0 J0.1775
G1 X14.72972
G0 Z0.05
G0 X14.55652 Y2.40384
G1 F100.0 Z-0.1
G1 F130.0 X14.72972 Z-0.2
G2 Y2.34884 I0.0 J-0.0275
G1 X11.22972
G2 Y2.40384 I0.0 J0.0275
G1 X14.72972
G1 F100.0 Y2.45384
G2 F130.0 Y2.29884 I0.0 J-0.0775
G1 X11.22972
G2 Y2.45384 I0.0 J0.0775
G1 X14.72972
G1 F100.0 Y2.50384
G2 F130.0 Y2.24884 I0.0 J-0.1275
G1 X11.22972
G2 Y2.50384 I0.0 J0.1275
G1 X14.72972
G1 F100.0 Y2.55384
G2 F130.0 Y2.19884 I0.0 J-0.1775
G1 X11.22972
G2 Y2.55384 I0.0 J0.1775
G1 X14.72972
G0 Z0.05
G0 X14.65178 Y2.40384
G1 F100.0 Z-0.2
G1 F130.0 X14.72972 Z-0.245
G2 Y2.34884 I0.0 J-0.0275
G1 X11.22972
G2 Y2.40384 I0.0 J0.0275
G1 X14.72972
G1 F100.0 Y2.45384
G2 F130.0 Y2.29884 I0.0 J-0.0775
G1 X11.22972
G2 Y2.45384 I0.0 J0.0775
G1 X14.72972
G1 F100.0 Y2.50384
G2 F130.0 Y2.24884 I0.0 J-0.1275
G1 X11.22972
G2 Y2.50384 I0.0 J0.1275
G1 X14.72972
G1 F100.0 Y2.55384
G2 F130.0 Y2.19884 I0.0 J-0.1775
G1 X11.22972
G2 Y2.55384 I0.0 J0.1775
G1 X14.72972
G0 Z0.05
G0 X14.72106 Y2.40384
G1 F100.0 Z-0.245
G1 F130.0 X14.72972 Z-0.25
G2 Y2.34884 I0.0 J-0.0275
G1 X11.22972
G2 Y2.40384 I0.0 J0.0275
G1 X14.72972
G1 F100.0 Y2.45384
G2 F130.0 Y2.29884 I0.0 J-0.0775
G1 X11.22972
G2 Y2.45384 I0.0 J0.0775
G1 X14.72972
G1 F100.0 Y2.50384
G2 F130.0 Y2.24884 I0.0 J-0.1275
G1 X11.22972
G2 Y2.50384 I0.0 J0.1275
G1 X14.72972
G1 F100.0 Y2.55384
G2 F130.0 Y2.19884 I0.0 J-0.1775
G1 X11.22972
G2 Y2.55384 I0.0 J0.1775
G1 X14.72972
G1 F100.0 Y2.56384
G2 F130.0 Y2.18884 I0.0 J-0.1875
G1 X11.22972
G2 Y2.56384 I0.0 J0.1875
G1 X14.72972
G0 Z0.05
G0 X14.64291 Y4.90384
G1 F100.0 Z0.0
G1 F130.0 X14.72972 Z-0.05012
G2 Y4.84884 Z-0.1 I0.0 J-0.0275
G1 X11.22972
G2 Y4.90384 I0.0 J0.0275
G1 X14.72972
G2 Y4.84884 I0.0 J-0.0275
G1 F100.0 Y4.79884
G1 F130.0 X11.22972
G2 Y4.95384 I0.0 J0.0775
G1 X14.72972
G2 Y4.79884 I0.0 J-0.0775
G1 F100.0 Y4.74884
G1 F130.0 X11.22972
G2 Y5.00384 I0.0 J0.1275
G1 X14.72972
G2 Y4.74884 I0.0 J-0.1275
G1 F100.0 Y4.69884
G1 F130.0 X11.22972
G2 Y5.05384 I0.0 J0.1775
G1 X14.72972
G2 Y4.69884 I0.0 J-0.1775
G0 Z0.05
G0 X14.64291 Y4.90384
G1 F100.0 Z-0.1
G1 F130.0 X14.72972 Z-0.15012
G2 Y4.84884 Z-0.2 I0.0 J-0.0275
G1 X11.22972
G2 Y4.90384 I0.0 J0.0275
G1 X14.72972
G2 Y4.84884 I0.0 J-0.0275
G1 F100.0 Y4.79884
G1 F130.0 X11.22972
G2 Y4.95384 I0.0 J0.0775
G1 X14.72972
G2 Y4.79884 I0.0 J-0.0775
G1 F100.0 Y4.74884
G1 F130.0 X11.22972
G2 Y5.00384 I0.0 J0.1275
G1 X14.72972
G2 Y4.74884 I0.0 J-0.1275
G1 F100.0 Y4.69884
G1 F130.0 X11.22972
G2 Y5.05384 I0.0 J0.1775
G1 X14.72972
G2 Y4.69884 I0.0 J-0.1775
G0 Z0.05
G0 X14.73804 Y4.90255
G1 F100.0 Z-0.2
G2 F130.0 X14.72972 Y4.84884 Z-0.245 I-0.00832 J-0.02621
G1 X11.22972
G2 Y4.90384 I0.0 J0.0275
G1 X14.72972
G2 Y4.84884 I0.0 J-0.0275
G1 F100.0 Y4.79884
G1 F130.0 X11.22972
G2 Y4.95384 I0.0 J0.0775
G1 X14.72972
G2 Y4.79884 I0.0 J-0.0775
G1 F100.0 Y4.74884
G1 F130.0 X11.22972
G2 Y5.00384 I0.0 J0.1275
G1 X14.72972
G2 Y4.74884 I0.0 J-0.1275
G1 F100.0 Y4.69884
G1 F130.0 X11.22972
G2 Y5.05384 I0.0 J0.1775
G1 X14.72972
G2 Y4.69884 I0.0 J-0.1775
G0 Z0.05
G0 X14.73824 Y4.85019
G1 F100.0 Z-0.245
G2 F130.0 X14.72972 Y4.84884 Z-0.25 I-0.00852 J0.02615
G1 X11.22972
G2 Y4.90384 I0.0 J0.0275
G1 X14.72972
G2 Y4.84884 I0.0 J-0.0275
G1 F100.0 Y4.79884
G1 F130.0 X11.22972
G2 Y4.95384 I0.0 J0.0775
G1 X14.72972
G2 Y4.79884 I0.0 J-0.0775
G1 F100.0 Y4.74884
G1 F130.0 X11.22972
G2 Y5.00384 I0.0 J0.1275
G1 X14.72972
G2 Y4.74884 I0.0 J-0.1275
G1 F100.0 Y4.69884
G1 F130.0 X11.22972
G2 Y5.05384 I0.0 J0.1775
G1 X14.72972
G2 Y4.69884 I0.0 J-0.1775
G1 F100.0 Y4.68884
G1 F130.0 X11.22972
G2 Y5.06384 I0.0 J0.1875
G1 X14.72972
G2 Y4.68884 I0.0 J-0.1875
G0 Z0.05
M5
M30
