( Made using CamBam - http://www.cambam.co.uk )
( drillbasegrid 5/3/2011 7:28:08 PM )
( T0 : 0.125 )
G20 G90 G64 G40
G0 Z0.1
( T0 : 0.125 )
( Holes )
G17
M3 S2000
G0 Z0.1
G0 X0.0 Y0.0
G83 Z-0.7 Q0.05 R0.1 F15.0
G83 X1.0 Z-0.7
G83 X2.0 Z-0.7
G83 X3.0 Z-0.7
G83 X4.0 Z-0.7
G83 X5.0 Z-0.7
G83 X6.0 Z-0.7
G83 X7.0 Z-0.7
G83 X8.0 Z-0.7
G83 X9.0 Z-0.7
G83 X10.0 Z-0.7
G83 X11.0 Z-0.7
G83 X12.0 Z-0.7
G83 X13.0 Z-0.7
G83 X14.0 Z-0.7
G83 X15.0 Z-0.7
G83 X16.0 Z-0.7
G83 X17.0 Z-0.7
G83 Y1.0  Z-0.7
G83 X16.0 Z-0.7
G83 X15.0 Z-0.7
G83 X14.0 Z-0.7
G83 X13.0 Z-0.7
G83 X12.0 Z-0.7
G83 X11.0 Z-0.7
G83 X10.0 Z-0.7
G83 X9.0 Z-0.7
G83 X8.0 Z-0.7
G83 X7.0 Z-0.7
G83 X6.0 Z-0.7
G83 X5.0 Z-0.7
G83 X4.0 Z-0.7
G83 X3.0 Z-0.7
G83 X2.0 Z-0.7
G83 X1.0 Z-0.7
G83 X0.0 Z-0.7
G83 Y2.0 Z-0.7
G83 X1.0 Z-0.7
G83 X2.0 Z-0.7
G83 X3.0 Z-0.7
G83 X4.0 Z-0.7
G83 X5.0 Z-0.7
G83 X6.0 Z-0.7
G83 X7.0 Z-0.7
G83 X8.0 Z-0.7
G83 X9.0 Z-0.7
G83 X10.0 Z-0.7
G83 X11.0 Z-0.7
G83 X12.0 Z-0.7
G83 X13.0 Z-0.7
G83 X14.0 Z-0.7
G83 X15.0 Z-0.7
G83 X16.0 Z-0.7
G83 X17.0 Z-0.7
G83 Y3.0 Z-0.7
G83 X16.0 Z-0.7
G83 X15.0 Z-0.7
G83 X14.0 Z-0.7
G83 X13.0 Z-0.7
G83 X12.0 Z-0.7
G83 X11.0 Z-0.7
G83 X10.0 Z-0.7
G83 X9.0 Z-0.7
G83 X8.0 Z-0.7
G83 X7.0 Z-0.7
G83 X6.0 Z-0.7
G83 X5.0 Z-0.7
G83 X4.0 Z-0.7
G83 X3.0 Z-0.7
G83 X2.0 Z-0.7
G83 X1.0 Z-0.7
G83 X0.0 Z-0.7
G83 Y4.0 Z-0.7
G83 X1.0 Z-0.7
G83 X2.0 Z-0.7
G83 X3.0 Z-0.7
G83 X4.0 Z-0.7
G83 X5.0 Z-0.7
G83 X6.0 Z-0.7
G83 X7.0 Z-0.7
G83 X8.0 Z-0.7
G83 X9.0 Z-0.7
G83 X10.0 Z-0.7
G83 X11.0 Z-0.7
G83 X12.0 Z-0.7
G83 X13.0 Z-0.7
G83 X14.0 Z-0.7
G83 X15.0 Z-0.7
G83 X16.0 Z-0.7
G83 X17.0 Z-0.7
G83 Y5.0  Z-0.7
G83 X16.0 Z-0.7
G83 X15.0 Z-0.7
G83 X14.0 Z-0.7
G83 X13.0 Z-0.7
G83 X12.0 Z-0.7
G83 X11.0 Z-0.7
G83 X10.0 Z-0.7
G83 X9.0 Z-0.7
G83 X8.0 Z-0.7
G83 X7.0 Z-0.7
G83 X6.0 Z-0.7
G83 X5.0 Z-0.7
G83 X4.0 Z-0.7
G83 X3.0 Z-0.7
G83 X2.0 Z-0.7
G83 X1.0 Z-0.7
G83 X0.0 Z-0.7
G83 Y6.0 Z-0.7
G83 X1.0 Z-0.7
G83 X2.0 Z-0.7
G83 X3.0 Z-0.7
G83 X4.0 Z-0.7
G83 X5.0 Z-0.7
G83 X6.0 Z-0.7
G83 X7.0 Z-0.7
G83 X8.0 Z-0.7
G83 X9.0 Z-0.7
G83 X10.0 Z-0.7
G83 X11.0 Z-0.7
G83 X12.0 Z-0.7
G83 X13.0 Z-0.7
G83 X14.0 Z-0.7
G83 X15.0 Z-0.7
G83 X16.0 Z-0.7
G83 X17.0 Z-0.7
G83 Y7.0  Z-0.7
G83 X16.0 Z-0.7
G83 X15.0 Z-0.7
G83 X14.0 Z-0.7
G83 X13.0 Z-0.7
G83 X12.0 Z-0.7
G83 X11.0 Z-0.7
G83 X10.0 Z-0.7
G83 X9.0 Z-0.7
G83 X8.0 Z-0.7
G83 X7.0 Z-0.7
G83 X6.0 Z-0.7
G83 X5.0 Z-0.7
G83 X4.0 Z-0.7
G83 X3.0 Z-0.7
G83 X2.0 Z-0.7
G83 X1.0 Z-0.7
G83 X0.0 Z-0.7
G83 Y8.0 Z-0.7
G83 X1.0 Z-0.7
G83 X2.0 Z-0.7
G83 X3.0 Z-0.7
G83 X4.0 Z-0.7
G83 X5.0 Z-0.7
G83 X6.0 Z-0.7
G83 X7.0 Z-0.7
G83 X8.0 Z-0.7
G83 X9.0 Z-0.7
G83 X10.0 Z-0.7
G83 X11.0 Z-0.7
G83 X12.0 Z-0.7
G83 X13.0 Z-0.7
G83 X14.0 Z-0.7
G83 X15.0 Z-0.7
G83 X16.0 Z-0.7
G83 X17.0 Z-0.7
G83 Y9.0  Z-0.7
G83 X16.0 Z-0.7
G83 X15.0 Z-0.7
G83 X14.0 Z-0.7
G83 X13.0 Z-0.7
G83 X12.0 Z-0.7
G83 X11.0 Z-0.7
G83 X10.0 Z-0.7
G83 X9.0 Z-0.7
G83 X8.0 Z-0.7
G83 X7.0 Z-0.7
G83 X6.0 Z-0.7
G83 X5.0 Z-0.7
G83 X4.0 Z-0.7
G83 X3.0 Z-0.7
G83 X2.0 Z-0.7
G83 X1.0 Z-0.7
G83 X0.0 Z-0.7
G80
M5
M30
