( Made using CamBam - http://www.cambam.co.uk )
( DustShoe2 1/30/2011 9:08:57 PM )
( T0 : 0.125 )
G20 G90 G64 G40
G0 Z0.5
( T0 : 0.125 )
T0 M6
( prof-rough )
G17
M3 S0
G0 X4.2289 Y1.0857
G1 F40.0 Z0.0
G1 F120.0 X5.4102 Z-0.2083
G3 X5.6402 Y1.1331 Z-0.25 I0.0 J0.5825
G1 F140.0 X9.7809 Y2.9131
G3 X10.1334 Y3.4482 I-0.23 J0.5351
G1 Y6.1682
G3 X9.3009 Y7.0007 I-0.8325 J0.0
G1 X1.8009
G3 X0.9684 Y6.1682 I0.0 J-0.8325
G1 Y1.9182
G3 X1.8009 Y1.0857 I0.8325 J0.0
G1 X5.4102
G3 X5.6402 Y1.1331 I0.0 J0.5825
G0 Z0.5
G0 X4.9378 Y1.0857
G1 F40.0 Z-0.25
G1 F120.0 X5.4102 Z-0.3333
G3 X5.6402 Y1.1331 Z-0.375 I0.0 J0.5825
G1 F140.0 X9.7809 Y2.9131
G3 X10.1334 Y3.4482 I-0.23 J0.5351
G1 Y6.1682
G3 X9.3009 Y7.0007 I-0.8325 J0.0
G1 X1.8009
G3 X0.9684 Y6.1682 I0.0 J-0.8325
G1 Y1.9182
G3 X1.8009 Y1.0857 I0.8325 J0.0
G1 X5.4102
G3 X5.6402 Y1.1331 I0.0 J0.5825
G1 F40.0 X5.6139 Y1.1225
G3 F120.0 X5.6402 Y1.1331 Z-0.38 I-0.2037 J0.5457
G1 F140.0 X9.7809 Y2.9131
G3 X10.1334 Y3.4482 I-0.23 J0.5351
G1 Y6.1682
G3 X9.3009 Y7.0007 I-0.8325 J0.0
G1 X1.8009
G3 X0.9684 Y6.1682 I0.0 J-0.8325
G1 Y1.9182
G3 X1.8009 Y1.0857 I0.8325 J0.0
G1 X5.4102
G3 X5.6402 Y1.1331 I0.0 J0.5825
( prof-finish )
S0
G0 Z0.5
G0 X4.2207 Y1.1057
G1 F40.0 Z0.0
G1 F120.0 X5.4102 Z-0.2097
G3 X5.6323 Y1.1514 Z-0.25 I0.0 J0.5625
G1 F140.0 X9.773 Y2.9314
G3 X10.1134 Y3.4482 I-0.2222 J0.5168
G1 Y6.1682
G3 X9.3009 Y6.9807 I-0.8125 J0.0
G1 X1.8009
G3 X0.9884 Y6.1682 I0.0 J-0.8125
G1 Y1.9182
G3 X1.8009 Y1.1057 I0.8125 J0.0
G1 X5.4102
G3 X5.6323 Y1.1514 I0.0 J0.5625
G0 Z0.5
G0 X4.9297 Y1.1057
G1 F40.0 Z-0.25
G1 F120.0 X5.4102 Z-0.3347
G3 X5.6323 Y1.1514 Z-0.375 I0.0 J0.5625
G1 F140.0 X9.773 Y2.9314
G3 X10.1134 Y3.4482 I-0.2222 J0.5168
G1 Y6.1682
G3 X9.3009 Y6.9807 I-0.8125 J0.0
G1 X1.8009
G3 X0.9884 Y6.1682 I0.0 J-0.8125
G1 Y1.9182
G3 X1.8009 Y1.1057 I0.8125 J0.0
G1 X5.4102
G3 X5.6323 Y1.1514 I0.0 J0.5625
G1 F40.0 X5.606 Y1.1409
G3 F120.0 X5.6323 Y1.1514 Z-0.38 I-0.1958 J0.5273
G1 F140.0 X9.773 Y2.9314
G3 X10.1134 Y3.4482 I-0.2222 J0.5168
G1 Y6.1682
G3 X9.3009 Y6.9807 I-0.8125 J0.0
G1 X1.8009
G3 X0.9884 Y6.1682 I0.0 J-0.8125
G1 Y1.9182
G3 X1.8009 Y1.1057 I0.8125 J0.0
G1 X5.4102
G3 X5.6323 Y1.1514 I0.0 J0.5625
( innerprof-rough )
S0
G0 Z0.5
G0 X9.3434 Y5.0027
G1 F40.0 Z0.0
G1 F120.0 Y3.5849 Z-0.25
G1 F140.0 X5.3675 Y1.8757
G1 X1.8009
G2 X1.7584 Y1.9182 I0.0 J0.0425
G1 Y6.1682
G2 X1.8009 Y6.2107 I0.0425 J0.0
G1 X9.3009
G2 X9.3434 Y6.1682 I0.0 J-0.0425
G1 Y3.5849
G0 Z0.5
G0 Y4.2938
G1 F40.0 Z-0.25
G1 F120.0 Y3.5849 Z-0.375
G1 F140.0 X5.3675 Y1.8757
G1 X1.8009
G2 X1.7584 Y1.9182 I0.0 J0.0425
G1 Y6.1682
G2 X1.8009 Y6.2107 I0.0425 J0.0
G1 X9.3009
G2 X9.3434 Y6.1682 I0.0 J-0.0425
G1 Y3.5849
G1 F40.0 Y3.6132
G1 F120.0 Y3.5849 Z-0.38
G1 F140.0 X5.3675 Y1.8757
G1 X1.8009
G2 X1.7584 Y1.9182 I0.0 J0.0425
G1 Y6.1682
G2 X1.8009 Y6.2107 I0.0425 J0.0
G1 X9.3009
G2 X9.3434 Y6.1682 I0.0 J-0.0425
G1 Y3.5849
( innerprof-finish )
S0
G0 Z0.5
G0 X9.3634 Y4.9895
G1 F40.0 Z0.0
G1 F120.0 Y3.5717 Z-0.25
G1 F140.0 X5.3716 Y1.8557
G1 X1.8009
G2 X1.7384 Y1.9182 I0.0 J0.0625
G1 Y6.1682
G2 X1.8009 Y6.2307 I0.0625 J0.0
G1 X9.3009
G2 X9.3634 Y6.1682 I0.0 J-0.0625
G1 Y3.5717
G0 Z0.5
G0 Y4.2806
G1 F40.0 Z-0.25
G1 F120.0 Y3.5717 Z-0.375
G1 F140.0 X5.3716 Y1.8557
G1 X1.8009
G2 X1.7384 Y1.9182 I0.0 J0.0625
G1 Y6.1682
G2 X1.8009 Y6.2307 I0.0625 J0.0
G1 X9.3009
G2 X9.3634 Y6.1682 I0.0 J-0.0625
G1 Y3.5717
G1 F40.0 Y3.6001
G1 F120.0 Y3.5717 Z-0.38
G1 F140.0 X5.3716 Y1.8557
G1 X1.8009
G2 X1.7384 Y1.9182 I0.0 J0.0625
G1 Y6.1682
G2 X1.8009 Y6.2307 I0.0625 J0.0
G1 X9.3009
G2 X9.3634 Y6.1682 I0.0 J-0.0625
G1 Y3.5717
( bristleholes )
S0
G0 Z0.25
G0 X1.4915 Y6.4776
G83 Z-0.38 Q0.1 R0.25 F40.0
G83 X1.3634 Y6.1682 Z-0.38
G83 Y5.7932 Z-0.38
G83 Y5.4182 Z-0.38
G83 Y5.0432 Z-0.38
G83 Y4.6682 Z-0.38
G83 Y4.2932 Z-0.38
G83 Y3.9182 Z-0.38
G83 Y3.5432 Z-0.38
G83 Y3.1682 Z-0.38
G83 Y2.7932 Z-0.38
G83 Y2.4182 Z-0.38
G83 Y2.0432 Z-0.38
G83 X1.4561 Y1.6489 Z-0.38
G83 X1.8009 Y1.4807 Z-0.38
G83 X2.1759 Z-0.38
G83 X2.5509 Z-0.38
G83 X2.9259 Z-0.38
G83 X3.3009 Z-0.38
G83 X3.6759 Z-0.38
G83 X4.0509 Z-0.38
G83 X4.4259 Z-0.38
G83 X4.8009 Z-0.38
G83 X5.1759 Z-0.38
G83 X5.4842 Y1.496 Z-0.38
G83 X5.7985 Y1.6281 Z-0.38
G83 X6.1429 Y1.7764 Z-0.38
G83 X6.4874 Y1.9247 Z-0.38
G83 X6.8318 Y2.0731 Z-0.38
G83 X7.1762 Y2.2214 Z-0.38
G83 X7.5206 Y2.3697 Z-0.38
G83 X7.865 Y2.5181 Z-0.38
G83 X8.2094 Y2.6664 Z-0.38
G83 X8.5539 Y2.8147 Z-0.38
G83 X8.8983 Y2.963 Z-0.38
G83 X9.2427 Y3.1114 Z-0.38
G83 X9.5871 Y3.2597 Z-0.38
G83 X9.7384 Y3.5432 Z-0.38
G83 Y3.9182 Z-0.38
G83 Y4.2932 Z-0.38
G83 Y4.6682 Z-0.38
G83 Y5.0432 Z-0.38
G83 Y5.4182 Z-0.38
G83 Y5.7932 Z-0.38
G83 Y6.1682 Z-0.38
G83 X9.6102 Y6.4776 Z-0.38
G83 X9.3009 Y6.6057 Z-0.38
G83 X8.9259 Z-0.38
G83 X8.5509 Z-0.38
G83 X8.1759 Z-0.38
G83 X7.8009 Z-0.38
G83 X7.4259 Z-0.38
G83 X7.0509 Z-0.38
G83 X6.6759 Z-0.38
G83 X6.3009 Z-0.38
G83 X5.9259 Z-0.38
G83 X5.5509 Z-0.38
G83 X5.1759 Z-0.38
G83 X4.8009 Z-0.38
G83 X4.4259 Z-0.38
G83 X4.0509 Z-0.38
G83 X3.6759 Z-0.38
G83 X3.3009 Z-0.38
G83 X2.9259 Z-0.38
G83 X2.5509 Z-0.38
G83 X2.1759 Z-0.38
G83 X1.8009 Z-0.38
G80
M5
M30
