( Made using CamBam - http://www.cambam.co.uk )
( DustShoe 2/20/2011 2:59:10 PM )
( T0 : 0.125 )
G20 G90 G64 G40
G0 Z0.5
( T0 : 0.125 )
( T0 M6 )
( hole1-rough )
G17
M3 S2000
G0 X5.4166 Y3.3578
G1 F60.0 Z0.0
G3 F120.0 X5.547 Y4.0504 Z-0.125 I-1.7746 J0.6927
G3 F125.0 X2.6895 Y5.7002 I-1.905 J0.0
G3 Y2.4007 I0.9525 J-1.6498
G3 X5.547 Y4.0504 I0.9525 J1.6498
G0 Z0.5
G0 X5.4166 Y3.3578
G1 F60.0 Z-0.125
G3 F120.0 X5.547 Y4.0504 Z-0.25 I-1.7746 J0.6927
G3 F125.0 X2.6895 Y5.7002 I-1.905 J0.0
G3 Y2.4007 I0.9525 J-1.6498
G3 X5.547 Y4.0504 I0.9525 J1.6498
G0 Z0.5
G0 X5.4365 Y3.4109
G1 F60.0 Z-0.25
G3 F120.0 X5.547 Y4.0504 Z-0.365 I-1.7944 J0.6395
G3 F125.0 X2.6895 Y5.7002 I-1.905 J0.0
G3 Y2.4007 I0.9525 J-1.6498
G3 X5.547 Y4.0504 I0.9525 J1.6498
G1 F60.0 X5.5468 Y4.0221
G3 F120.0 X5.547 Y4.0504 Z-0.37 I-1.9048 J0.0284
G3 F125.0 X2.6895 Y5.7002 I-1.905 J0.0
G3 Y2.4007 I0.9525 J-1.6498
G3 X5.547 Y4.0504 I0.9525 J1.6498
( hole1-finish )
S2000
G0 Z0.5
G0 X4.4815 Y2.3181
G1 F60.0 Z0.005
G3 F120.0 X5.567 Y4.0504 Z-0.375 I-0.8395 J1.7323
G3 F125.0 X2.6795 Y5.7175 I-1.925 J0.0
G3 Y2.3833 I0.9625 J-1.6671
G3 X5.567 Y4.0504 I0.9625 J1.6671
G1 F60.0 X5.5668 Y4.0221
G3 F120.0 X5.567 Y4.0504 Z-0.38 I-1.9248 J0.0284
G3 F125.0 X2.6795 Y5.7175 I-1.925 J0.0
G3 Y2.3833 I0.9625 J-1.6671
G3 X5.567 Y4.0504 I0.9625 J1.6671
( hole2-rough )
S2000
G0 Z0.5
G0 X8.2129 Y4.2162
G1 F60.0 Z0.0
G3 F120.0 X8.522 Y4.8254 Z-0.125 I-0.4459 J0.6092
G3 F125.0 X7.3895 Y5.4793 I-0.755 J0.0
G3 Y4.1716 I0.3775 J-0.6538
G3 X8.522 Y4.8254 I0.3775 J0.6538
G0 Z0.5
G0 X8.2129 Y4.2162
G1 F60.0 Z-0.125
G3 F120.0 X8.522 Y4.8254 Z-0.25 I-0.4459 J0.6092
G3 F125.0 X7.3895 Y5.4793 I-0.755 J0.0
G3 Y4.1716 I0.3775 J-0.6538
G3 X8.522 Y4.8254 I0.3775 J0.6538
G0 Z0.5
G0 X8.2574 Y4.2514
G1 F60.0 Z-0.25
G3 F120.0 X8.522 Y4.8254 Z-0.365 I-0.4904 J0.5741
G3 F125.0 X7.3895 Y5.4793 I-0.755 J0.0
G3 Y4.1716 I0.3775 J-0.6538
G3 X8.522 Y4.8254 I0.3775 J0.6538
G1 F60.0 X8.5215 Y4.7971
G3 F120.0 X8.522 Y4.8254 Z-0.37 I-0.7545 J0.0283
G3 F125.0 X7.3895 Y5.4793 I-0.755 J0.0
G3 Y4.1716 I0.3775 J-0.6538
G3 X8.522 Y4.8254 I0.3775 J0.6538
( hole2-finish )
S2000
G0 Z0.5
G0 X7.0419 Y4.5518
G1 F60.0 Z0.005
G3 F120.0 X7.3795 Y4.1543 Z-0.0888 I0.7251 J0.2736
G3 X8.542 Y4.8254 Z-0.375 I0.3875 J0.6712
G3 F125.0 X7.3795 Y5.4966 I-0.775 J0.0
G3 Y4.1543 I0.3875 J-0.6712
G3 X8.542 Y4.8254 I0.3875 J0.6712
G1 F60.0 X8.5415 Y4.7971
G3 F120.0 X8.542 Y4.8254 Z-0.38 I-0.7745 J0.0284
G3 F125.0 X7.3795 Y5.4966 I-0.775 J0.0
G3 Y4.1543 I0.3875 J-0.6712
G3 X8.542 Y4.8254 I0.3875 J0.6712
( prof-rough )
S2000
G0 Z0.5
G0 X6.2953 Y1.7061
G1 F60.0 Z0.0
G1 F120.0 X5.6475 Y1.4181 Z-0.125
G2 F125.0 X5.4109 Y1.3679 I-0.2366 J0.5323
G1 X1.767
G2 X0.9345 Y2.2004 I0.0 J0.8325
G1 Y6.4504
G2 X1.767 Y7.2829 I0.8325 J0.0
G1 X9.267
G2 X10.0995 Y6.4504 I0.0 J-0.8325
G1 Y3.7754
G2 X9.7536 Y3.2431 I-0.5825 J0.0
G1 X5.6475 Y1.4181
G0 Z0.5
G0 X6.2953 Y1.7061
G1 F60.0 Z-0.125
G1 F120.0 X5.6475 Y1.4181 Z-0.25
G2 F125.0 X5.4109 Y1.3679 I-0.2366 J0.5323
G1 X1.767
G2 X0.9345 Y2.2004 I0.0 J0.8325
G1 Y6.4504
G2 X1.767 Y7.2829 I0.8325 J0.0
G1 X9.267
G2 X10.0995 Y6.4504 I0.0 J-0.8325
G1 Y3.7754
G2 X9.7536 Y3.2431 I-0.5825 J0.0
G1 X5.6475 Y1.4181
G0 Z0.5
G0 X6.2435 Y1.683
G1 F60.0 Z-0.25
G1 F120.0 X5.6475 Y1.4181 Z-0.365
G2 F125.0 X5.4109 Y1.3679 I-0.2366 J0.5323
G1 X1.767
G2 X0.9345 Y2.2004 I0.0 J0.8325
G1 Y6.4504
G2 X1.767 Y7.2829 I0.8325 J0.0
G1 X9.267
G2 X10.0995 Y6.4504 I0.0 J-0.8325
G1 Y3.7754
G2 X9.7536 Y3.2431 I-0.5825 J0.0
G1 X5.6475 Y1.4181
G1 F60.0 X5.6734 Y1.4297
G1 F120.0 X5.6475 Y1.4181 Z-0.37
G2 F125.0 X5.4109 Y1.3679 I-0.2366 J0.5323
G1 X1.767
G2 X0.9345 Y2.2004 I0.0 J0.8325
G1 Y6.4504
G2 X1.767 Y7.2829 I0.8325 J0.0
G1 X9.267
G2 X10.0995 Y6.4504 I0.0 J-0.8325
G1 Y3.7754
G2 X9.7536 Y3.2431 I-0.5825 J0.0
G1 X5.6475 Y1.4181
( prof-finish )
S2000
G0 Z0.5
G0 X7.6087 Y2.3117
G1 F60.0 Z0.005
G1 F120.0 X5.6394 Y1.4364 Z-0.375
G2 F125.0 X5.4109 Y1.3879 I-0.2285 J0.514
G1 X1.767
G2 X0.9545 Y2.2004 I0.0 J0.8125
G1 Y6.4504
G2 X1.767 Y7.2629 I0.8125 J0.0
G1 X9.267
G2 X10.0795 Y6.4504 I0.0 J-0.8125
G1 Y3.7754
G2 X9.7455 Y3.2614 I-0.5625 J0.0
G1 X5.6394 Y1.4364
G1 F60.0 X5.6653 Y1.4479
G1 F120.0 X5.6394 Y1.4364 Z-0.38
G2 F125.0 X5.4109 Y1.3879 I-0.2285 J0.514
G1 X1.767
G2 X0.9545 Y2.2004 I0.0 J0.8125
G1 Y6.4504
G2 X1.767 Y7.2629 I0.8125 J0.0
G1 X9.267
G2 X10.0795 Y6.4504 I0.0 J-0.8125
G1 Y3.7754
G2 X9.7455 Y3.2614 I-0.5625 J0.0
G1 X5.6394 Y1.4364
G0 Z0.5
M5
M30
