( Made using CamBam - http://www.cambam.co.uk )
( DustShoe 1/30/2011 9:09:15 PM )
( T0 : 0.125 )
G20 G90 G64 G40
G0 Z0.5
( T0 : 0.125 )
T0 M6
( prof-rough )
G17
M3 S0
G0 X4.2367 Y1.3679
G1 F40.0 Z0.0
G1 F120.0 X5.4109 Z-0.207
G3 X5.6475 Y1.4181 Z-0.25 I0.0 J0.5825
G1 F140.0 X9.7536 Y3.2431
G3 X10.0995 Y3.7754 I-0.2366 J0.5323
G1 Y6.4504
G3 X9.267 Y7.2829 I-0.8325 J0.0
G1 X1.767
G3 X0.9345 Y6.4504 I0.0 J-0.8325
G1 Y2.2004
G3 X1.767 Y1.3679 I0.8325 J0.0
G1 X5.4109
G3 X5.6475 Y1.4181 I0.0 J0.5825
G0 Z0.5
G0 X4.9456 Y1.3679
G1 F40.0 Z-0.25
G1 F120.0 X5.4109 Z-0.332
G3 X5.6475 Y1.4181 Z-0.375 I0.0 J0.5825
G1 F140.0 X9.7536 Y3.2431
G3 X10.0995 Y3.7754 I-0.2366 J0.5323
G1 Y6.4504
G3 X9.267 Y7.2829 I-0.8325 J0.0
G1 X1.767
G3 X0.9345 Y6.4504 I0.0 J-0.8325
G1 Y2.2004
G3 X1.767 Y1.3679 I0.8325 J0.0
G1 X5.4109
G3 X5.6475 Y1.4181 I0.0 J0.5825
G1 F40.0 X5.6213 Y1.4073
G3 F120.0 X5.6475 Y1.4181 Z-0.38 I-0.2104 J0.5432
G1 F140.0 X9.7536 Y3.2431
G3 X10.0995 Y3.7754 I-0.2366 J0.5323
G1 Y6.4504
G3 X9.267 Y7.2829 I-0.8325 J0.0
G1 X1.767
G3 X0.9345 Y6.4504 I0.0 J-0.8325
G1 Y2.2004
G3 X1.767 Y1.3679 I0.8325 J0.0
G1 X5.4109
G3 X5.6475 Y1.4181 I0.0 J0.5825
( prof-finish )
S0
G0 Z0.5
G0 X3.4911 Y1.3879
G1 F40.0 Z0.005
G1 F120.0 X5.4109 Z-0.3335
G3 X5.6394 Y1.4364 Z-0.375 I0.0 J0.5625
G1 F140.0 X9.7455 Y3.2614
G3 X10.0795 Y3.7754 I-0.2285 J0.514
G1 Y6.4504
G3 X9.267 Y7.2629 I-0.8125 J0.0
G1 X1.767
G3 X0.9545 Y6.4504 I0.0 J-0.8125
G1 Y2.2004
G3 X1.767 Y1.3879 I0.8125 J0.0
G1 X5.4109
G3 X5.6394 Y1.4364 I0.0 J0.5625
G1 F40.0 X5.6132 Y1.4256
G3 F120.0 X5.6394 Y1.4364 Z-0.38 I-0.2023 J0.5249
G1 F140.0 X9.7455 Y3.2614
G3 X10.0795 Y3.7754 I-0.2285 J0.514
G1 Y6.4504
G3 X9.267 Y7.2629 I-0.8125 J0.0
G1 X1.767
G3 X0.9545 Y6.4504 I0.0 J-0.8125
G1 Y2.2004
G3 X1.767 Y1.3879 I0.8125 J0.0
G1 X5.4109
G3 X5.6394 Y1.4364 I0.0 J0.5625
( hole1-rough )
S0
G0 Z0.5
G0 X5.0433 Y5.3409
G1 F40.0 Z0.0
G2 F120.0 X5.547 Y4.0504 Z-0.25 I-1.4013 J-1.2905
G2 F140.0 X2.6895 Y2.4007 I-1.905 J0.0
G2 Y5.7002 I0.9525 J1.6498
G2 X5.547 Y4.0504 I0.9525 J-1.6498
G0 Z0.5
G0 X5.4166 Y4.7431
G1 F40.0 Z-0.25
G2 F120.0 X5.547 Y4.0504 Z-0.375 I-1.7746 J-0.6927
G2 F140.0 X2.6895 Y2.4007 I-1.905 J0.0
G2 Y5.7002 I0.9525 J1.6498
G2 X5.547 Y4.0504 I0.9525 J-1.6498
G1 F40.0 X5.5468 Y4.0788
G2 F120.0 X5.547 Y4.0504 Z-0.38 I-1.9048 J-0.0284
G2 F140.0 X2.6895 Y2.4007 I-1.905 J0.0
G2 Y5.7002 I0.9525 J1.6498
G2 X5.547 Y4.0504 I0.9525 J-1.6498
( hole1-finish )
S0
G0 Z0.5
G0 X5.0681 Y5.3435
G1 F40.0 Z0.0
G2 F120.0 X5.567 Y4.0504 Z-0.25 I-1.426 J-1.2931
G2 F140.0 X2.6795 Y2.3833 I-1.925 J0.0
G2 Y5.7175 I0.9625 J1.6671
G2 X5.567 Y4.0504 I0.9625 J-1.6671
G0 Z0.5
G0 X5.438 Y4.7434
G1 F40.0 Z-0.25
G2 F120.0 X5.567 Y4.0504 Z-0.375 I-1.7959 J-0.693
G2 F140.0 X2.6795 Y2.3833 I-1.925 J0.0
G2 Y5.7175 I0.9625 J1.6671
G2 X5.567 Y4.0504 I0.9625 J-1.6671
G1 F40.0 X5.5668 Y4.0788
G2 F120.0 X5.567 Y4.0504 Z-0.38 I-1.9248 J-0.0284
G2 F140.0 X2.6795 Y2.3833 I-1.925 J0.0
G2 Y5.7175 I0.9625 J1.6671
G2 X5.567 Y4.0504 I0.9625 J-1.6671
( hole2-rough )
S0
G0 Z0.5
G0 X7.5388 Y5.5451
G1 F40.0 Z0.0
G2 F120.0 X8.522 Y4.8254 Z-0.25 I0.2282 J-0.7197
G2 F140.0 X7.3895 Y4.1716 I-0.755 J0.0
G2 Y5.4793 I0.3775 J0.6538
G2 X8.522 Y4.8254 I0.3775 J-0.6538
G0 Z0.5
G0 X8.2129 Y5.4347
G1 F40.0 Z-0.25
G2 F120.0 X8.522 Y4.8254 Z-0.375 I-0.4459 J-0.6092
G2 F140.0 X7.3895 Y4.1716 I-0.755 J0.0
G2 Y5.4793 I0.3775 J0.6538
G2 X8.522 Y4.8254 I0.3775 J-0.6538
G1 F40.0 X8.5215 Y4.8538
G2 F120.0 X8.522 Y4.8254 Z-0.38 I-0.7545 J-0.0283
G2 F140.0 X7.3895 Y4.1716 I-0.755 J0.0
G2 Y5.4793 I0.3775 J0.6538
G2 X8.522 Y4.8254 I0.3775 J-0.6538
( hole2-finish )
S0
G0 Z0.5
G0 X7.5688 Y5.5747
G1 F40.0 Z0.0
G2 F120.0 X8.542 Y4.8254 Z-0.25 I0.1982 J-0.7492
G2 F140.0 X7.3795 Y4.1543 I-0.775 J0.0
G2 Y5.4966 I0.3875 J0.6712
G2 X8.542 Y4.8254 I0.3875 J-0.6712
G0 Z0.5
G0 X8.2398 Y5.4395
G1 F40.0 Z-0.25
G2 F120.0 X8.542 Y4.8254 Z-0.375 I-0.4728 J-0.6141
G2 F140.0 X7.3795 Y4.1543 I-0.775 J0.0
G2 Y5.4966 I0.3875 J0.6712
G2 X8.542 Y4.8254 I0.3875 J-0.6712
G1 F40.0 X8.5415 Y4.8538
G2 F120.0 X8.542 Y4.8254 Z-0.38 I-0.7745 J-0.0284
G2 F140.0 X7.3795 Y4.1543 I-0.775 J0.0
G2 Y5.4966 I0.3875 J0.6712
G2 X8.542 Y4.8254 I0.3875 J-0.6712
G0 Z0.5
M5
M30
