( Made using CamBam - http://www.cambam.co.uk )
( FlattenMill 5/1/2011 1:47:06 PM )
( T0 : 0.25 )
G20 G90 G64 G40
G0 Z0.25
( T0 : 0.25 )
( Pocket1 )
G17
M3 S2000
G0 X5.0086 Y4.725
G1 F40.0 Z0.049
G1 F90.0 X4.725 Z-0.001
G1 Y4.775
G1 X12.525
G1 Y4.725
G1 X4.725
G1 F40.0 X4.625
G1 F90.0 Y4.875
G1 X12.625
G1 Y4.625
G1 X4.625
G1 Y4.725
G1 F40.0 X4.525
G1 F90.0 Y4.975
G1 X12.725
G1 Y4.525
G1 X4.525
G1 Y4.725
G1 F40.0 X4.425
G1 F90.0 Y5.075
G1 X12.825
G1 Y4.425
G1 X4.425
G1 Y4.725
G1 F40.0 X4.325
G1 F90.0 Y5.175
G1 X12.925
G1 Y4.325
G1 X4.325
G1 Y4.725
G1 F40.0 X4.225
G1 F90.0 Y5.275
G1 X13.025
G1 Y4.225
G1 X4.225
G1 Y4.725
G1 F40.0 X4.125
G1 F90.0 Y5.375
G1 X13.125
G1 Y4.125
G1 X4.125
G1 Y4.725
G1 F40.0 X4.025
G1 F90.0 Y5.475
G1 X13.225
G1 Y4.025
G1 X4.025
G1 Y4.725
G1 F40.0 X3.925
G1 F90.0 Y5.575
G1 X13.325
G1 Y3.925
G1 X3.925
G1 Y4.725
G1 F40.0 X3.825
G1 F90.0 Y5.675
G1 X13.425
G1 Y3.825
G1 X3.825
G1 Y4.725
G1 F40.0 X3.725
G1 F90.0 Y5.775
G1 X13.525
G1 Y3.725
G1 X3.725
G1 Y4.725
G1 F40.0 X3.625
G1 F90.0 Y5.875
G1 X13.625
G1 Y3.625
G1 X3.625
G1 Y4.725
G1 F40.0 X3.525
G1 F90.0 Y5.975
G1 X13.725
G1 Y3.525
G1 X3.525
G1 Y4.725
G1 F40.0 X3.425
G1 F90.0 Y6.075
G1 X13.825
G1 Y3.425
G1 X3.425
G1 Y4.725
G1 F40.0 X3.325
G1 F90.0 Y6.175
G1 X13.925
G1 Y3.325
G1 X3.325
G1 Y4.725
G1 F40.0 X3.225
G1 F90.0 Y6.275
G1 X14.025
G1 Y3.225
G1 X3.225
G1 Y4.725
G1 F40.0 X3.125
G1 F90.0 Y6.375
G1 X14.125
G1 Y3.125
G1 X3.125
G1 Y4.725
G1 F40.0 X3.025
G1 F90.0 Y6.475
G1 X14.225
G1 Y3.025
G1 X3.025
G1 Y4.725
G1 F40.0 X2.925
G1 F90.0 Y6.575
G1 X14.325
G1 Y2.925
G1 X2.925
G1 Y4.725
G1 F40.0 X2.825
G1 F90.0 Y6.675
G1 X14.425
G1 Y2.825
G1 X2.825
G1 Y4.725
G1 F40.0 X2.725
G1 F90.0 Y6.775
G1 X14.525
G1 Y2.725
G1 X2.725
G1 Y4.725
G1 F40.0 X2.625
G1 F90.0 Y6.875
G1 X14.625
G1 Y2.625
G1 X2.625
G1 Y4.725
G1 F40.0 X2.525
G1 F90.0 Y6.975
G1 X14.725
G1 Y2.525
G1 X2.525
G1 Y4.725
G1 F40.0 X2.425
G1 F90.0 Y7.075
G1 X14.825
G1 Y2.425
G1 X2.425
G1 Y4.725
G1 F40.0 X2.325
G1 F90.0 Y7.175
G1 X14.925
G1 Y2.325
G1 X2.325
G1 Y4.725
G1 F40.0 X2.225
G1 F90.0 Y7.275
G1 X15.025
G1 Y2.225
G1 X2.225
G1 Y4.725
G1 F40.0 X2.125
G1 F90.0 Y7.375
G1 X15.125
G1 Y2.125
G1 X2.125
G1 Y4.725
G1 F40.0 X2.025
G1 F90.0 Y7.475
G1 X15.225
G1 Y2.025
G1 X2.025
G1 Y4.725
G1 F40.0 X1.925
G1 F90.0 Y7.575
G1 X15.325
G1 Y1.925
G1 X1.925
G1 Y4.725
G1 F40.0 X1.825
G1 F90.0 Y7.675
G1 X15.425
G1 Y1.825
G1 X1.825
G1 Y4.725
G1 F40.0 X1.725
G1 F90.0 Y7.775
G1 X15.525
G1 Y1.725
G1 X1.725
G1 Y4.725
G1 F40.0 X1.625
G1 F90.0 Y7.875
G1 X15.625
G1 Y1.625
G1 X1.625
G1 Y4.725
G1 F40.0 X1.525
G1 F90.0 Y7.975
G1 X15.725
G1 Y1.525
G1 X1.525
G1 Y4.725
G1 F40.0 X1.425
G1 F90.0 Y8.075
G1 X15.825
G1 Y1.425
G1 X1.425
G1 Y4.725
G1 F40.0 X1.325
G1 F90.0 Y8.175
G1 X15.925
G1 Y1.325
G1 X1.325
G1 Y4.725
G1 F40.0 X1.225
G1 F90.0 Y8.275
G1 X16.025
G1 Y1.225
G1 X1.225
G1 Y4.725
G1 F40.0 X1.125
G1 F90.0 Y8.375
G1 X16.125
G1 Y1.125
G1 X1.125
G1 Y4.725
G1 F40.0 X1.025
G1 F90.0 Y8.475
G1 X16.225
G1 Y1.025
G1 X1.025
G1 Y4.725
G1 F40.0 X0.925
G1 F90.0 Y8.575
G1 X16.325
G1 Y0.925
G1 X0.925
G1 Y4.725
G1 F40.0 X0.825
G1 F90.0 Y8.675
G1 X16.425
G1 Y0.825
G1 X0.825
G1 Y4.725
G1 F40.0 X0.725
G1 F90.0 Y8.775
G1 X16.525
G1 Y0.725
G1 X0.725
G1 Y4.725
G1 F40.0 X0.625
G1 F90.0 Y8.875
G1 X16.625
G1 Y0.625
G1 X0.625
G1 Y4.725
G1 F40.0 X0.525
G1 F90.0 Y8.975
G1 X16.725
G1 Y0.525
G1 X0.525
G1 Y4.725
G1 F40.0 X0.425
G1 F90.0 Y9.075
G1 X16.825
G1 Y0.425
G1 X0.425
G1 Y4.725
G1 F40.0 X0.325
G1 F90.0 Y9.175
G1 X16.925
G1 Y0.325
G1 X0.325
G1 Y4.725
G1 F40.0 X0.225
G1 F90.0 Y9.275
G1 X17.025
G1 Y0.225
G1 X0.225
G1 Y4.725
G1 F40.0 X0.125
G1 F90.0 Y9.375
G1 X17.125
G1 Y0.125
G1 X0.125
G1 Y4.725
G0 Z0.25
M5
M30
