( RipMaster OutRigger )
( Feeds/Speeds: single-o flute, 18k rpm, 150in/min )
( 4/23/2010  )
( T0 : 0.125 Single flute carbide )
( At prompt, fixture part using the holes created by the first part of the program )
( make sure hal_manualtoolchange is loaded ! )( T0 : 0.125 )
( T0 : 0.125 )
G20
G90
G64
G00 Z0.1
M03
F140


( Hole1CSK )
G00 Z0.1
G00 X3.871951 Y10.547736
G01 Z-0.185
G02 X3.843451 Y10.531282 I-0.019 J0
G02 Y10.564191 I0.0095 J0.016454
G02 X3.871951 Y10.547736 I0.0095 J-0.016454
G01 X3.896951
G02 X3.830951 Y10.509631 I-0.044 J0
G02 Y10.585841 I0.022 J0.038105
G02 X3.896951 Y10.547736 I0.022 J-0.038105
G01 X3.946951
G02 X3.805951 Y10.46633 I-0.094 J0
G02 Y10.629143 I0.047 J0.081406
G02 X3.946951 Y10.547736 I0.047 J-0.081406

( Hole1Thru )
G00 Z0.1
G00 X3.887951 Y10.547736
G01 Z-0.125
G02 X3.835451 Y10.517425 I-0.035 J0
G02 Y10.578047 I0.0175 J0.030311
G02 X3.887951 Y10.547736 I0.0175 J-0.030311

G00 Z0.1
G00 X3.887951 Y10.547736
G01 Z-0.25
G02 X3.835451 Y10.517425 I-0.035 J0
G02 Y10.578047 I0.0175 J0.030311
G02 X3.887951 Y10.547736 I0.0175 J-0.030311

G00 Z0.1
G00 X3.887951 Y10.547736
G01 Z-0.385
G02 X3.835451 Y10.517425 I-0.035 J0
G02 Y10.578047 I0.0175 J0.030311
G02 X3.887951 Y10.547736 I0.0175 J-0.030311

( HOle2CSK )
G00 Z0.1
G00 X3.371951 Y10.047736
G01 Z-0.185
G02 X3.343451 Y10.031282 I-0.019 J0
G02 Y10.064191 I0.0095 J0.016454
G02 X3.371951 Y10.047736 I0.0095 J-0.016454
G01 X3.396951
G02 X3.330951 Y10.009631 I-0.044 J0
G02 Y10.085841 I0.022 J0.038105
G02 X3.396951 Y10.047736 I0.022 J-0.038105
G01 X3.446951
G02 X3.305951 Y9.96633 I-0.094 J0
G02 Y10.129143 I0.047 J0.081406
G02 X3.446951 Y10.047736 I0.047 J-0.081406

( Hole2Thru )
G00 Z0.1
G00 X3.387951 Y10.047736
G01 Z-0.125
G02 X3.335451 Y10.017425 I-0.035 J0
G02 Y10.078047 I0.0175 J0.030311
G02 X3.387951 Y10.047736 I0.0175 J-0.030311

G00 Z0.1
G00 X3.387951 Y10.047736
G01 Z-0.25
G02 X3.335451 Y10.017425 I-0.035 J0
G02 Y10.078047 I0.0175 J0.030311
G02 X3.387951 Y10.047736 I0.0175 J-0.030311

G00 Z0.1
G00 X3.387951 Y10.047736
G01 Z-0.385
G02 X3.335451 Y10.017425 I-0.035 J0
G02 Y10.078047 I0.0175 J0.030311
G02 X3.387951 Y10.047736 I0.0175 J-0.030311


( Hole3CSK )
G00 Z0.1
G00 X17.621951 Y10.547736
G01 Z-0.185
G02 X17.593451 Y10.531282 I-0.019 J0
G02 Y10.564191 I0.0095 J0.016454
G02 X17.621951 Y10.547736 I0.0095 J-0.016454
G01 X17.646951
G02 X17.580951 Y10.509631 I-0.044 J0
G02 Y10.585841 I0.022 J0.038105
G02 X17.646951 Y10.547736 I0.022 J-0.038105
G01 X17.696951
G02 X17.555951 Y10.46633 I-0.094 J0
G02 Y10.629143 I0.047 J0.081406
G02 X17.696951 Y10.547736 I0.047 J-0.081406

( Hole4Thru )
G00 Z0.1
G00 X17.637951 Y10.547736
G01 Z-0.125
G02 X17.585451 Y10.517425 I-0.035 J0
G02 Y10.578047 I0.0175 J0.030311
G02 X17.637951 Y10.547736 I0.0175 J-0.030311

G00 Z0.1
G00 X17.637951 Y10.547736
G01 Z-0.25
G02 X17.585451 Y10.517425 I-0.035 J0
G02 Y10.578047 I0.0175 J0.030311
G02 X17.637951 Y10.547736 I0.0175 J-0.030311

G00 Z0.1
G00 X17.637951 Y10.547736
G01 Z-0.385
G02 X17.585451 Y10.517425 I-0.035 J0
G02 Y10.578047 I0.0175 J0.030311
G02 X17.637951 Y10.547736 I0.0175 J-0.030311

( Hole4CSK )
G00 Z0.1
G00 X18.121951 Y10.047736
G01 Z-0.185
G02 X18.093451 Y10.031282 I-0.019 J0
G02 Y10.064191 I0.0095 J0.016454
G02 X18.121951 Y10.047736 I0.0095 J-0.016454
G01 X18.146951
G02 X18.080951 Y10.009631 I-0.044 J0
G02 Y10.085841 I0.022 J0.038105
G02 X18.146951 Y10.047736 I0.022 J-0.038105
G01 X18.196951
G02 X18.055951 Y9.96633 I-0.094 J0
G02 Y10.129143 I0.047 J0.081406
G02 X18.196951 Y10.047736 I0.047 J-0.081406

( Hole3Thru )
G00 Z0.1
G00 X18.137951
G01 Z-0.125
G02 X18.085451 Y10.017425 I-0.035 J0
G02 Y10.078047 I0.0175 J0.030311
G02 X18.137951 Y10.047736 I0.0175 J-0.030311

G00 Z0.1
G00 X18.137951
G01 Z-0.25
G02 X18.085451 Y10.017425 I-0.035 J0
G02 Y10.078047 I0.0175 J0.030311
G02 X18.137951 Y10.047736 I0.0175 J-0.030311

G00 Z0.1
G00 X18.137951
G01 Z-0.385
G02 X18.085451 Y10.017425 I-0.035 J0
G02 Y10.078047 I0.0175 J0.030311
G02 X18.137951 Y10.047736 I0.0175 J-0.030311


(Retaining Pin Holes)
G01 Z0.1
G01 x7.666 Y10.357
G01 Z-0.125
G01 Z0.0
G01 Z-0.25
G01 Z0.0
G01 Z-0.385

G01 Z0.1
G01 X12.666 Y10.357
G01 Z-0.125
G01 Z0.0
G01 Z-0.25
G01 Z0.0
G01 Z-0.385
G01 Z0.1


G00 X7.0 Y2.0 Z3.0 ( Make room for operator to install screws )
(Pause here: operator should secure work using screws in the newly created holes )
M00
M03

( OuterProfile )
G00 Z0.1
G00 X3.352951 Y9.485236
G01 Z-0.125
G01 X18.102951
G03 X18.415451 Y9.797736 I0 J0.3125
G01 Y10.735236
G03 X18.290451 Y10.860236 I-0.125 J0
G01 X3.165451
G03 X3.040451 Y10.735236 I0 J-0.125
G01 Y9.797736
G03 X3.352951 Y9.485236 I0.3125 J0

G00 Z0.1
G00 X3.352951 Y9.485236
G01 Z-0.25
G01 X18.102951
G03 X18.415451 Y9.797736 I0 J0.3125
G01 Y10.735236
G03 X18.290451 Y10.860236 I-0.125 J0
G01 X3.165451
G03 X3.040451 Y10.735236 I0 J-0.125
G01 Y9.797736
G03 X3.352951 Y9.485236 I0.3125 J0

G00 Z0.1
G00 X3.352951 Y9.485236
G01 Z-0.385
G01 X18.102951
G03 X18.415451 Y9.797736 I0 J0.3125
G01 Y10.735236
G03 X18.290451 Y10.860236 I-0.125 J0
G01 X3.165451
G03 X3.040451 Y10.735236 I0 J-0.125
G01 Y9.797736
G03 X3.352951 Y9.485236 I0.3125 J0

G00 Z3.0
M05
M30
