( RipMaster Base Plate)
( http://www.brusselsprout.org/CAMBAM )
( 4/23/2010  )
( T0 : 0.125 Single flute carbide )
( T1 : 0.015 Ball Nose Endmill)
( At prompt, fixture part using the holes created by the first part of the program )
( make sure hal_manualtoolchange is loaded ! )

( FeedRate )
#2=-0.375 ( Profile Depth Of Cut )
#3=-0.185 ( Hole CSK Depth of Cut )
#4=-.010 ( Logo Depth of Cut )
#5=-0.25 ( Slot CSK Depth of Cut )

G20
G90
G64
M03 
G00 Z0.5
F140

( Drill Holes )
( URHole )
G00 X15.298359 Y4.95296
G01 Z[#3]
G02 X15.269859 Y4.936506 I-0.019 J0
G02 Y4.969415 I0.0095 J0.016454
G02 X15.298359 Y4.95296 I0.0095 J-0.016454
G01 X15.323359
G02 X15.257359 Y4.914855 I-0.044 J0
G02 Y4.991065 I0.022 J0.038105
G02 X15.323359 Y4.95296 I0.022 J-0.038105
G01 X15.373359
G02 X15.232359 Y4.871554 I-0.094 J0
G02 Y5.034366 I0.047 J0.081406
G02 X15.373359 Y4.95296 I0.047 J-0.081406

( LRHole )
G00 Z0.5
G00 X15.298359 Y1.70296
G01 Z[#3]
G02 X15.269859 Y1.686506 I-0.019 J0
G02 Y1.719415 I0.0095 J0.016454
G02 X15.298359 Y1.70296 I0.0095 J-0.016454
G01 X15.323359
G02 X15.257359 Y1.664855 I-0.044 J0
G02 Y1.741065 I0.022 J0.038105
G02 X15.323359 Y1.70296 I0.022 J-0.038105
G01 X15.373359
G02 X15.232359 Y1.621554 I-0.094 J0
G02 Y1.784366 I0.047 J0.081406
G02 X15.373359 Y1.70296 I0.047 J-0.081406
( LLHole )
G00 Z0.5
G00 X1.048359
G01 Z[#3]
G02 X1.019859 Y1.686506 I-0.019 J0
G02 Y1.719415 I0.0095 J0.016454
G02 X1.048359 Y1.70296 I0.0095 J-0.016454
G01 X1.073359
G02 X1.007359 Y1.664855 I-0.044 J0
G02 Y1.741065 I0.022 J0.038105
G02 X1.073359 Y1.70296 I0.022 J-0.038105
G01 X1.123359
G02 X0.982359 Y1.621554 I-0.094 J0
G02 Y1.784366 I0.047 J0.081406
G02 X1.123359 Y1.70296 I0.047 J-0.081406
( ULHole )
G00 Z0.5
G00 X1.048359 Y4.95296
G01 Z[#3]
G02 X1.019859 Y4.936506 I-0.019 J0
G02 Y4.969415 I0.0095 J0.016454
G02 X1.048359 Y4.95296 I0.0095 J-0.016454
G01 X1.073359
G02 X1.007359 Y4.914855 I-0.044 J0
G02 Y4.991065 I0.022 J0.038105
G02 X1.073359 Y4.95296 I0.022 J-0.038105
G01 X1.123359
G02 X0.982359 Y4.871554 I-0.094 J0
G02 Y5.034366 I0.047 J0.081406
G02 X1.123359 Y4.95296 I0.047 J-0.081406


( URThruHole )
G00 Z0.5
G00 X15.314359 Y4.95296
G01 Z[#2]
G02 X15.261859 Y4.922649 I-0.035 J0
G02 Y4.983271 I0.0175 J0.030311
G02 X15.314359 Y4.95296 I0.0175 J-0.030311
( LRThruHole )
G00 Z0.5
G00 Y1.70296
G01 Z[#2]
G02 X15.261859 Y1.672649 I-0.035 J0
G02 Y1.733271 I0.0175 J0.030311
G02 X15.314359 Y1.70296 I0.0175 J-0.030311
( LLThruHole )
G00 Z0.5
G00 X1.063859
G01 Z[#2]
G02 X1.012109 Y1.673082 I-0.0345 J0
G02 Y1.732838 I0.01725 J0.029878
G02 X1.063859 Y1.70296 I0.01725 J-0.029878
( ULThruHole )
G00 Z0.5
G00 Y4.95296
G01 Z[#2]
G02 X1.012109 Y4.923082 I-0.0345 J0
G02 Y4.982838 I0.01725 J0.029878
G02 X1.063859 Y4.95296 I0.01725 J-0.029878

G00 Z4.0 ( Make room for operator to install screws
(Pause here: operator should secure work using screws in the newly created holes )
M00


( OuterProfile )

G00 X15.841859 Y5.20296
G01 F20 Z[#2]
G03 X15.529359 Y5.51546 I-0.3125 J0
G01 X0.779359
G03 X0.466859 Y5.20296 I0 J-0.3125
G01 Y0.51546
G03 X0.591859 Y0.39046 I0.125 J0
G01 X15.716859
G03 X15.841859 Y0.51546 I0 J0.125
G01 Y5.20296

( InnerPocket )
G00 Z0.5
G00 X10.404359 Y3.89046
G01 Z[#2]
G02 X10.466859 Y3.82796 I0 J-0.0625
G01 Y1.07796
G02 X10.404359 Y1.01546 I-0.0625 J0
G01 X2.654359
G02 X2.591859 Y1.07796 I0 J0.0625
G01 Y3.82796
G02 X2.654359 Y3.89046 I0.0625 J0
G01 X10.404359

( UpperSlot )
G00 Z0.5
G00 X14.279359 Y4.96546
G01 Z[#5]
G02 Y4.94046 I0 J-0.0125
G01 X11.779359
G02 Y4.96546 I0 J0.0125
G01 X14.279359
G01 Y4.99046
G02 Y4.91546 I0 J-0.0375
G01 X11.779359
G02 Y4.99046 I0 J0.0375
G01 X14.279359
G01 Y5.04046
G02 Y4.86546 I0 J-0.0875
G01 X11.779359
G02 Y5.04046 I0 J0.0875
G01 X14.279359
G01 Y5.09046
G02 Y4.81546 I0 J-0.1375
G01 X11.779359
G02 Y5.09046 I0 J0.1375
G01 X14.279359
G01 Y5.14046
G02 Y4.76546 I0 J-0.1875
G01 X11.779359
G02 Y5.14046 I0 J0.1875
G01 X14.279359

( LowerSlot )
G00 Z0.5
G00 Y2.46546
G01 Z[#5]
G02 Y2.44046 I0 J-0.0125
G01 X11.779359
G02 Y2.46546 I0 J0.0125
G01 X14.279359
G01 Y2.49046
G02 Y2.41546 I0 J-0.0375
G01 X11.779359
G02 Y2.49046 I0 J0.0375
G01 X14.279359
G01 Y2.54046
G02 Y2.36546 I0 J-0.0875
G01 X11.779359
G02 Y2.54046 I0 J0.0875
G01 X14.279359
G01 Y2.59046
G02 Y2.31546 I0 J-0.1375
G01 X11.779359
G02 Y2.59046 I0 J0.1375
G01 X14.279359
G01 Y2.64046
G02 Y2.26546 I0 J-0.1875
G01 X11.779359
G02 Y2.64046 I0 J0.1875
G01 X14.279359

( URInnerSlot )
G00 Z0.5
G00 X14.279359 Y4.91846
G01 Z[#2]
G01 X11.779359
G02 Y4.98746 I0 J0.0345
G01 X14.279359
G02 Y4.91846 I0 J-0.0345

( LRInnerSlot )
G00 Z0.5
G00 X11.779359 Y2.41846
G01 Z[#2]
G02 Y2.48746 I0 J0.0345
G01 X14.279359
G02 Y2.41846 I0 J-0.0345
G01 X11.779359

(Pause to allow the operator to choose to skip ripmaster logo )
M06 T01 ( ball nose end mill )
M03 

( RipMasterLogo )
G00 Z0.5
G00 X3.980993 Y4.284204
G01 Z[#4]
G01 X3.814127
G01 X3.983755 Y5.09422
G01 X4.343456
G02 X4.416368 Y5.090562 I0.003421 J-0.660144
G02 X4.487667 Y5.074882 I-0.029028 J-0.301944
G02 X4.5711 Y5.005262 I-0.055637 J-0.151479
G02 X4.595918 Y4.945942 I-0.169072 J-0.105586
G02 X4.603147 Y4.882047 I-0.261447 J-0.061937
G02 X4.588736 Y4.790689 I-0.277482 J-0.003045
G02 X4.541263 Y4.711314 I-0.213307 J0.073692
G02 X4.454852 Y4.653504 I-0.171967 J0.163564
G02 X4.353954 Y4.628433 I-0.147843 J0.379428
G02 X4.41418 Y4.552736 I-0.224071 J-0.240083
G02 X4.481124 Y4.420685 I-1.249133 J-0.71624
G02 X4.538501 Y4.284204 I-2.818176 J-1.265075
G01 X4.359479
G03 X4.319526 Y4.392035 I-1.499927 J-0.494437
G03 X4.274941 Y4.498035 I-4.348701 J-1.76671
G03 X4.245075 Y4.555365 I-0.387831 J-0.165598
G03 X4.202007 Y4.603569 I-0.146648 J-0.08768
G03 X4.161597 Y4.616909 I-0.051194 J-0.087208
G03 X4.119126 Y4.619593 I-0.039993 J-0.295474
G01 X4.051165
G01 X3.980993 Y4.284204
G00 Z0.5
G00 X4.076581 Y4.741151
G01 Z[#4]
G01 X4.164987
G03 X4.254455 Y4.743496 I0.005551 J1.496052
G03 X4.299098 Y4.747629 I-0.037263 J0.645598
G03 X4.342903 Y4.757174 I-0.024879 J0.21947
G03 X4.41197 Y4.807455 I-0.045831 J0.135531
G03 X4.436834 Y4.879284 I-0.095849 J0.073397
G03 X4.42813 Y4.917449 I-0.080497 J0.001717
G03 X4.400919 Y4.945589 I-0.064582 J-0.035224
G03 X4.377891 Y4.953512 I-0.036388 J-0.068328
G03 X4.305331 Y4.958849 I-0.065138 J-0.389671
G01 X4.121889
G01 X4.076581 Y4.741151
G00 Z0.5
G00 X4.749569 Y4.870996
G01 Z[#4]
G01 X4.908147
G01 X4.785484 Y4.284204
G01 X4.626906
G01 X4.749569 Y4.870996
G00 Z0.5
G00 X4.795982 Y5.09422
G01 Z[#4]
G01 X4.954559
G01 X4.924723 Y4.950561
G01 X4.766145
G01 X4.795982 Y5.09422
G00 Z0.5
G00 X5.058989 Y4.870996
G01 Z[#4]
G01 X5.209278
G01 X5.19657 Y4.81077
G02 X5.286633 Y4.867681 I0.235831 J-0.273489
G02 X5.376696 Y4.88481 I0.088334 J-0.219121
G02 X5.457905 Y4.869746 I0.002969 J-0.210432
G02 X5.524776 Y4.821268 I-0.069558 J-0.166307
G02 X5.569959 Y4.731565 I-0.161824 J-0.13774
G02 X5.581134 Y4.631749 I-0.395629 J-0.094829
G02 X5.558087 Y4.48863 I-0.430169 J-0.004142
G02 X5.484441 Y4.363769 I-0.352919 J0.124011
G02 X5.39682 Y4.295119 I-0.218148 J0.188186
G02 X5.288291 Y4.270391 I-0.106694 J0.217746
G02 X5.187152 Y4.293364 I-0.004419 J0.214659
G02 X5.112032 Y4.364874 I0.094213 J0.174181
G01 X5.04849 Y4.060427
G01 X4.889913
G01 X5.058989 Y4.870996
G00 Z0.5
G00 X5.154577 Y4.534502
G01 Z[#4]
G03 X5.161512 Y4.478186 I0.211591 J-0.002528
G03 X5.187729 Y4.427863 I0.123414 J0.032305
G03 X5.223062 Y4.4003 I0.088858 J0.077479
G03 X5.266742 Y4.390291 I0.043019 J0.087418
G03 X5.342439 Y4.41847 I-0.002619 J0.122798
G03 X5.378932 Y4.461645 I-0.099551 J0.121152
G03 X5.402665 Y4.512954 I-0.257152 J0.150095
G03 X5.426977 Y4.635616 I-0.336326 J0.1304
G03 X5.420522 Y4.688807 I-0.201612 J0.002522
G03 X5.395482 Y4.736178 I-0.111402 J-0.028584
G03 X5.315365 Y4.77154 I-0.077512 J-0.067173
G03 X5.232485 Y4.73894 I0.000841 J-0.123795
G03 X5.197335 Y4.695303 I0.111367 J-0.125682
G03 X5.175021 Y4.643904 I0.235822 J-0.13292
G03 X5.154577 Y4.534502 I0.34304 J-0.120714
G00 Z0.5
G00 X6.099965 Y4.284204
G01 Z[#4]
G01 X5.94194
G01 X5.912655 Y4.96106
G01 X5.783915 Y4.284204
G01 X5.633625
G01 X5.802701 Y5.09422
G01 X6.040291
G01 X6.065155 Y4.526767
G01 X6.341422 Y5.09422
G01 X6.581775
G01 X6.412147 Y4.284204
G01 X6.2602
G01 X6.419882 Y4.956087
G01 X6.099965 Y4.284204
G00 Z0.5
G00 X6.799474 Y4.704683
G01 Z[#4]
G01 X6.644764 Y4.717944
G02 X6.737038 Y4.840607 I0.222211 J-0.071121
G02 X6.821378 Y4.875531 I0.136557 J-0.210482
G02 X6.912191 Y4.88481 I0.087135 J-0.403746
G02 X6.999789 Y4.876077 I0.004589 J-0.397678
G02 X7.079609 Y4.838949 I-0.036611 J-0.183076
G02 X7.119628 Y4.789731 I-0.097674 J-0.120295
G02 X7.133758 Y4.72789 I-0.122235 J-0.060464
G02 X7.128785 Y4.671531 I-0.344392 J0.001989
G02 X7.096185 Y4.514611 I-3.956981 J0.740203
G03 X7.081492 Y4.441612 I1.687045 J-0.377547
G03 X7.072979 Y4.367637 I0.480479 J-0.092772
G03 X7.08624 Y4.284204 I0.305056 J0.005715
G01 X6.932082
G02 X6.920479 Y4.350508 I0.292602 J0.085373
G02 X6.840362 Y4.290835 I-0.184298 J0.163818
G02 X6.749193 Y4.270391 I-0.092643 J0.199637
G02 X6.684059 Y4.281708 I-0.002102 J0.180993
G02 X6.628741 Y4.317909 I0.056433 J0.146602
G02 X6.581223 Y4.441124 I0.120535 J0.117255
G02 X6.593089 Y4.513712 I0.210738 J0.002812
G02 X6.633161 Y4.57539 I0.152709 J-0.055358
G02 X6.674725 Y4.603302 I0.108615 J-0.116834
G02 X6.745877 Y4.626117 I0.130141 J-0.283516
G02 X6.819918 Y4.636169 I0.117799 J-0.589962
G03 X6.896139 Y4.643993 I-0.13656 J1.705482
G03 X6.971312 Y4.658823 I-0.046929 J0.435834
G03 X6.981258 Y4.711866 I-0.193015 J0.063644
G03 X6.960814 Y4.754411 I-0.053359 J0.000544
G03 X6.93189 Y4.768173 I-0.043763 J-0.054702
G03 X6.900035 Y4.77154 I-0.030273 J-0.134053
G03 X6.864972 Y4.767878 I-0.001498 J-0.155343
G03 X6.832626 Y4.753859 I0.01933 J-0.088928
G03 X6.799474 Y4.704683 I0.050189 J-0.069598
G00 Z0.5
G00 X6.950316 Y4.557709
G01 Z[#4]
G02 X6.912191 Y4.550526 I-0.080909 J0.324673
G03 X6.832161 Y4.537406 I0.094431 J-0.826631
G03 X6.792907 Y4.526544 I0.077345 J-0.355909
G03 X6.756376 Y4.508533 I0.041525 J-0.130272
G03 X6.730407 Y4.454937 I0.038011 J-0.051507
G03 X6.750298 Y4.407972 I0.063048 J-0.000992
G03 X6.802789 Y4.389186 I0.049219 J0.054798
G03 X6.870198 Y4.406314 I0.000577 J0.138937
G03 X6.917717 Y4.45107 I-0.055079 J0.106082
G03 X6.934864 Y4.492885 I-0.181797 J0.098974
G03 X6.945896 Y4.536713 I-0.487277 J0.145955
G01 X6.950316 Y4.557709
G00 Z0.5
G00 X7.184591 Y4.448307
G01 Z[#4]
G01 X7.338196 Y4.472619
G03 X7.358683 Y4.434457 I0.193603 J0.079359
G03 X7.389029 Y4.403552 I0.097516 J0.065399
G03 X7.429053 Y4.387707 I0.062227 J0.098716
G03 X7.471909 Y4.38366 I0.040993 J0.205165
G03 X7.517243 Y4.388824 I0.001853 J0.185308
G03 X7.558657 Y4.407972 I-0.02717 J0.113126
G03 X7.575042 Y4.425298 I-0.034462 J0.049
G03 X7.581311 Y4.448307 I-0.037822 J0.022663
G03 X7.569708 Y4.477039 I-0.041521 J-0.000059
G03 X7.554548 Y4.487043 I-0.042902 J-0.048522
G03 X7.503956 Y4.506876 I-0.167929 J-0.353932
G02 X7.412802 Y4.539247 I0.599946 J1.833896
G02 X7.368137 Y4.55803 I0.282842 J0.735111
G02 X7.32604 Y4.58202 I0.089391 J0.205784
G02 X7.272444 Y4.694738 I0.084099 J0.109089
G02 X7.324382 Y4.814638 I0.161174 J0.001382
G02 X7.425051 Y4.870549 I0.160589 J-0.170558
G02 X7.539318 Y4.88481 I0.108625 J-0.405455
G02 X7.628046 Y4.876839 I0.004397 J-0.448866
G02 X7.710604 Y4.84337 I-0.038114 J-0.212575
G02 X7.784091 Y4.731205 I-0.103501 J-0.147967
G01 X7.63767 Y4.705788
G03 X7.600097 Y4.753859 I-0.085986 J-0.028489
G03 X7.515007 Y4.775408 I-0.080626 J-0.139594
G03 X7.477865 Y4.772439 I-0.002047 J-0.208212
G03 X7.443177 Y4.758832 I0.01236 J-0.082522
G03 X7.427811 Y4.742365 I0.036985 J-0.049916
G03 X7.421628 Y4.720707 I0.03464 J-0.0216
G03 X7.44373 Y4.684239 I0.042656 J0.000921
G03 X7.487639 Y4.667131 I0.124915 J0.2557
G03 X7.532688 Y4.653298 I0.529398 J1.643695
G02 X7.613064 Y4.626573 I-0.268041 J-0.940402
G02 X7.65195 Y4.609513 I-0.163859 J-0.426332
G02 X7.68795 Y4.586993 I-0.084384 J-0.174931
G02 X7.728493 Y4.538198 I-0.099909 J-0.124253
G02 X7.743204 Y4.476486 I-0.117322 J-0.060576
G02 X7.724474 Y4.396176 I-0.17611 J-0.001266
G02 X7.673032 Y4.331722 I-0.190124 J0.098986
G02 X7.579682 Y4.283144 I-0.152125 J0.178352
G02 X7.475224 Y4.270391 I-0.099699 J0.382422
G02 X7.373563 Y4.279569 I-0.004724 J0.515291
G02 X7.278522 Y4.316804 I0.047901 J0.262177
G02 X7.184591 Y4.448307 I0.13101 J0.192877
G00 Z0.5
G00 X7.874155 Y4.753306
G01 Z[#4]
G01 X7.898466 Y4.870996
G01 X7.975821
G01 X7.99516 Y4.964927
G01 X8.176944 Y5.074329
G01 X8.134399 Y4.870996
G01 X8.231092
G01 X8.206781 Y4.753306
G01 X8.109535
G01 X8.058149 Y4.507428
G03 X8.050512 Y4.469436 I3.122404 J-0.647382
G03 X8.044335 Y4.431178 I0.406198 J-0.085208
G03 X8.055939 Y4.402447 I0.036887 J-0.001812
G03 X8.076154 Y4.394176 I0.025947 J0.034578
G03 X8.097931 Y4.392501 I0.020477 J0.123847
G03 X8.150422 Y4.396369 I-0.045521 J0.975905
G01 X8.125558 Y4.278679
G02 X8.041573 Y4.270391 I-0.083203 J0.413457
G02 X7.977865 Y4.276308 I-0.003465 J0.308627
G02 X7.919463 Y4.302438 I0.023857 J0.131654
G02 X7.890103 Y4.343111 I0.06689 J0.079217
G02 X7.881338 Y4.392501 I0.123286 J0.047353
G02 X7.889556 Y4.455265 I0.471884 J-0.02987
G02 X7.901781 Y4.517374 I2.312636 J-0.422952
G01 X7.950957 Y4.753306
G01 X7.874155
G00 Z0.5
G00 X8.648809 Y4.625118
G01 Z[#4]
G03 X8.649361 Y4.641142 I-0.337703 J0.019666
G03 X8.643568 Y4.692691 I-0.209177 J0.002592
G03 X8.620077 Y4.73894 I-0.105759 J-0.024626
G03 X8.541617 Y4.77154 I-0.074164 J-0.067779
G03 X8.453211 Y4.73452 I0.000698 J-0.125736
G03 X8.418529 Y4.683867 I0.11173 J-0.113703
G03 X8.400721 Y4.625118 I0.244567 J-0.106207
G01 X8.648809
G00 Z0.5
G00 X8.782522 Y4.528425
G01 Z[#4]
G01 X8.384697
G03 X8.384145 Y4.514059 I0.281818 J-0.018033
G03 X8.391596 Y4.463615 I0.161412 J-0.001927
G03 X8.417297 Y4.419575 I0.113036 J0.036445
G03 X8.499072 Y4.38366 I0.080433 J0.072084
G03 X8.572724 Y4.4064 I0.002071 J0.123938
G03 X8.622287 Y4.465436 I-0.102488 J0.136368
G01 X8.764289 Y4.441677
G02 X8.718043 Y4.369297 I-0.311747 J0.14822
G02 X8.653229 Y4.312936 I-0.208047 J0.173802
G02 X8.497967 Y4.270391 I-0.151315 J0.247627
G02 X8.394101 Y4.287776 I-0.003694 J0.296892
G02 X8.305685 Y4.344983 I0.084177 J0.22703
G02 X8.248522 Y4.436645 I0.174283 J0.172342
G02 X8.231645 Y4.543343 I0.303274 J0.102655
G02 X8.298502 Y4.757727 I0.36055 J0.005177
G02 X8.412356 Y4.854581 I0.24116 J-0.168142
G02 X8.558746 Y4.88481 I0.140202 J-0.309386
G02 X8.651496 Y4.869591 I0.003679 J-0.267812
G02 X8.730031 Y4.817953 I-0.069971 J-0.191959
G02 X8.780019 Y4.731067 I-0.156331 J-0.147765
G02 X8.793573 Y4.631749 I-0.324528 J-0.094871
G02 X8.782522 Y4.528425 I-0.444373 J-0.004726
G00 Z0.5
G00 X8.954361 Y4.870996
G01 Z[#4]
G01 X9.10244
G01 X9.078681 Y4.757174
G02 X9.152557 Y4.843378 I0.319304 J-0.198884
G02 X9.201746 Y4.873431 I0.125621 J-0.150322
G02 X9.258255 Y4.88481 I0.05675 J-0.135831
G02 X9.331742 Y4.867681 I-0.004506 J[#3]54
G01 X9.270963 Y4.737835
G03 X9.225103 Y4.745571 I-0.04501 J-0.127036
G03 X9.180926 Y4.736733 I0.000936 J-0.119513
G03 X9.14167 Y4.714629 I0.068012 J-0.166695
G03 X9.075918 Y4.631749 I0.124933 J-0.166635
G03 X9.048392 Y4.551135 I0.492512 J-0.213177
G03 X9.028953 Y4.468198 I1.404291 J-0.372898
G01 X8.990276 Y4.284204
G01 X8.831698
G01 X8.954361 Y4.870996
G00 Z4.0
M05
M30
