( Made using CamBam - http://www.cambam.co.uk )
( slide arm 5/12/2011 9:59:42 PM )
( T0 : 0.125 )
G20 G90 G64 G40
G0 Z0.2
( Slot )
G17
M3 S2000
G0 X5.98553 Y0.5315
G1 F40.0 Z0.0
G1 F75.0 X6.0 Z-0.00255
G2 Y0.4685 Z-0.02 I0.0 J-0.0315
G1 X0.25
G2 Y0.5315 I0.0 J0.0315
G1 X6.0
G2 Y0.4685 I0.0 J-0.0315
G1 F40.0 X5.98553 Y0.5315
G1 F75.0 X6.0 Z-0.02255
G2 Y0.4685 Z-0.04 I0.0 J-0.0315
G1 X0.25
G2 Y0.5315 I0.0 J0.0315
G1 X6.0
G2 Y0.4685 I0.0 J-0.0315
G1 F40.0 X5.98553 Y0.5315
G1 F75.0 X6.0 Z-0.04255
G2 Y0.4685 Z-0.06 I0.0 J-0.0315
G1 X0.25
G2 Y0.5315 I0.0 J0.0315
G1 X6.0
G2 Y0.4685 I0.0 J-0.0315
G1 F40.0 X5.98553 Y0.5315
G1 F75.0 X6.0 Z-0.06255
G2 Y0.4685 Z-0.08 I0.0 J-0.0315
G1 X0.25
G2 Y0.5315 I0.0 J0.0315
G1 X6.0
G2 Y0.4685 I0.0 J-0.0315
G1 F40.0 X5.98553 Y0.5315
G1 F75.0 X6.0 Z-0.08255
G2 Y0.4685 Z-0.1 I0.0 J-0.0315
G1 X0.25
G2 Y0.5315 I0.0 J0.0315
G1 X6.0
G2 Y0.4685 I0.0 J-0.0315
G1 F40.0 X5.98553 Y0.5315
G1 F75.0 X6.0 Z-0.10255
G2 Y0.4685 Z-0.12 I0.0 J-0.0315
G1 X0.25
G2 Y0.5315 I0.0 J0.0315
G1 X6.0
G2 Y0.4685 I0.0 J-0.0315
G1 F40.0 X5.98553 Y0.5315
G1 F75.0 X6.0 Z-0.12255
G2 Y0.4685 Z-0.14 I0.0 J-0.0315
G1 X0.25
G2 Y0.5315 I0.0 J0.0315
G1 X6.0
G2 Y0.4685 I0.0 J-0.0315
G1 F40.0 X5.98553 Y0.5315
G1 F75.0 X6.0 Z-0.14255
G2 Y0.4685 Z-0.16 I0.0 J-0.0315
G1 X0.25
G2 Y0.5315 I0.0 J0.0315
G1 X6.0
G2 Y0.4685 I0.0 J-0.0315
G1 F40.0 X5.98553 Y0.5315
G1 F75.0 X6.0 Z-0.16255
G2 Y0.4685 Z-0.18 I0.0 J-0.0315
G1 X0.25
G2 Y0.5315 I0.0 J0.0315
G1 X6.0
G2 Y0.4685 I0.0 J-0.0315
G1 F40.0 X5.98553 Y0.5315
G1 F75.0 X6.0 Z-0.18255
G2 Y0.4685 Z-0.2 I0.0 J-0.0315
G1 X0.25
G2 Y0.5315 I0.0 J0.0315
G1 X6.0
G2 Y0.4685 I0.0 J-0.0315
G1 F40.0 X5.98553 Y0.5315
G1 F75.0 X6.0 Z-0.20255
G2 Y0.4685 Z-0.22 I0.0 J-0.0315
G1 X0.25
G2 Y0.5315 I0.0 J0.0315
G1 X6.0
G2 Y0.4685 I0.0 J-0.0315
G1 F40.0 X6.03067 Y0.50717
G2 F75.0 X6.0 Y0.4685 Z-0.23 I-0.03067 J-0.00717
G1 X0.25
G2 Y0.5315 I0.0 J0.0315
G1 X6.0
G2 Y0.4685 I0.0 J-0.0315
G1 F40.0 X5.98553 Y0.5315
G1 F75.0 X6.0 Z-0.23255
G2 Y0.4685 Z-0.25 I0.0 J-0.0315
G1 X0.25
G2 Y0.5315 I0.0 J0.0315
G1 X6.0
G2 Y0.4685 I0.0 J-0.0315
G1 F40.0 Y0.4645
G1 F75.0 X0.25
G2 Y0.5355 I0.0 J0.0355
G1 X6.0
G2 Y0.4645 I0.0 J-0.0355
( Clr Holes )
S2000
G0 Z0.25
G0 X6.77002 Y0.72568
G1 F20.0 Z0.0
G2 F40.0 X6.73425 Y0.72272 Z-0.00673 I-0.02002 J0.02432
G2 Y0.77728 Z-0.01837 I0.01575 J0.02728
G2 X6.7815 Y0.75 Z-0.03 I0.01575 J-0.02728
G2 X6.73425 Y0.72272 I-0.0315 J0.0
G2 Y0.77728 I0.01575 J0.02728
G2 X6.7815 Y0.75 I0.01575 J-0.02728
G1 F20.0 X6.77002 Y0.72568
G2 F40.0 X6.73425 Y0.72272 Z-0.03673 I-0.02002 J0.02432
G2 Y0.77728 Z-0.04837 I0.01575 J0.02728
G2 X6.7815 Y0.75 Z-0.06 I0.01575 J-0.02728
G2 X6.73425 Y0.72272 I-0.0315 J0.0
G2 Y0.77728 I0.01575 J0.02728
G2 X6.7815 Y0.75 I0.01575 J-0.02728
G1 F20.0 X6.77002 Y0.72568
G2 F40.0 X6.73425 Y0.72272 Z-0.06673 I-0.02002 J0.02432
G2 Y0.77728 Z-0.07837 I0.01575 J0.02728
G2 X6.7815 Y0.75 Z-0.09 I0.01575 J-0.02728
G2 X6.73425 Y0.72272 I-0.0315 J0.0
G2 Y0.77728 I0.01575 J0.02728
G2 X6.7815 Y0.75 I0.01575 J-0.02728
G1 F20.0 X6.77002 Y0.72568
G2 F40.0 X6.73425 Y0.72272 Z-0.09673 I-0.02002 J0.02432
G2 Y0.77728 Z-0.10837 I0.01575 J0.02728
G2 X6.7815 Y0.75 Z-0.12 I0.01575 J-0.02728
G2 X6.73425 Y0.72272 I-0.0315 J0.0
G2 Y0.77728 I0.01575 J0.02728
G2 X6.7815 Y0.75 I0.01575 J-0.02728
G1 F20.0 X6.77002 Y0.72568
G2 F40.0 X6.73425 Y0.72272 Z-0.12673 I-0.02002 J0.02432
G2 Y0.77728 Z-0.13837 I0.01575 J0.02728
G2 X6.7815 Y0.75 Z-0.15 I0.01575 J-0.02728
G2 X6.73425 Y0.72272 I-0.0315 J0.0
G2 Y0.77728 I0.01575 J0.02728
G2 X6.7815 Y0.75 I0.01575 J-0.02728
G1 F20.0 X6.77002 Y0.72568
G2 F40.0 X6.73425 Y0.72272 Z-0.15673 I-0.02002 J0.02432
G2 Y0.77728 Z-0.16837 I0.01575 J0.02728
G2 X6.7815 Y0.75 Z-0.18 I0.01575 J-0.02728
G2 X6.73425 Y0.72272 I-0.0315 J0.0
G2 Y0.77728 I0.01575 J0.02728
G2 X6.7815 Y0.75 I0.01575 J-0.02728
G1 F20.0 X6.77002 Y0.72568
G2 F40.0 X6.73425 Y0.72272 Z-0.18673 I-0.02002 J0.02432
G2 Y0.77728 Z-0.19837 I0.01575 J0.02728
G2 X6.7815 Y0.75 Z-0.21 I0.01575 J-0.02728
G2 X6.73425 Y0.72272 I-0.0315 J0.0
G2 Y0.77728 I0.01575 J0.02728
G2 X6.7815 Y0.75 I0.01575 J-0.02728
G1 F20.0 X6.77002 Y0.72568
G2 F40.0 X6.73425 Y0.72272 Z-0.21673 I-0.02002 J0.02432
G2 Y0.77728 Z-0.22837 I0.01575 J0.02728
G2 X6.7815 Y0.75 Z-0.24 I0.01575 J-0.02728
G2 X6.73425 Y0.72272 I-0.0315 J0.0
G2 Y0.77728 I0.01575 J0.02728
G2 X6.7815 Y0.75 I0.01575 J-0.02728
G1 F20.0 X6.74339 Y0.7192
G2 F40.0 X6.73425 Y0.72272 Z-0.24173 I0.00661 J0.0308
G2 Y0.77728 Z-0.25337 I0.01575 J0.02728
G2 X6.7815 Y0.75 Z-0.265 I0.01575 J-0.02728
G2 X6.73425 Y0.72272 I-0.0315 J0.0
G2 Y0.77728 I0.01575 J0.02728
G2 X6.7815 Y0.75 I0.01575 J-0.02728
G1 F20.0 X6.76958 Y0.77468
G2 F40.0 X6.7815 Y0.75 Z-0.27 I-0.01958 J-0.02468
G2 X6.73425 Y0.72272 I-0.0315 J0.0
G2 Y0.77728 I0.01575 J0.02728
G2 X6.7815 Y0.75 I0.01575 J-0.02728
G1 F20.0 X6.7855
G2 F40.0 X6.73225 Y0.71926 I-0.0355 J0.0
G2 Y0.78074 I0.01775 J0.03074
G2 X6.7855 Y0.75 I0.01775 J-0.03074
G0 Z0.25
G0 X7.25419 Y0.28122
G1 F20.0 Z0.0
G2 F40.0 X7.2815 Y0.25 Z-0.00798 I-0.00419 J-0.03122
G2 X7.23425 Y0.22272 Z-0.01962 I-0.0315 J0.0
G2 X7.22856 Y0.27308 Z-0.03 I0.01575 J0.02728
G2 X7.23425 Y0.27728 I0.02144 J-0.02308
G2 X7.2815 Y0.25 I0.01575 J-0.02728
G2 X7.23425 Y0.22272 I-0.0315 J0.0
G2 X7.22856 Y0.27308 I0.01575 J0.02728
G1 F20.0 X7.25419 Y0.28122
G2 F40.0 X7.2815 Y0.25 Z-0.03798 I-0.00419 J-0.03122
G2 X7.23425 Y0.22272 Z-0.04962 I-0.0315 J0.0
G2 X7.22856 Y0.27308 Z-0.06 I0.01575 J0.02728
G2 X7.23425 Y0.27728 I0.02144 J-0.02308
G2 X7.2815 Y0.25 I0.01575 J-0.02728
G2 X7.23425 Y0.22272 I-0.0315 J0.0
G2 X7.22856 Y0.27308 I0.01575 J0.02728
G1 F20.0 X7.25419 Y0.28122
G2 F40.0 X7.2815 Y0.25 Z-0.06798 I-0.00419 J-0.03122
G2 X7.23425 Y0.22272 Z-0.07962 I-0.0315 J0.0
G2 X7.22856 Y0.27308 Z-0.09 I0.01575 J0.02728
G2 X7.23425 Y0.27728 I0.02144 J-0.02308
G2 X7.2815 Y0.25 I0.01575 J-0.02728
G2 X7.23425 Y0.22272 I-0.0315 J0.0
G2 X7.22856 Y0.27308 I0.01575 J0.02728
G1 F20.0 X7.25419 Y0.28122
G2 F40.0 X7.2815 Y0.25 Z-0.09798 I-0.00419 J-0.03122
G2 X7.23425 Y0.22272 Z-0.10962 I-0.0315 J0.0
G2 X7.22856 Y0.27308 Z-0.12 I0.01575 J0.02728
G2 X7.23425 Y0.27728 I0.02144 J-0.02308
G2 X7.2815 Y0.25 I0.01575 J-0.02728
G2 X7.23425 Y0.22272 I-0.0315 J0.0
G2 X7.22856 Y0.27308 I0.01575 J0.02728
G1 F20.0 X7.25419 Y0.28122
G2 F40.0 X7.2815 Y0.25 Z-0.12798 I-0.00419 J-0.03122
G2 X7.23425 Y0.22272 Z-0.13962 I-0.0315 J0.0
G2 X7.22856 Y0.27308 Z-0.15 I0.01575 J0.02728
G2 X7.23425 Y0.27728 I0.02144 J-0.02308
G2 X7.2815 Y0.25 I0.01575 J-0.02728
G2 X7.23425 Y0.22272 I-0.0315 J0.0
G2 X7.22856 Y0.27308 I0.01575 J0.02728
G1 F20.0 X7.25419 Y0.28122
G2 F40.0 X7.2815 Y0.25 Z-0.15798 I-0.00419 J-0.03122
G2 X7.23425 Y0.22272 Z-0.16962 I-0.0315 J0.0
G2 X7.22856 Y0.27308 Z-0.18 I0.01575 J0.02728
G2 X7.23425 Y0.27728 I0.02144 J-0.02308
G2 X7.2815 Y0.25 I0.01575 J-0.02728
G2 X7.23425 Y0.22272 I-0.0315 J0.0
G2 X7.22856 Y0.27308 I0.01575 J0.02728
G1 F20.0 X7.25419 Y0.28122
G2 F40.0 X7.2815 Y0.25 Z-0.18798 I-0.00419 J-0.03122
G2 X7.23425 Y0.22272 Z-0.19962 I-0.0315 J0.0
G2 X7.22856 Y0.27308 Z-0.21 I0.01575 J0.02728
G2 X7.23425 Y0.27728 I0.02144 J-0.02308
G2 X7.2815 Y0.25 I0.01575 J-0.02728
G2 X7.23425 Y0.22272 I-0.0315 J0.0
G2 X7.22856 Y0.27308 I0.01575 J0.02728
G1 F20.0 X7.25419 Y0.28122
G2 F40.0 X7.2815 Y0.25 Z-0.21798 I-0.00419 J-0.03122
G2 X7.23425 Y0.22272 Z-0.22962 I-0.0315 J0.0
G2 X7.22856 Y0.27308 Z-0.24 I0.01575 J0.02728
G2 X7.23425 Y0.27728 I0.02144 J-0.02308
G2 X7.2815 Y0.25 I0.01575 J-0.02728
G2 X7.23425 Y0.22272 I-0.0315 J0.0
G2 X7.22856 Y0.27308 I0.01575 J0.02728
G1 F20.0 X7.27706 Y0.26612
G2 F40.0 X7.2815 Y0.25 Z-0.24298 I-0.02706 J-0.01612
G2 X7.23425 Y0.22272 Z-0.25462 I-0.0315 J0.0
G2 X7.22856 Y0.27308 Z-0.265 I0.01575 J0.02728
G2 X7.23425 Y0.27728 I0.02144 J-0.02308
G2 X7.2815 Y0.25 I0.01575 J-0.02728
G2 X7.23425 Y0.22272 I-0.0315 J0.0
G2 X7.22856 Y0.27308 I0.01575 J0.02728
G1 F20.0 X7.2186 Y0.24755
G2 F40.0 X7.22856 Y0.27308 Z-0.27 I0.0314 J0.00245
G2 X7.23425 Y0.27728 I0.02144 J-0.02308
G2 X7.2815 Y0.25 I0.01575 J-0.02728
G2 X7.23425 Y0.22272 I-0.0315 J0.0
G2 X7.22856 Y0.27308 I0.01575 J0.02728
G1 F20.0 X7.22584 Y0.27601
G2 F40.0 X7.23225 Y0.28074 I0.02416 J-0.02601
G2 X7.2855 Y0.25 I0.01775 J-0.03074
G2 X7.23225 Y0.21926 I-0.0355 J0.0
G2 X7.22584 Y0.27601 I0.01775 J0.03074
( Sides )
S2000
G0 Z0.2
G0 X7.5625 Y0.11343
G1 F20.0 Z0.0
G1 F75.0 Y0.0 Z-0.02
G1 Y1.0
G0 Z0.2
G0 Y0.11343
G1 F20.0 Z-0.02
G1 F75.0 Y0.0 Z-0.04
G1 Y1.0
G0 Z0.2
G0 Y0.11343
G1 F20.0 Z-0.04
G1 F75.0 Y0.0 Z-0.06
G1 Y1.0
G0 Z0.2
G0 Y0.11343
G1 F20.0 Z-0.06
G1 F75.0 Y0.0 Z-0.08
G1 Y1.0
G0 Z0.2
G0 Y0.11343
G1 F20.0 Z-0.08
G1 F75.0 Y0.0 Z-0.1
G1 Y1.0
G0 Z0.2
G0 Y0.11343
G1 F20.0 Z-0.1
G1 F75.0 Y0.0 Z-0.12
G1 Y1.0
G0 Z0.2
G0 Y0.11343
G1 F20.0 Z-0.12
G1 F75.0 Y0.0 Z-0.14
G1 Y1.0
G0 Z0.2
G0 Y0.11343
G1 F20.0 Z-0.14
G1 F75.0 Y0.0 Z-0.16
G1 Y1.0
G0 Z0.2
G0 Y0.11343
G1 F20.0 Z-0.16
G1 F75.0 Y0.0 Z-0.18
G1 Y1.0
G0 Z0.2
G0 Y0.11343
G1 F20.0 Z-0.18
G1 F75.0 Y0.0 Z-0.2
G1 Y1.0
G0 Z0.2
G0 Y0.11343
G1 F20.0 Z-0.2
G1 F75.0 Y0.0 Z-0.22
G1 Y1.0
G0 Z0.2
G0 Y0.05671
G1 F20.0 Z-0.22
G1 F75.0 Y0.0 Z-0.23
G1 Y1.0
G0 Z0.2
G0 Y0.11343
G1 F20.0 Z-0.23
G1 F75.0 Y0.0 Z-0.25
G1 Y1.0
G0 Z0.2
G0 X-0.0625 Y0.88657
G1 F20.0 Z0.0
G1 F75.0 Y1.0 Z-0.02
G1 Y0.0
G0 Z0.2
G0 Y0.88657
G1 F20.0 Z-0.02
G1 F75.0 Y1.0 Z-0.04
G1 Y0.0
G0 Z0.2
G0 Y0.88657
G1 F20.0 Z-0.04
G1 F75.0 Y1.0 Z-0.06
G1 Y0.0
G0 Z0.2
G0 Y0.88657
G1 F20.0 Z-0.06
G1 F75.0 Y1.0 Z-0.08
G1 Y0.0
G0 Z0.2
G0 Y0.88657
G1 F20.0 Z-0.08
G1 F75.0 Y1.0 Z-0.1
G1 Y0.0
G0 Z0.2
G0 Y0.88657
G1 F20.0 Z-0.1
G1 F75.0 Y1.0 Z-0.12
G1 Y0.0
G0 Z0.2
G0 Y0.88657
G1 F20.0 Z-0.12
G1 F75.0 Y1.0 Z-0.14
G1 Y0.0
G0 Z0.2
G0 Y0.88657
G1 F20.0 Z-0.14
G1 F75.0 Y1.0 Z-0.16
G1 Y0.0
G0 Z0.2
G0 Y0.88657
G1 F20.0 Z-0.16
G1 F75.0 Y1.0 Z-0.18
G1 Y0.0
G0 Z0.2
G0 Y0.88657
G1 F20.0 Z-0.18
G1 F75.0 Y1.0 Z-0.2
G1 Y0.0
G0 Z0.2
G0 Y0.88657
G1 F20.0 Z-0.2
G1 F75.0 Y1.0 Z-0.22
G1 Y0.0
G0 Z0.2
G0 Y0.94329
G1 F20.0 Z-0.22
G1 F75.0 Y1.0 Z-0.23
G1 Y0.0
G0 Z0.2
G0 Y0.88657
G1 F20.0 Z-0.23
G1 F75.0 Y1.0 Z-0.25
G1 Y0.0
G0 Z0.2
M5
M30
