( Made using CamBam - http://www.cambam.co.uk )
( slide arm 5/13/2011 6:25:47 PM )
( T0 : 0.0 )
G20 G90 G64 G40
G0 Z0.25
( Engrave1 )
G17
M3 S2000
G0 Z0.2
G0 X1.77571 Y0.83909
G1 F10.0 Z0.005
G2 F120.0 X1.77314 Y0.83054 I-0.01883 J0.00099
G1 X1.70632 Y0.70083
G2 X1.6971 Y0.69182 I-0.01728 J0.00847
G2 X1.68445 Y0.68938 I-0.01188 J0.02753
G2 X1.67214 Y0.6918 I-0.00072 J0.02886
G2 X1.66309 Y0.70049 I0.00832 J0.01772
G1 X1.60994 Y0.80012
G1 X1.55593 Y0.70015
G2 X1.54655 Y0.6913 I-0.01768 J0.00936
G2 X1.53389 Y0.68887 I-0.01192 J0.02786
G2 X1.5209 Y0.69137 I-0.00081 J0.03077
G2 X1.5115 Y0.70066 I0.00811 J0.01762
G1 X1.44604 Y0.83054
G2 X1.44365 Y0.83909 I0.03912 J0.01556
G2 X1.44948 Y0.84873 I0.00985 J0.00062
G2 X1.46057 Y0.85071 I0.01009 J-0.02442
G2 X1.47122 Y0.84926 I0.00071 J-0.03456
G2 X1.47971 Y0.84268 I-0.00393 J-0.01384
G1 X1.53508 Y0.73569
G1 X1.58909 Y0.83533
G2 X1.60994 Y0.84729 I0.01948 J-0.00979
G2 X1.62193 Y0.84442 I0.00058 J-0.02409
G2 X1.63044 Y0.8355 I-0.01122 J-0.01923
G1 X1.68445 Y0.73569
G1 X1.73965 Y0.84268
G2 X1.74803 Y0.84929 I0.01197 J-0.00654
G2 X1.75862 Y0.85071 I0.00986 J-0.03347
G2 X1.76978 Y0.84874 I0.00101 J-0.02699
G2 X1.77571 Y0.83909 I-0.00392 J-0.00905
G0 Z0.2
G0 X2.1199
G1 F10.0 Z0.005
G2 F120.0 X2.11733 Y0.83054 I-0.01883 J0.00099
G1 X2.05051 Y0.70083
G2 X2.04129 Y0.69182 I-0.01728 J0.00847
G2 X2.02864 Y0.68938 I-0.01188 J0.02753
G2 X2.01633 Y0.6918 I-0.00072 J0.02886
G2 X2.00728 Y0.70049 I0.00832 J0.01772
G1 X1.95413 Y0.80012
G1 X1.90012 Y0.70015
G2 X1.89074 Y0.6913 I-0.01768 J0.00936
G2 X1.87808 Y0.68887 I-0.01192 J0.02786
G2 X1.86509 Y0.69137 I-0.00081 J0.03077
G2 X1.85569 Y0.70066 I0.00811 J0.01762
G1 X1.79023 Y0.83054
G2 X1.78784 Y0.83909 I0.03912 J0.01556
G2 X1.79367 Y0.84873 I0.00985 J0.00062
G2 X1.80476 Y0.85071 I0.01009 J-0.02442
G2 X1.81541 Y0.84926 I0.00071 J-0.03456
G2 X1.8239 Y0.84268 I-0.00393 J-0.01384
G1 X1.87927 Y0.73569
G1 X1.93328 Y0.83533
G2 X1.95413 Y0.84729 I0.01948 J-0.00979
G2 X1.96612 Y0.84442 I0.00058 J-0.02409
G2 X1.97463 Y0.8355 I-0.01122 J-0.01923
G1 X2.02864 Y0.73569
G1 X2.08384 Y0.84268
G2 X2.09222 Y0.84929 I0.01197 J-0.00654
G2 X2.10281 Y0.85071 I0.00986 J-0.03347
G2 X2.11397 Y0.84874 I0.00101 J-0.02699
G2 X2.1199 Y0.83909 I-0.00392 J-0.00905
G0 Z0.2
G0 X2.46409
G1 F10.0 Z0.005
G2 F120.0 X2.46152 Y0.83054 I-0.01883 J0.00099
G1 X2.3947 Y0.70083
G2 X2.38548 Y0.69182 I-0.01728 J0.00847
G2 X2.37283 Y0.68938 I-0.01188 J0.02753
G2 X2.36052 Y0.6918 I-0.00072 J0.02886
G2 X2.35146 Y0.70049 I0.00832 J0.01772
G1 X2.29832 Y0.80012
G1 X2.24431 Y0.70015
G2 X2.23493 Y0.6913 I-0.01768 J0.00936
G2 X2.22227 Y0.68887 I-0.01192 J0.02786
G2 X2.20928 Y0.69137 I-0.00081 J0.03077
G2 X2.19988 Y0.70066 I0.00811 J0.01762
G1 X2.13442 Y0.83054
G2 X2.13203 Y0.83909 I0.03912 J0.01556
G2 X2.13786 Y0.84873 I0.00985 J0.00062
G2 X2.14895 Y0.85071 I0.01009 J-0.02442
G2 X2.1596 Y0.84926 I0.00071 J-0.03456
G2 X2.16809 Y0.84268 I-0.00393 J-0.01384
G1 X2.22346 Y0.73569
G1 X2.27747 Y0.83533
G2 X2.29832 Y0.84729 I0.01948 J-0.00979
G2 X2.31031 Y0.84442 I0.00058 J-0.02409
G2 X2.31882 Y0.8355 I-0.01122 J-0.01923
G1 X2.37283 Y0.73569
G1 X2.42803 Y0.84268
G2 X2.43641 Y0.84929 I0.01197 J-0.00654
G2 X2.447 Y0.85071 I0.00986 J-0.03347
G2 X2.45816 Y0.84874 I0.00101 J-0.02699
G2 X2.46409 Y0.83909 I-0.00392 J-0.00905
G0 Z0.2
G0 X2.52544 Y0.70493
G1 F10.0 Z0.005
G2 F120.0 X2.51775 Y0.69092 I-0.01629 J-0.00018
G2 X2.50186 Y0.6863 I-0.0152 J0.02267
G2 X2.48579 Y0.69075 I-0.00092 J0.02792
G2 X2.47827 Y0.70493 I0.00872 J0.01371
G2 X2.48579 Y0.71877 I0.01568 J0.00045
G2 X2.50168 Y0.72322 I0.01545 J-0.02462
G2 X2.51775 Y0.71877 I0.00052 J-0.02938
G2 X2.52544 Y0.70493 I-0.00818 J-0.0136
G0 Z0.2
G0 X2.76367 Y0.81619
G1 F10.0 Z0.005
G1 F120.0 Y0.8425
G3 X2.75514 Y0.85585 I-0.01512 J-0.00027
G3 X2.74445 Y0.86002 I-0.02073 J-0.03729
G3 X2.7275 Y0.86271 I-0.0245 J-0.09995
G3 X2.71035 Y0.86335 I-0.01644 J-0.20757
G1 X2.58235
G1 Y0.7967
G1 X2.71719
G3 X2.74356 Y0.79899 I0.0021 J0.12928
G3 X2.75668 Y0.804 I-0.00735 J0.03889
G3 X2.76367 Y0.81619 I-0.00707 J0.01216
G0 Z0.2
G0 X2.80161 Y0.81653
G1 F10.0 Z0.005
G2 F120.0 X2.79342 Y0.79112 I-0.04039 J-0.001
G2 X2.77188 Y0.77534 I-0.04167 J0.03431
G2 X2.74516 Y0.76794 I-0.04677 J0.11682
G2 X2.71753 Y0.76577 I-0.02693 J0.16639
G1 X2.65498
G1 X2.78179 Y0.71194
G2 X2.78892 Y0.70696 I-0.00743 J-0.01824
G2 X2.79187 Y0.69878 I-0.00926 J-0.00797
G2 X2.78328 Y0.68782 I-0.01115 J-0.00011
G2 X2.76948 Y0.68596 I-0.01261 J0.04153
G2 X2.75547 Y0.68733 I-0.00136 J0.05857
G1 X2.58235 Y0.76133
G1 Y0.69963
G2 X2.57906 Y0.68955 I-0.01413 J-0.00097
G2 X2.56902 Y0.68613 I-0.00908 J0.01022
G2 X2.56078 Y0.68627 I-0.00059 J0.21176
G2 X2.55666 Y0.68653 I0.00297 J0.08032
G2 X2.55261 Y0.68733 I0.00073 J0.01435
G2 X2.54627 Y0.69199 I0.0029 J0.01059
G2 X2.54441 Y0.69963 I0.01262 J0.00712
G1 Y0.88096
G2 X2.54774 Y0.89095 I0.01379 J0.00096
G2 X2.55774 Y0.89429 I0.00904 J-0.01046
G1 X2.71052
G2 X2.74017 Y0.89239 I0.00113 J-0.21474
G2 X2.76897 Y0.88506 I-0.01581 J-0.12234
G2 X2.78178 Y0.87842 I-0.02616 J-0.06618
G2 X2.79662 Y0.86269 I-0.02391 J-0.03743
G2 X2.80161 Y0.84165 I-0.03857 J-0.02026
G1 Y0.81653
G0 Z0.2
G0 X2.86997 Y0.87241
G1 F10.0 Z0.005
G2 F120.0 X2.86245 Y0.8584 I-0.0161 J-0.00039
G2 X2.84656 Y0.85396 I-0.01504 J0.02314
G2 X2.83066 Y0.8584 I-0.00086 J0.02759
G2 X2.82314 Y0.87241 I0.00858 J0.01363
G2 X2.83066 Y0.88643 I0.0161 J0.00039
G2 X2.84656 Y0.89087 I0.01504 J-0.02314
G2 X2.86245 Y0.88643 I0.00086 J-0.02759
G2 X2.86997 Y0.87241 I-0.00858 J-0.01363
G0 Z0.2
G0 X2.86501 Y0.69963
G1 F10.0 Z0.005
G2 F120.0 X2.86164 Y0.68951 I-0.01397 J-0.00097
G2 X2.85151 Y0.68613 I-0.00916 J0.01059
G2 X2.84379 Y0.68627 I-0.00049 J0.18616
G2 X2.83613 Y0.68733 I-0.00004 J0.02801
G2 X2.83055 Y0.6923 I0.00312 J0.00912
G2 X2.82913 Y0.69963 I0.01546 J0.00682
G1 Y0.83721
G2 X2.83254 Y0.84725 I0.01364 J0.00096
G2 X2.84263 Y0.85054 I0.00912 J-0.01084
G2 X2.85027 Y0.8504 I0.00052 J-0.1793
G2 X2.85784 Y0.84934 I0.00002 J-0.02749
G2 X2.86351 Y0.84451 I-0.00307 J-0.00935
G2 X2.86501 Y0.83721 I-0.01446 J-0.00679
G1 Y0.69963
G0 Z0.2
G0 X3.08206 Y0.73774
G1 F10.0 Z0.005
G1 F120.0 Y0.80132
G3 X3.07516 Y0.81345 I-0.01386 J0.00015
G3 X3.06206 Y0.81824 I-0.0193 J-0.03249
G3 X3.04713 Y0.81954 I-0.01733 J-0.11232
G3 X3.03215 Y0.81978 I-0.01411 J-0.42202
G1 X2.97593
G3 X2.949 Y0.81756 I-0.00212 J-0.13891
G3 X2.93553 Y0.8127 I0.00752 J-0.04194
G3 X2.93011 Y0.80761 I0.00856 J-0.01453
G3 X2.92808 Y0.80046 I0.01088 J-0.00696
G1 Y0.71758
G1 X3.04053
G3 X3.06493 Y0.72016 I0.00201 J0.09761
G3 X3.07668 Y0.72585 I-0.0069 J0.02925
G3 X3.08206 Y0.73774 I-0.00964 J0.01152
G0 Z0.2
G0 X3.11846 Y0.73826
G1 F10.0 Z0.005
G2 F120.0 X3.1115 Y0.71246 I-0.04628 J-0.00136
G2 X3.09714 Y0.69905 I-0.03583 J0.02398
G2 X3.06957 Y0.68969 I-0.03944 J0.07094
G2 X3.04053 Y0.6875 I-0.02762 J0.17227
G1 X2.92808
G1 Y0.65417
G2 X2.92651 Y0.64683 I-0.0156 J-0.00051
G2 X2.92073 Y0.64204 I-0.00882 J0.00476
G2 X2.91307 Y0.64098 I-0.00762 J0.02694
G2 X2.90535 Y0.64084 I-0.00716 J0.1819
G2 X2.89535 Y0.64418 I-0.00096 J0.01379
G2 X2.89202 Y0.65417 I0.01046 J0.00904
G1 Y0.80132
G2 X2.89923 Y0.82678 I0.04373 J0.00137
G2 X2.92039 Y0.84268 I0.03697 J-0.02719
G2 X2.93349 Y0.84672 I0.02587 J-0.06059
G2 X2.95386 Y0.84937 I0.02982 J-0.14952
G2 X2.97439 Y0.85002 I0.0197 J-0.29636
G1 X3.03181
G2 X3.05854 Y0.84866 I0.00108 J-0.24077
G2 X3.07881 Y0.84498 I-0.01491 J-0.13984
G2 X3.09363 Y0.83962 I-0.02094 J-0.08103
G2 X3.11196 Y0.82461 I-0.01862 J-0.04145
G2 X3.11846 Y0.80183 I-0.0332 J-0.02179
G1 Y0.73826
G0 Z0.2
G0 X3.36011 Y0.81619
G1 F10.0 Z0.005
G1 F120.0 Y0.8425
G3 X3.35158 Y0.85585 I-0.01512 J-0.00027
G3 X3.34089 Y0.86002 I-0.02073 J-0.03729
G3 X3.32394 Y0.86271 I-0.0245 J-0.09995
G3 X3.30679 Y0.86335 I-0.01644 J-0.20757
G1 X3.17878
G1 Y0.7967
G1 X3.31362
G3 X3.33999 Y0.79899 I0.0021 J0.12928
G3 X3.35311 Y0.804 I-0.00735 J0.03889
G3 X3.36011 Y0.81619 I-0.00707 J0.01216
G0 Z0.2
G0 X3.39805 Y0.81653
G1 F10.0 Z0.005
G2 F120.0 X3.38985 Y0.79112 I-0.04039 J-0.001
G2 X3.36831 Y0.77534 I-0.04167 J0.03431
G2 X3.3416 Y0.76794 I-0.04677 J0.11682
G2 X3.31396 Y0.76577 I-0.02693 J0.16639
G1 X3.25142
G1 X3.37822 Y0.71194
G2 X3.38535 Y0.70696 I-0.00743 J-0.01824
G2 X3.38831 Y0.69878 I-0.00926 J-0.00797
G2 X3.37972 Y0.68782 I-0.01115 J-0.00011
G2 X3.36592 Y0.68596 I-0.01261 J0.04153
G2 X3.3519 Y0.68733 I-0.00136 J0.05857
G1 X3.17878 Y0.76133
G1 Y0.69963
G2 X3.17549 Y0.68955 I-0.01413 J-0.00097
G2 X3.16545 Y0.68613 I-0.00908 J0.01022
G2 X3.15722 Y0.68627 I-0.00059 J0.21176
G2 X3.1531 Y0.68653 I0.00297 J0.08032
G2 X3.14905 Y0.68733 I0.00073 J0.01435
G2 X3.1427 Y0.69199 I0.0029 J0.01059
G2 X3.14084 Y0.69963 I0.01262 J0.00712
G1 Y0.88096
G2 X3.14418 Y0.89095 I0.01379 J0.00096
G2 X3.15417 Y0.89429 I0.00904 J-0.01046
G1 X3.30696
G2 X3.33661 Y0.89239 I0.00113 J-0.21474
G2 X3.36541 Y0.88506 I-0.01581 J-0.12234
G2 X3.37822 Y0.87842 I-0.02616 J-0.06618
G2 X3.39306 Y0.86269 I-0.02391 J-0.03743
G2 X3.39805 Y0.84165 I-0.03857 J-0.02026
G1 Y0.81653
G0 Z0.2
G0 X3.65115 Y0.73501
G1 F10.0 Z0.005
G2 F120.0 X3.63719 Y0.70552 I-0.03641 J-0.00082
G2 X3.61631 Y0.69445 I-0.04179 J0.05362
G2 X3.58178 Y0.68732 I-0.04947 J0.15237
G2 X3.54656 Y0.68562 I-0.03366 J0.33144
G2 X3.53904 Y0.68579 I0.00127 J0.2215
G2 X3.52827 Y0.68596 I0.00086 J0.39367
G3 X3.5269 Y0.68613 I-0.00112 J-0.00342
G1 X3.52537
G1 X3.52263
G1 X3.51768
G1 X3.50999
G2 X3.48288 Y0.68752 I-0.00109 J0.2441
G2 X3.46233 Y0.69125 I0.01513 J0.14181
G2 X3.44731 Y0.69669 I0.02121 J0.08206
G2 X3.42873 Y0.71191 I0.01889 J0.04201
G2 X3.42214 Y0.73501 I0.03369 J0.02209
G1 Y0.83652
G2 X3.42543 Y0.84661 I0.01413 J0.00097
G2 X3.43547 Y0.85002 I0.00908 J-0.01022
G2 X3.44328 Y0.84988 I0.00046 J-0.19264
G2 X3.44719 Y0.84962 I-0.00277 J-0.07055
G2 X3.45103 Y0.84883 I-0.00077 J-0.01338
G2 X3.45672 Y0.8439 I-0.00307 J-0.0093
G2 X3.4582 Y0.83652 I-0.01501 J-0.00686
G1 Y0.73501
G3 X3.46081 Y0.72759 I0.01151 J-0.00012
G3 X3.47184 Y0.7208 I0.01769 J0.01638
G3 X3.49075 Y0.71718 I0.02543 J0.08177
G3 X3.50999 Y0.71638 I0.01827 J0.20761
G1 X3.56382
G3 X3.59173 Y0.71834 I0.00215 J0.16888
G3 X3.60586 Y0.72259 I-0.00791 J0.0519
G3 X3.61199 Y0.72725 I-0.008 J0.01692
G3 X3.61458 Y0.7345 I-0.00856 J0.00714
G1 Y0.83652
G2 X3.61612 Y0.84395 I0.01611 J0.00052
G2 X3.62192 Y0.84883 I0.00884 J-0.00462
G2 X3.62975 Y0.84989 I0.00776 J-0.02797
G2 X3.63765 Y0.85002 I0.00729 J-0.18987
G2 X3.64777 Y0.84665 I0.00097 J-0.01397
G2 X3.65115 Y0.83652 I-0.01059 J-0.00916
G1 Y0.73501
G0 Z0.2
G0 X3.90032 Y0.69963
G1 F10.0 Z0.005
G2 F120.0 X3.89694 Y0.68951 I-0.01397 J-0.00097
G2 X3.88682 Y0.68613 I-0.00916 J0.01059
G2 X3.87901 Y0.68627 I-0.00046 J0.19264
G2 X3.8751 Y0.68653 I0.00277 J0.07055
G2 X3.87126 Y0.68733 I0.00077 J0.01338
G2 X3.86546 Y0.69221 I0.00303 J0.0095
G2 X3.86392 Y0.69963 I0.01456 J0.0069
G1 Y0.80388
G3 X3.85728 Y0.81444 I-0.01187 J-0.0001
G3 X3.84546 Y0.81841 I-0.01766 J-0.03301
G3 X3.83538 Y0.81926 I-0.0105 J-0.06401
G3 X3.81846 Y0.8196 I-0.01552 J-0.34951
G1 X3.75625
G3 X3.74036 Y0.81926 I-0.00119 J-0.31446
G3 X3.73027 Y0.81824 I0.00376 J-0.08706
G3 X3.71892 Y0.81415 I0.00553 J-0.03315
G3 X3.71284 Y0.80371 I0.00581 J-0.01037
G1 Y0.69963
G2 X3.70955 Y0.68955 I-0.01413 J-0.00097
G2 X3.69951 Y0.68613 I-0.00908 J0.01022
G2 X3.6917 Y0.68627 I-0.00046 J0.19264
G2 X3.68779 Y0.68653 I0.00277 J0.07055
G2 X3.68396 Y0.68733 I0.00077 J0.01338
G2 X3.67827 Y0.69225 I0.00307 J0.0093
G2 X3.67678 Y0.69963 I0.01501 J0.00686
G1 Y0.80337
G2 X3.68572 Y0.829 I0.03776 J0.00121
G2 X3.70176 Y0.84056 I0.03496 J-0.0316
G2 X3.73015 Y0.84822 I0.04048 J-0.09354
G2 X3.7595 Y0.85002 I0.02798 J-0.21519
G1 X3.81846
G2 X3.84386 Y0.84869 I0.00103 J-0.22346
G2 X3.8631 Y0.84511 I-0.01412 J-0.12932
G2 X3.87713 Y0.83989 I-0.01987 J-0.07485
G2 X3.89432 Y0.82539 I-0.01802 J-0.03879
G2 X3.90032 Y0.80371 I-0.03272 J-0.02072
G1 Y0.69963
G0 Z0.2
G0 X4.14897
G1 F10.0 Z0.005
G2 F120.0 X4.1456 Y0.68951 I-0.01397 J-0.00097
G2 X4.13547 Y0.68613 I-0.00916 J0.01059
G2 X4.12766 Y0.68627 I-0.00046 J0.19264
G2 X4.12376 Y0.68653 I0.00277 J0.07055
G2 X4.11992 Y0.68733 I0.00077 J0.01338
G2 X4.11412 Y0.69221 I0.00303 J0.0095
G2 X4.11257 Y0.69963 I0.01456 J0.0069
G1 Y0.80388
G3 X4.10594 Y0.81444 I-0.01187 J-0.0001
G3 X4.09412 Y0.81841 I-0.01766 J-0.03301
G3 X4.08403 Y0.81926 I-0.0105 J-0.06401
G3 X4.06711 Y0.8196 I-0.01552 J-0.34951
G1 X4.00491
G3 X3.98901 Y0.81926 I-0.00119 J-0.31446
G3 X3.97893 Y0.81824 I0.00376 J-0.08706
G3 X3.96757 Y0.81415 I0.00553 J-0.03315
G3 X3.9615 Y0.80371 I0.00581 J-0.01037
G1 Y0.69963
G2 X3.95821 Y0.68955 I-0.01413 J-0.00097
G2 X3.94817 Y0.68613 I-0.00908 J0.01022
G2 X3.94036 Y0.68627 I-0.00046 J0.19264
G2 X3.93645 Y0.68653 I0.00277 J0.07055
G2 X3.93262 Y0.68733 I0.00077 J0.01338
G2 X3.92693 Y0.69225 I0.00307 J0.0093
G2 X3.92544 Y0.69963 I0.01501 J0.00686
G1 Y0.80337
G2 X3.93437 Y0.829 I0.03776 J0.00121
G2 X3.95041 Y0.84056 I0.03496 J-0.0316
G2 X3.9788 Y0.84822 I0.04048 J-0.09354
G2 X4.00815 Y0.85002 I0.02798 J-0.21519
G1 X4.06711
G2 X4.09251 Y0.84869 I0.00103 J-0.22346
G2 X4.11176 Y0.84511 I-0.01412 J-0.12932
G2 X4.12579 Y0.83989 I-0.01987 J-0.07485
G2 X4.14298 Y0.82539 I-0.01802 J-0.03879
G2 X4.14897 Y0.80371 I-0.03272 J-0.02072
G1 Y0.69963
G0 Z0.2
G0 X4.36021 Y0.78167
G1 F10.0 Z0.005
G1 F120.0 Y0.80183
G3 X4.3546 Y0.81063 I-0.01066 J-0.00061
G3 X4.33834 Y0.81649 I-0.02478 J-0.0433
G3 X4.3127 Y0.81959 I-0.03501 J-0.18193
G3 X4.28689 Y0.82029 I-0.02461 J-0.42976
G3 X4.25718 Y0.81982 I-0.00167 J-0.82966
G3 X4.22759 Y0.81721 I0.0049 J-0.22519
G3 X4.2134 Y0.81267 I0.00827 J-0.05033
G3 X4.20734 Y0.80782 I0.00837 J-0.01663
G3 X4.20486 Y0.80046 I0.00925 J-0.00722
G1 Y0.78167
G1 X4.36021
G0 Z0.2
G0 X4.39541 Y0.76526
G1 F10.0 Z0.005
G2 F120.0 X4.39371 Y0.75556 I-0.02355 J-0.00087
G2 X4.38533 Y0.75039 I-0.00786 J0.00337
G1 X4.20605
G1 Y0.74919
G3 X4.21397 Y0.72898 I0.02698 J-0.00109
G3 X4.22305 Y0.72285 I0.02289 J0.02411
G3 X4.2334 Y0.71929 I0.02288 J0.04963
G3 X4.25066 Y0.71707 I0.02528 J0.12823
G3 X4.27971 Y0.71638 I0.02665 J0.51482
G2 X4.28576 Y0.71524 I0.00032 J-0.01491
G2 X4.29172 Y0.70852 I-0.00463 J-0.01011
G2 X4.29304 Y0.69963 I-0.02504 J-0.00827
G2 X4.28975 Y0.68955 I-0.01413 J-0.00097
G2 X4.27971 Y0.68613 I-0.00908 J0.01022
G2 X4.24998 Y0.68647 I-0.00266 J1.06234
G2 X4.23254 Y0.68733 I0.00106 J0.19982
G2 X4.20975 Y0.69146 I0.01289 J0.13593
G2 X4.18879 Y0.70134 I0.01518 J0.05936
G2 X4.17439 Y0.71722 I0.03396 J0.04529
G2 X4.1688 Y0.73792 I0.0348 J0.0205
G1 Y0.79824
G2 X4.17744 Y0.82419 I0.04054 J0.00091
G2 X4.19956 Y0.84028 I0.04396 J-0.03718
G2 X4.22689 Y0.8482 I0.04142 J-0.09188
G2 X4.25527 Y0.8502 I0.0272 J-0.18401
G1 X4.32261
G2 X4.34665 Y0.84821 I0.00088 J-0.13568
G2 X4.3696 Y0.8408 I-0.01411 J-0.08297
G2 X4.38819 Y0.82683 I-0.01943 J-0.04521
G2 X4.39541 Y0.80474 I-0.0279 J-0.02135
G1 Y0.76526
G0 Z0.2
G0 X4.51658 Y0.83293
G1 F10.0 Z0.005
G2 F120.0 X4.51556 Y0.827 I-0.01603 J-0.00031
G2 X4.50923 Y0.82085 I-0.01005 J0.00401
G2 X4.50051 Y0.81943 I-0.0081 J0.02235
G2 X4.49402 Y0.8196 I0.00149 J0.18005
G3 X4.4877 Y0.81995 I-0.00777 J-0.08507
G3 X4.46312 Y0.81725 I-0.00203 J-0.09484
G3 X4.45139 Y0.81133 I0.007 J-0.02847
G3 X4.44617 Y0.79927 I0.01034 J-0.01164
G1 Y0.69963
G2 X4.44458 Y0.69208 I-0.01625 J-0.00053
G2 X4.43865 Y0.68716 I-0.00893 J0.00472
G2 X4.43081 Y0.68627 I-0.00823 J0.03749
G2 X4.42292 Y0.68613 I-0.00737 J0.20221
G2 X4.41311 Y0.68977 I-0.00093 J0.01255
G2 X4.41011 Y0.6998 I0.01204 J0.00907
G1 Y0.79927
G2 X4.41211 Y0.81384 I0.05056 J0.00048
G2 X4.42396 Y0.83223 I0.03727 J-0.01101
G2 X4.44309 Y0.84285 I0.03691 J-0.04394
G2 X4.47281 Y0.84873 I0.03979 J-0.12299
G2 X4.50308 Y0.85002 I0.02876 J-0.31807
G2 X4.50923 Y0.84885 I0.00033 J-0.01497
G2 X4.51525 Y0.84198 I-0.00479 J-0.01027
G2 X4.51658 Y0.83293 I-0.0258 J-0.00841
G0 Z0.2
G0 X4.57947 Y0.70493
G1 F10.0 Z0.005
G2 F120.0 X4.57178 Y0.69092 I-0.01629 J-0.00018
G2 X4.55588 Y0.6863 I-0.0152 J0.02267
G2 X4.53982 Y0.69075 I-0.00092 J0.02792
G2 X4.5323 Y0.70493 I0.00872 J0.01371
G2 X4.53982 Y0.71877 I0.01568 J0.00045
G2 X4.55571 Y0.72322 I0.01545 J-0.02462
G2 X4.57178 Y0.71877 I0.00052 J-0.02938
G2 X4.57947 Y0.70493 I-0.00818 J-0.0136
G0 Z0.2
G0 X4.82898 Y0.69963
G1 F10.0 Z0.005
G2 F120.0 X4.82786 Y0.69356 I-0.01531 J-0.00032
G2 X4.82116 Y0.68749 I-0.01019 J0.00452
G2 X4.81223 Y0.68613 I-0.00831 J0.02462
G1 X4.67876
G2 X4.65075 Y0.68738 I-0.00154 J0.28089
G2 X4.63685 Y0.68944 I0.01375 J0.14044
G2 X4.62339 Y0.69348 I0.01315 J0.06826
G2 X4.60172 Y0.70967 I0.01597 J0.04398
G2 X4.59434 Y0.73569 I0.0372 J0.02461
G1 Y0.80029
G2 X4.60127 Y0.82567 I0.04505 J0.00133
G2 X4.61548 Y0.83877 I0.03518 J-0.0239
G2 X4.64266 Y0.84789 I0.03885 J-0.07078
G2 X4.67124 Y0.85002 I0.02719 J-0.17139
G1 X4.81411
G2 X4.81997 Y0.84917 I0.0003 J-0.01843
G2 X4.82651 Y0.84339 I-0.00323 J-0.01025
G2 X4.82813 Y0.83481 I-0.01865 J-0.00796
G2 X4.8249 Y0.82372 I-0.01704 J-0.00106
G2 X4.81411 Y0.8196 I-0.00977 J0.00941
G1 X4.6738
G3 X4.64915 Y0.81746 I-0.00196 J-0.12005
G3 X4.6369 Y0.81273 I0.00687 J-0.03609
G3 X4.6304 Y0.80132 I0.0067 J-0.01138
G1 Y0.73723
G3 X4.63778 Y0.72423 I0.01506 J-0.00005
G3 X4.64768 Y0.71986 I0.01936 J0.0305
G3 X4.66362 Y0.71706 I0.02294 J0.08375
G3 X4.67979 Y0.71638 I0.01547 J0.17688
G1 X4.81548
G2 X4.82156 Y0.71526 I0.00032 J-0.01531
G2 X4.82762 Y0.70857 I-0.00452 J-0.01019
G2 X4.82898 Y0.69963 I-0.02462 J-0.00831
G0 Z0.2
G0 X5.03423 Y0.73706
G1 F10.0 Z0.005
G1 F120.0 Y0.80012
G3 X5.02783 Y0.81211 I-0.01412 J0.00016
G3 X5.01892 Y0.81628 I-0.01752 J-0.02578
G3 X5.00447 Y0.81896 I-0.02075 J-0.07159
G3 X4.98979 Y0.8196 I-0.01404 J-0.15266
G1 X4.93118
G3 X4.90178 Y0.8155 I-0.00132 J-0.09791
G3 X4.8896 Y0.80945 I0.01118 J-0.03777
G3 X4.88333 Y0.79739 I0.0087 J-0.0122
G1 Y0.73706
G3 X4.88993 Y0.72544 I0.01399 J0.00027
G3 X4.90212 Y0.71997 I0.02269 J0.03423
G3 X4.93135 Y0.71638 I0.02754 J0.1035
G1 X4.98997
G3 X5.0168 Y0.72048 I0.00051 J0.08649
G3 X5.02815 Y0.72599 I-0.01108 J0.0373
G3 X5.03423 Y0.73706 I-0.00756 J0.01135
G0 Z0.2
G0 X5.0708
G1 F10.0 Z0.005
G2 F120.0 X5.06345 Y0.71217 I-0.04222 J-0.00106
G2 X5.04312 Y0.69604 I-0.04046 J0.03014
G2 X5.01753 Y0.68813 I-0.03897 J0.08071
G2 X4.99082 Y0.68613 I-0.02559 J0.16233
G1 X4.93083
G2 X4.877 Y0.69622 I-0.00192 J0.13849
G2 X4.85561 Y0.71189 I0.02136 J0.05158
G2 X4.84727 Y0.73706 I0.03114 J0.02429
G1 Y0.79739
G2 X4.85558 Y0.82282 I0.04062 J0.0008
G2 X4.87683 Y0.83909 I0.04484 J-0.03657
G2 X4.90311 Y0.84767 I0.04328 J-0.08797
G2 X4.93066 Y0.85002 I0.0266 J-0.14913
G1 X4.99082
G2 X5.017 Y0.84833 I0.00111 J-0.18624
G2 X5.03666 Y0.84374 I-0.01427 J-0.10543
G2 X5.05053 Y0.83713 I-0.02069 J-0.06128
G2 X5.06602 Y0.82018 I-0.02247 J-0.03608
G2 X5.0708 Y0.79773 I-0.04539 J-0.02141
G1 Y0.73706
G0 Z0.2
G0 X5.40474 Y0.69963
G1 F10.0 Z0.005
G2 F120.0 X5.40145 Y0.68955 I-0.01413 J-0.00097
G2 X5.39141 Y0.68613 I-0.00908 J0.01022
G2 X5.3836 Y0.68627 I-0.00046 J0.19264
G2 X5.37969 Y0.68653 I0.00277 J0.07055
G2 X5.37585 Y0.68733 I0.00077 J0.01338
G2 X5.37005 Y0.69221 I0.00303 J0.0095
G2 X5.36851 Y0.69963 I0.01456 J0.0069
G1 Y0.80063
G3 X5.36166 Y0.81277 I-0.01407 J0.00006
G3 X5.35244 Y0.81686 I-0.01803 J-0.02821
G3 X5.33759 Y0.81949 I-0.02137 J-0.07756
G3 X5.32253 Y0.82012 I-0.01442 J-0.16402
G1 X5.31775
G1 X5.31553
G3 X5.31348 Y0.81995 I-0.00038 J-0.00779
G3 X5.29879 Y0.81909 I0.01203 J-0.3338
G3 X5.28425 Y0.81687 I0.00502 J-0.08153
G3 X5.27234 Y0.80944 I0.00575 J-0.02248
G3 X5.26819 Y0.79602 I0.01693 J-0.01259
G1 Y0.69963
G2 X5.26664 Y0.69221 I-0.01611 J-0.00052
G2 X5.26084 Y0.68733 I-0.00884 J0.00462
G2 X5.2531 Y0.68627 I-0.00769 J0.02745
G2 X5.24529 Y0.68613 I-0.00721 J0.18504
G2 X5.23516 Y0.68951 I-0.00097 J0.01397
G2 X5.23179 Y0.69963 I0.01059 J0.00916
G1 Y0.79636
G3 X5.22956 Y0.80777 I-0.02677 J0.00071
G3 X5.22136 Y0.81602 I-0.01554 J-0.00726
G3 X5.20984 Y0.81899 I-0.0148 J-0.03352
G3 X5.19795 Y0.8196 I-0.01122 J-0.10181
G1 X5.19351
G1 X5.1906
G1 X5.18906
G2 X5.18752 Y0.81978 I-0.00028 J0.00449
G3 X5.18154 Y0.81995 I-0.00648 J-0.12195
G3 X5.17727 Y0.82012 I-0.00484 J-0.06745
G3 X5.1508 Y0.81777 I-0.00212 J-0.12677
G3 X5.13767 Y0.81261 I0.00738 J-0.03807
G3 X5.13079 Y0.80029 I0.00744 J-0.01224
G1 Y0.69963
G2 X5.1293 Y0.69225 I-0.01649 J-0.00052
G2 X5.12361 Y0.68733 I-0.00877 J0.00438
G2 X5.11587 Y0.68627 I-0.00769 J0.02745
G2 X5.10806 Y0.68613 I-0.00721 J0.18504
G2 X5.09802 Y0.68955 I-0.00096 J0.01364
G2 X5.09473 Y0.69963 I0.01084 J0.00912
G1 Y0.79653
G2 X5.10134 Y0.82306 I0.05085 J0.00141
G2 X5.11551 Y0.8374 I0.03744 J-0.02283
G2 X5.14357 Y0.84763 I0.04025 J-0.06685
G2 X5.17334 Y0.85002 I0.02829 J-0.16525
G2 X5.19863 Y0.84968 I0.00219 J-0.77403
G2 X5.21333 Y0.84883 I-0.00064 J-0.13788
G2 X5.25093 Y0.83601 I-0.01164 J-0.09571
G2 X5.26923 Y0.84428 I0.04183 J-0.06821
G2 X5.28887 Y0.84849 I0.0336 J-0.10887
G2 X5.30893 Y0.84977 I0.02444 J-0.22373
G2 X5.32903 Y0.85002 I0.01885 J-0.7072
G2 X5.35462 Y0.84817 I0.00112 J-0.1617
G2 X5.37367 Y0.84311 I-0.01383 J-0.09059
G2 X5.3868 Y0.83593 I-0.02062 J-0.05329
G2 X5.40067 Y0.81846 I-0.02488 J-0.03399
G2 X5.40474 Y0.79653 I-0.05155 J-0.02091
G1 Y0.69963
G0 Z0.2
M5
M30
