( Made using CamBam - http://www.cambam.co.uk )
( scaled_plate2 4/15/2012 2:12:53 PM )
( T0 : 0.125 )
G20 G90 G64 G40
G0 Z0.05
( T0 : 0.125 )
T0 M6
( OutsideProfile )
G17
M3 S16000
G0 X0.7724 Y0.2262
G1 F10.0 Z0.0
G3 F80.0 X0.7438 Y0.0594 Z-0.03 I0.4713 J-0.1669
G1 Y0.3624
G3 X0.6613 Y0.4449 I-0.0825 J0.0
G1 X0.0493
G3 X-0.0332 Y0.3624 I0.0 J-0.0825
G1 Y0.0594
G3 X0.0493 Y-0.0231 I0.0825 J0.0
G1 X0.6613
G3 X0.7438 Y0.0594 I0.0 J0.0825
G0 Z0.05
G0 X0.9381 Y-0.1075
G1 F10.0 Z0.0
G3 F80.0 X0.9668 Y0.0594 Z-0.03 I-0.4713 J0.1669
G3 X1.0493 Y-0.0231 I0.0825 J0.0
G1 X1.6613
G3 X1.7438 Y0.0594 I0.0 J0.0825
G1 Y0.3624
G3 X1.6613 Y0.4449 I-0.0825 J0.0
G1 X1.0493
G3 X0.9668 Y0.3624 I0.0 J-0.0825
G1 Y0.0594
G0 Z0.05
G0 X1.2008 Y0.5781
G1 F10.0 Z0.0
G3 F80.0 X1.0389 Y0.6275 Z-0.03 I-0.2249 J-0.4466
G3 X1.0493 Y0.6269 I0.0104 J0.0818
G1 X1.6613
G3 X1.7438 Y0.7094 I0.0 J0.0825
G1 Y1.0124
G3 X1.6613 Y1.0949 I-0.0825 J0.0
G1 X1.0493
G3 X0.9668 Y1.0124 I0.0 J-0.0825
G1 Y0.7094
G3 X1.0389 Y0.6275 I0.0825 J0.0
G0 Z0.05
G0 X0.8052 Y0.8489
G1 F10.0 Z0.0
G3 F80.0 X0.7419 Y0.6919 Z-0.03 I0.4253 J-0.2629
G3 X0.7438 Y0.7094 I-0.0806 J0.0175
G1 Y1.0124
G3 X0.6613 Y1.0949 I-0.0825 J0.0
G1 X0.0493
G3 X-0.0332 Y1.0124 I0.0 J-0.0825
G1 Y0.7094
G3 X0.0493 Y0.6269 I0.0825 J0.0
G1 X0.6613
G3 X0.7419 Y0.6919 I0.0 J0.0825
G0 Z0.05
G0 X0.8403 Y1.269
G1 F10.0 Z0.0
G3 F80.0 X0.6711 Y1.2775 Z-0.03 I-0.1091 J-0.4879
G3 X0.7438 Y1.3594 I-0.0099 J0.0819
G1 Y1.6624
G3 X0.6613 Y1.7449 I-0.0825 J0.0
G1 X0.0493
G3 X-0.0332 Y1.6624 I0.0 J-0.0825
G1 Y1.3594
G3 X0.0493 Y1.2769 I0.0825 J0.0
G1 X0.6613
G3 X0.6711 Y1.2775 I0.0 J0.0825
G0 Z0.05
G0 X0.9759 Y1.1727
G1 F10.0 Z0.0
G3 F80.0 X0.9686 Y1.3419 Z-0.03 I-0.496 J0.0633
G3 X1.0493 Y1.2769 I0.0806 J0.0175
G1 X1.6613
G3 X1.7438 Y1.3594 I0.0 J0.0825
G1 Y1.6624
G3 X1.6613 Y1.7449 I-0.0825 J0.0
G1 X1.0493
G3 X0.9668 Y1.6624 I0.0 J-0.0825
G1 Y1.3594
G3 X0.9686 Y1.3419 I0.0825 J0.0
G0 Z0.05
G0 X1.2016 Y1.879
G1 F10.0 Z0.0
G3 F80.0 X1.0394 Y1.9275 Z-0.03 I-0.2222 J-0.4479
G3 X1.0493 Y1.9269 I0.0099 J0.0819
G1 X1.6613
G3 X1.7438 Y2.0094 I0.0 J0.0825
G1 Y2.3124
G3 X1.6613 Y2.3949 I-0.0825 J0.0
G1 X1.0493
G3 X0.9668 Y2.3124 I0.0 J-0.0825
G1 Y2.0094
G3 X1.0394 Y1.9275 I0.0825 J0.0
G0 Z0.05
G0 X0.8052 Y2.1489
G1 F10.0 Z0.0
G3 F80.0 X0.7419 Y1.9919 Z-0.03 I0.4253 J-0.2629
G3 X0.7438 Y2.0094 I-0.0806 J0.0175
G1 Y2.3124
G3 X0.6613 Y2.3949 I-0.0825 J0.0
G1 X0.0493
G3 X-0.0332 Y2.3124 I0.0 J-0.0825
G1 Y2.0094
G3 X0.0493 Y1.9269 I0.0825 J0.0
G1 X0.6613
G3 X0.7419 Y1.9919 I0.0 J0.0825
G0 Z0.05
G0 X0.8403 Y2.569
G1 F10.0 Z0.0
G3 F80.0 X0.6711 Y2.5775 Z-0.03 I-0.1091 J-0.4879
G3 X0.7438 Y2.6594 I-0.0099 J0.0819
G1 Y2.9624
G3 X0.6613 Y3.0449 I-0.0825 J0.0
G1 X0.0493
G3 X-0.0332 Y2.9624 I0.0 J-0.0825
G1 Y2.6594
G3 X0.0493 Y2.5769 I0.0825 J0.0
G1 X0.6613
G3 X0.6711 Y2.5775 I0.0 J0.0825
G0 Z0.05
G0 X0.9759 Y2.4727
G1 F10.0 Z0.0
G3 F80.0 X0.9686 Y2.6419 Z-0.03 I-0.496 J0.0633
G3 X1.0493 Y2.5769 I0.0806 J0.0175
G1 X1.6613
G3 X1.7438 Y2.6594 I0.0 J0.0825
G1 Y2.9624
G3 X1.6613 Y3.0449 I-0.0825 J0.0
G1 X1.0493
G3 X0.9668 Y2.9624 I0.0 J-0.0825
G1 Y2.6594
G3 X0.9686 Y2.6419 I0.0825 J0.0
G0 Z0.05
G0 X1.2016 Y3.179
G1 F10.0 Z0.0
G3 F80.0 X1.0394 Y3.2275 Z-0.03 I-0.2222 J-0.4479
G3 X1.0493 Y3.2269 I0.0099 J0.0819
G1 X1.6613
G3 X1.7438 Y3.3094 I0.0 J0.0825
G1 Y3.6124
G3 X1.6613 Y3.6949 I-0.0825 J0.0
G1 X1.0493
G3 X0.9668 Y3.6124 I0.0 J-0.0825
G1 Y3.3094
G3 X1.0394 Y3.2275 I0.0825 J0.0
G0 Z0.05
G0 X0.8052 Y3.4489
G1 F10.0 Z0.0
G3 F80.0 X0.7419 Y3.2919 Z-0.03 I0.4253 J-0.2629
G3 X0.7438 Y3.3094 I-0.0806 J0.0175
G1 Y3.6124
G3 X0.6613 Y3.6949 I-0.0825 J0.0
G1 X0.0493
G3 X-0.0332 Y3.6124 I0.0 J-0.0825
G1 Y3.3094
G3 X0.0493 Y3.2269 I0.0825 J0.0
G1 X0.6613
G3 X0.7419 Y3.2919 I0.0 J0.0825
G0 Z0.05
G0 X0.8403 Y3.869
G1 F10.0 Z0.0
G3 F80.0 X0.6711 Y3.8775 Z-0.03 I-0.1091 J-0.4879
G3 X0.7438 Y3.9594 I-0.0099 J0.0819
G1 Y4.2624
G3 X0.6613 Y4.3449 I-0.0825 J0.0
G1 X0.0493
G3 X-0.0332 Y4.2624 I0.0 J-0.0825
G1 Y3.9594
G3 X0.0493 Y3.8769 I0.0825 J0.0
G1 X0.6613
G3 X0.6711 Y3.8775 I0.0 J0.0825
G0 Z0.05
G0 X0.9759 Y3.7727
G1 F10.0 Z0.0
G3 F80.0 X0.9686 Y3.9419 Z-0.03 I-0.496 J0.0633
G3 X1.0493 Y3.8769 I0.0806 J0.0175
G1 X1.6613
G3 X1.7438 Y3.9594 I0.0 J0.0825
G1 Y4.2624
G3 X1.6613 Y4.3449 I-0.0825 J0.0
G1 X1.0493
G3 X0.9668 Y4.2624 I0.0 J-0.0825
G1 Y3.9594
G3 X0.9686 Y3.9419 I0.0825 J0.0
G0 Z0.05
G0 X1.9408 Y3.7907
G1 F10.0 Z0.0
G3 F80.0 X1.9668 Y3.958 Z-0.03 I-0.474 J0.1592
G3 X2.0493 Y3.8769 I0.0825 J0.0013
G1 X2.6613
G3 X2.7438 Y3.9594 I0.0 J0.0825
G1 Y4.2624
G3 X2.6613 Y4.3449 I-0.0825 J0.0
G1 X2.0493
G3 X1.9668 Y4.2624 I0.0 J-0.0825
G1 Y3.9594
G3 Y3.958 I0.0825 J0.0
G0 Z0.05
G0 X1.8611 Y3.6818
G1 F10.0 Z0.0
G3 F80.0 X2.0301 Y3.6926 Z-0.03 I0.0529 J0.4972
G3 X1.9668 Y3.6124 I0.0191 J-0.0802
G1 Y3.3094
G3 X2.0493 Y3.2269 I0.0825 J0.0
G1 X2.6613
G3 X2.7438 Y3.3094 I0.0 J0.0825
G1 Y3.6124
G3 X2.6613 Y3.6949 I-0.0825 J0.0
G1 X2.0493
G3 X2.0301 Y3.6926 I0.0 J-0.0825
G0 Z0.05
G0 X1.8795 Y3.0691
G1 F10.0 Z0.0
G3 F80.0 X2.0471 Y3.0448 Z-0.03 I0.1545 J0.4755
G3 X1.9668 Y2.9624 I0.0022 J-0.0825
G1 Y2.6594
G3 X2.0493 Y2.5769 I0.0825 J0.0
G1 X2.6613
G3 X2.7438 Y2.6594 I0.0 J0.0825
G1 Y2.9624
G3 X2.6613 Y3.0449 I-0.0825 J0.0
G1 X2.0493
G3 X2.0471 Y3.0448 I0.0 J-0.0825
G0 Z0.05
G0 X1.882 Y2.423
G1 F10.0 Z0.0
G3 F80.0 X2.049 Y2.3949 Z-0.03 I0.1655 J0.4718
G3 X1.9668 Y2.3124 I0.0002 J-0.0825
G1 Y2.0094
G3 X2.0493 Y1.9269 I0.0825 J0.0
G1 X2.6613
G3 X2.7438 Y2.0094 I0.0 J0.0825
G1 Y2.3124
G3 X2.6613 Y2.3949 I-0.0825 J0.0
G1 X2.0493
G3 X2.049 I0.0 J-0.0825
G0 Z0.05
G0 X1.8823 Y1.7735
G1 F10.0 Z0.0
G3 F80.0 X2.0492 Y1.7449 Z-0.03 I0.1667 J0.4714
G3 X1.9668 Y1.6624 I0.0 J-0.0825
G1 Y1.3594
G3 X2.0493 Y1.2769 I0.0825 J0.0
G1 X2.6613
G3 X2.7438 Y1.3594 I0.0 J0.0825
G1 Y1.6624
G3 X2.6613 Y1.7449 I-0.0825 J0.0
G1 X2.0493
G1 X2.0492
G0 Z0.05
G0 X1.8824 Y1.1235
G1 F10.0 Z0.0
G3 F80.0 X2.0492 Y1.0949 Z-0.03 I0.1669 J0.4713
G3 X1.9668 Y1.0124 I0.0 J-0.0825
G1 Y0.7094
G3 X2.0493 Y0.6269 I0.0825 J0.0
G1 X2.6613
G3 X2.7438 Y0.7094 I0.0 J0.0825
G1 Y1.0124
G3 X2.6613 Y1.0949 I-0.0825 J0.0
G1 X2.0493
G1 X2.0492
G0 Z0.05
G0 X1.8824 Y0.4735
G1 F10.0 Z0.0
G3 F80.0 X2.0493 Y0.4449 Z-0.03 I0.1669 J0.4713
G3 X1.9668 Y0.3624 I0.0 J-0.0825
G1 Y0.0594
G3 X2.0493 Y-0.0231 I0.0825 J0.0
G1 X2.6613
G3 X2.7438 Y0.0594 I0.0 J0.0825
G1 Y0.3624
G3 X2.6613 Y0.4449 I-0.0825 J0.0
G1 X2.0493
G0 Z0.05
G0 X2.9247 Y0.2052
G1 F10.0 Z0.0
G3 F80.0 X2.967 Y0.3691 Z-0.03 I-0.456 J0.2051
G3 X2.9668 Y0.3624 I0.0822 J-0.0068
G1 Y0.0594
G3 X3.0493 Y-0.0231 I0.0825 J0.0
G1 X3.6613
G3 X3.7438 Y0.0594 I0.0 J0.0825
G1 Y0.3624
G3 X3.6613 Y0.4449 I-0.0825 J0.0
G1 X3.0493
G3 X2.967 Y0.3691 I0.0 J-0.0825
G0 Z0.05
G0 X3.1853 Y0.5621
G1 F10.0 Z0.0
G3 F80.0 X3.0299 Y0.6292 Z-0.03 I-0.2729 J-0.4189
G3 X3.0493 Y0.6269 I0.0194 J0.0802
G1 X3.6613
G3 X3.7438 Y0.7094 I0.0 J0.0825
G1 Y1.0124
G3 X3.6613 Y1.0949 I-0.0825 J0.0
G1 X3.0493
G3 X2.9668 Y1.0124 I0.0 J-0.0825
G1 Y0.7094
G3 X3.0299 Y0.6292 I0.0825 J0.0
G0 Z0.05
G0 X3.2131 Y1.2438
G1 F10.0 Z0.0
G3 F80.0 X3.0471 Y1.2769 Z-0.03 I-0.1793 J-0.4667
G3 X3.0493 I0.0022 J0.0825
G1 X3.6613
G3 X3.7438 Y1.3594 I0.0 J0.0825
G1 Y1.6624
G3 X3.6613 Y1.7449 I-0.0825 J0.0
G1 X3.0493
G3 X2.9668 Y1.6624 I0.0 J-0.0825
G1 Y1.3594
G3 X3.0471 Y1.2769 I0.0825 J0.0
G0 Z0.05
G0 X3.2158 Y1.8977
G1 F10.0 Z0.0
G3 F80.0 X3.049 Y1.9269 Z-0.03 I-0.1683 J-0.4708
G3 X3.0493 I0.0002 J0.0825
G1 X3.6613
G3 X3.7438 Y2.0094 I0.0 J0.0825
G1 Y2.3124
G3 X3.6613 Y2.3949 I-0.0825 J0.0
G1 X3.0493
G3 X2.9668 Y2.3124 I0.0 J-0.0825
G1 Y2.0094
G3 X3.049 Y1.9269 I0.0825 J0.0
G0 Z0.05
G0 X3.2161 Y2.5481
G1 F10.0 Z0.0
G3 F80.0 X3.0492 Y2.5769 Z-0.03 I-0.167 J-0.4713
G1 X3.0493
G1 X3.6613
G3 X3.7438 Y2.6594 I0.0 J0.0825
G1 Y2.9624
G3 X3.6613 Y3.0449 I-0.0825 J0.0
G1 X3.0493
G3 X2.9668 Y2.9624 I0.0 J-0.0825
G1 Y2.6594
G3 X3.0492 Y2.5769 I0.0825 J0.0
G0 Z0.05
G0 X3.2161 Y3.1982
G1 F10.0 Z0.0
G3 F80.0 X3.0492 Y3.2269 Z-0.03 I-0.1669 J-0.4713
G1 X3.0493
G1 X3.6613
G3 X3.7438 Y3.3094 I0.0 J0.0825
G1 Y3.6124
G3 X3.6613 Y3.6949 I-0.0825 J0.0
G1 X3.0493
G3 X2.9668 Y3.6124 I0.0 J-0.0825
G1 Y3.3094
G3 X3.0492 Y3.2269 I0.0825 J0.0
G0 Z0.05
G0 X3.2161 Y3.8482
G1 F10.0 Z0.0
G3 F80.0 X3.0493 Y3.8769 Z-0.03 I-0.1669 J-0.4713
G1 X3.6613
G3 X3.7438 Y3.9594 I0.0 J0.0825
G1 Y4.2624
G3 X3.6613 Y4.3449 I-0.0825 J0.0
G1 X3.0493
G3 X2.9668 Y4.2624 I0.0 J-0.0825
G1 Y3.9594
G3 X3.0493 Y3.8769 I0.0825 J0.0
G0 Z0.05
G0 X3.9522 Y3.7839
G1 F10.0 Z0.0
G3 F80.0 X3.967 Y3.9526 Z-0.03 I-0.4835 J0.1276
G3 X4.0493 Y3.8769 I0.0822 J0.0068
G1 X4.6613
G3 X4.7438 Y3.9594 I0.0 J0.0825
G1 Y4.2624
G3 X4.6613 Y4.3449 I-0.0825 J0.0
G1 X4.0493
G3 X3.9668 Y4.2624 I0.0 J-0.0825
G1 Y3.9594
G3 X3.967 Y3.9526 I0.0825 J0.0
G0 Z0.05
G0 X3.8609 Y3.6812
G1 F10.0 Z0.0
G3 F80.0 X4.0299 Y3.6926 Z-0.03 I0.0515 J0.4973
G3 X3.9668 Y3.6124 I0.0194 J-0.0802
G1 Y3.3094
G3 X4.0493 Y3.2269 I0.0825 J0.0
G1 X4.6613
G3 X4.7438 Y3.3094 I0.0 J0.0825
G1 Y3.6124
G3 X4.6613 Y3.6949 I-0.0825 J0.0
G1 X4.0493
G3 X4.0299 Y3.6926 I0.0 J-0.0825
G0 Z0.05
G0 X3.8795 Y3.0691
G1 F10.0 Z0.0
G3 F80.0 X4.0471 Y3.0448 Z-0.03 I0.1543 J0.4756
G3 X3.9668 Y2.9624 I0.0022 J-0.0825
G1 Y2.6594
G3 X4.0493 Y2.5769 I0.0825 J0.0
G1 X4.6613
G3 X4.7438 Y2.6594 I0.0 J0.0825
G1 Y2.9624
G3 X4.6613 Y3.0449 I-0.0825 J0.0
G1 X4.0493
G3 X4.0471 Y3.0448 I0.0 J-0.0825
G0 Z0.05
G0 X3.882 Y2.423
G1 F10.0 Z0.0
G3 F80.0 X4.049 Y2.3949 Z-0.03 I0.1655 J0.4718
G3 X3.9668 Y2.3124 I0.0002 J-0.0825
G1 Y2.0094
G3 X4.0493 Y1.9269 I0.0825 J0.0
G1 X4.6613
G3 X4.7438 Y2.0094 I0.0 J0.0825
G1 Y2.3124
G3 X4.6613 Y2.3949 I-0.0825 J0.0
G1 X4.0493
G3 X4.049 I0.0 J-0.0825
G0 Z0.05
G0 X3.8823 Y1.7735
G1 F10.0 Z0.0
G3 F80.0 X4.0492 Y1.7449 Z-0.03 I0.1667 J0.4714
G3 X3.9668 Y1.6624 I0.0 J-0.0825
G1 Y1.3594
G3 X4.0493 Y1.2769 I0.0825 J0.0
G1 X4.6613
G3 X4.7438 Y1.3594 I0.0 J0.0825
G1 Y1.6624
G3 X4.6613 Y1.7449 I-0.0825 J0.0
G1 X4.0493
G1 X4.0492
G0 Z0.05
G0 X3.8824 Y1.1235
G1 F10.0 Z0.0
G3 F80.0 X4.0492 Y1.0949 Z-0.03 I0.1669 J0.4713
G3 X3.9668 Y1.0124 I0.0 J-0.0825
G1 Y0.7094
G3 X4.0493 Y0.6269 I0.0825 J0.0
G1 X4.6613
G3 X4.7438 Y0.7094 I0.0 J0.0825
G1 Y1.0124
G3 X4.6613 Y1.0949 I-0.0825 J0.0
G1 X4.0493
G1 X4.0492
G0 Z0.05
G0 X3.8824 Y0.4735
G1 F10.0 Z0.0
G3 F80.0 X4.0493 Y0.4449 Z-0.03 I0.1669 J0.4713
G3 X3.9668 Y0.3624 I0.0 J-0.0825
G1 Y0.0594
G3 X4.0493 Y-0.0231 I0.0825 J0.0
G1 X4.6613
G3 X4.7438 Y0.0594 I0.0 J0.0825
G1 Y0.3624
G3 X4.6613 Y0.4449 I-0.0825 J0.0
G1 X4.0493
G0 Z0.05
G0 X4.9247 Y0.2052
G1 F10.0 Z0.0
G3 F80.0 X4.967 Y0.3691 Z-0.03 I-0.456 J0.2051
G3 X4.9668 Y0.3624 I0.0822 J-0.0068
G1 Y0.0594
G3 X5.0493 Y-0.0231 I0.0825 J0.0
G1 X5.6613
G3 X5.7438 Y0.0594 I0.0 J0.0825
G1 Y0.3624
G3 X5.6613 Y0.4449 I-0.0825 J0.0
G1 X5.0493
G3 X4.967 Y0.3691 I0.0 J-0.0825
G0 Z0.05
G0 X5.1853 Y0.5621
G1 F10.0 Z0.0
G3 F80.0 X5.0299 Y0.6292 Z-0.03 I-0.2729 J-0.4189
G3 X5.0493 Y0.6269 I0.0194 J0.0802
G1 X5.6613
G3 X5.7438 Y0.7094 I0.0 J0.0825
G1 Y1.0124
G3 X5.6613 Y1.0949 I-0.0825 J0.0
G1 X5.0493
G3 X4.9668 Y1.0124 I0.0 J-0.0825
G1 Y0.7094
G3 X5.0299 Y0.6292 I0.0825 J0.0
G0 Z0.05
G0 X5.2131 Y1.2438
G1 F10.0 Z0.0
G3 F80.0 X5.0471 Y1.2769 Z-0.03 I-0.1793 J-0.4667
G3 X5.0493 I0.0022 J0.0825
G1 X5.6613
G3 X5.7438 Y1.3594 I0.0 J0.0825
G1 Y1.6624
G3 X5.6613 Y1.7449 I-0.0825 J0.0
G1 X5.0493
G3 X4.9668 Y1.6624 I0.0 J-0.0825
G1 Y1.3594
G3 X5.0471 Y1.2769 I0.0825 J0.0
G0 Z0.05
G0 X5.2158 Y1.8977
G1 F10.0 Z0.0
G3 F80.0 X5.049 Y1.9269 Z-0.03 I-0.1683 J-0.4708
G3 X5.0493 I0.0002 J0.0825
G1 X5.6613
G3 X5.7438 Y2.0094 I0.0 J0.0825
G1 Y2.3124
G3 X5.6613 Y2.3949 I-0.0825 J0.0
G1 X5.0493
G3 X4.9668 Y2.3124 I0.0 J-0.0825
G1 Y2.0094
G3 X5.049 Y1.9269 I0.0825 J0.0
G0 Z0.05
G0 X5.2161 Y2.5481
G1 F10.0 Z0.0
G3 F80.0 X5.0492 Y2.5769 Z-0.03 I-0.167 J-0.4713
G1 X5.0493
G1 X5.6613
G3 X5.7438 Y2.6594 I0.0 J0.0825
G1 Y2.9624
G3 X5.6613 Y3.0449 I-0.0825 J0.0
G1 X5.0493
G3 X4.9668 Y2.9624 I0.0 J-0.0825
G1 Y2.6594
G3 X5.0492 Y2.5769 I0.0825 J0.0
G0 Z0.05
G0 X5.2161 Y3.1982
G1 F10.0 Z0.0
G3 F80.0 X5.0492 Y3.2269 Z-0.03 I-0.1669 J-0.4713
G1 X5.0493
G1 X5.6613
G3 X5.7438 Y3.3094 I0.0 J0.0825
G1 Y3.6124
G3 X5.6613 Y3.6949 I-0.0825 J0.0
G1 X5.0493
G3 X4.9668 Y3.6124 I0.0 J-0.0825
G1 Y3.3094
G3 X5.0492 Y3.2269 I0.0825 J0.0
G0 Z0.05
G0 X5.2161 Y3.8482
G1 F10.0 Z0.0
G3 F80.0 X5.0493 Y3.8769 Z-0.03 I-0.1669 J-0.4713
G1 X5.6613
G3 X5.7438 Y3.9594 I0.0 J0.0825
G1 Y4.2624
G3 X5.6613 Y4.3449 I-0.0825 J0.0
G1 X5.0493
G3 X4.9668 Y4.2624 I0.0 J-0.0825
G1 Y3.9594
G3 X5.0493 Y3.8769 I0.0825 J0.0
G0 Z0.05
M5
M30
