( Made using CamBam - http://www.cambam.co.uk )
( blast_gate 6/29/2011 10:24:07 PM )
( T0 : 0.125 )
G20 G90 G64 G40
T0 M6
( circle )
G17
M3 S1000
G0 X2.1707 Y-0.2264
G1 F10.0 Z0.0
G3 F80.0 X2.1825 Y0.0 Z-0.04 I-2.1707 J0.2264
G3 X-1.0913 Y1.8901 I-2.1825 J0.0
G3 Y-1.8901 I1.0913 J-1.8901
G3 X2.1825 Y0.0 I1.0913 J1.8901
G0 Z0.125
G0 X2.1707 Y-0.2264
G1 F10.0 Z-0.04
G3 F80.0 X2.1825 Y0.0 Z-0.08 I-2.1707 J0.2264
G3 X-1.0913 Y1.8901 I-2.1825 J0.0
G3 Y-1.8901 I1.0913 J-1.8901
G3 X2.1825 Y0.0 I1.0913 J1.8901
G0 Z0.125
G0 X2.1707 Y-0.2264
G1 F10.0 Z-0.08
G3 F80.0 X2.1825 Y0.0 Z-0.12 I-2.1707 J0.2264
G3 X-1.0913 Y1.8901 I-2.1825 J0.0
G3 Y-1.8901 I1.0913 J-1.8901
G3 X2.1825 Y0.0 I1.0913 J1.8901
G0 Z0.125
G0 X2.1759 Y-0.17
G1 F10.0 Z-0.12
G3 F80.0 X2.1825 Y0.0 Z-0.15 I-2.1759 J0.17
G3 X-1.0913 Y1.8901 I-2.1825 J0.0
G3 Y-1.8901 I1.0913 J-1.8901
G3 X2.1825 Y0.0 I1.0913 J1.8901
G0 Z0.125
M5
M30
