( Made using CamBam - http://www.cambam.co.uk )
( blast_gate_small 6/29/2011 10:23:35 PM )
( T0 : 0.125 )
G20 G90 G64 G40
G0 Z0.125
( circle )
G17
M3 S1000
G0 X1.8538 Y-0.5633
G1 F10.0 Z0.0
G3 F80.0 X1.9375 Y0.0 Z-0.05 I-1.8538 J0.5633
G3 X-0.9688 Y1.6779 I-1.9375 J0.0
G3 Y-1.6779 I0.9687 J-1.6779
G3 X1.9375 Y0.0 I0.9688 J1.6779
G0 Z0.125
G0 X1.8538 Y-0.5633
G1 F10.0 Z-0.05
G3 F80.0 X1.9375 Y0.0 Z-0.1 I-1.8538 J0.5633
G3 X-0.9688 Y1.6779 I-1.9375 J0.0
G3 Y-1.6779 I0.9687 J-1.6779
G3 X1.9375 Y0.0 I0.9688 J1.6779
G0 Z0.125
G0 X1.8538 Y-0.5633
G1 F10.0 Z-0.1
G3 F80.0 X1.9375 Y0.0 Z-0.15 I-1.8538 J0.5633
G3 X-0.9688 Y1.6779 I-1.9375 J0.0
G3 Y-1.6779 I0.9687 J-1.6779
G3 X1.9375 Y0.0 I0.9688 J1.6779
G0 Z0.125
M5
M30
