( Made using CamBam - http://www.cambam.co.uk )
( clampmount 5/10/2011 10:02:53 PM )
( T0 : 0.125 )
G20 G90 G64 G40
G0 Z0.25
( Slots-Rough )
G17
M3 S2000
G0 X1.98239 Y0.5305
G1 F20.0 Z0.0
G1 F40.0 X2.0 Z-0.0031
G2 Y0.4695 Z-0.02 I0.0 J-0.0305
G1 X0.25
G2 Y0.5305 I0.0 J0.0305
G1 X2.0
G2 Y0.4695 I0.0 J-0.0305
G1 F20.0 Y0.4645
G1 F40.0 X0.25
G2 Y0.5355 I0.0 J0.0355
G1 X2.0
G2 Y0.4645 I0.0 J-0.0355
G1 F20.0 X1.98239 Y0.5305
G1 F40.0 X2.0 Z-0.0231
G2 Y0.4695 Z-0.04 I0.0 J-0.0305
G1 X0.25
G2 Y0.5305 I0.0 J0.0305
G1 X2.0
G2 Y0.4695 I0.0 J-0.0305
G1 F20.0 Y0.4645
G1 F40.0 X0.25
G2 Y0.5355 I0.0 J0.0355
G1 X2.0
G2 Y0.4645 I0.0 J-0.0355
G1 F20.0 X1.98239 Y0.5305
G1 F40.0 X2.0 Z-0.0431
G2 Y0.4695 Z-0.06 I0.0 J-0.0305
G1 X0.25
G2 Y0.5305 I0.0 J0.0305
G1 X2.0
G2 Y0.4695 I0.0 J-0.0305
G1 F20.0 Y0.4645
G1 F40.0 X0.25
G2 Y0.5355 I0.0 J0.0355
G1 X2.0
G2 Y0.4645 I0.0 J-0.0355
G1 F20.0 X1.98239 Y0.5305
G1 F40.0 X2.0 Z-0.0631
G2 Y0.4695 Z-0.08 I0.0 J-0.0305
G1 X0.25
G2 Y0.5305 I0.0 J0.0305
G1 X2.0
G2 Y0.4695 I0.0 J-0.0305
G1 F20.0 Y0.4645
G1 F40.0 X0.25
G2 Y0.5355 I0.0 J0.0355
G1 X2.0
G2 Y0.4645 I0.0 J-0.0355
G1 F20.0 X1.98239 Y0.5305
G1 F40.0 X2.0 Z-0.0831
G2 Y0.4695 Z-0.1 I0.0 J-0.0305
G1 X0.25
G2 Y0.5305 I0.0 J0.0305
G1 X2.0
G2 Y0.4695 I0.0 J-0.0305
G1 F20.0 Y0.4645
G1 F40.0 X0.25
G2 Y0.5355 I0.0 J0.0355
G1 X2.0
G2 Y0.4645 I0.0 J-0.0355
G1 F20.0 X1.98239 Y0.5305
G1 F40.0 X2.0 Z-0.1031
G2 Y0.4695 Z-0.12 I0.0 J-0.0305
G1 X0.25
G2 Y0.5305 I0.0 J0.0305
G1 X2.0
G2 Y0.4695 I0.0 J-0.0305
G1 F20.0 Y0.4645
G1 F40.0 X0.25
G2 Y0.5355 I0.0 J0.0355
G1 X2.0
G2 Y0.4645 I0.0 J-0.0355
G1 F20.0 X1.98239 Y0.5305
G1 F40.0 X2.0 Z-0.1231
G2 Y0.4695 Z-0.14 I0.0 J-0.0305
G1 X0.25
G2 Y0.5305 I0.0 J0.0305
G1 X2.0
G2 Y0.4695 I0.0 J-0.0305
G1 F20.0 Y0.4645
G1 F40.0 X0.25
G2 Y0.5355 I0.0 J0.0355
G1 X2.0
G2 Y0.4645 I0.0 J-0.0355
G1 F20.0 X1.98239 Y0.5305
G1 F40.0 X2.0 Z-0.1431
G2 Y0.4695 Z-0.16 I0.0 J-0.0305
G1 X0.25
G2 Y0.5305 I0.0 J0.0305
G1 X2.0
G2 Y0.4695 I0.0 J-0.0305
G1 F20.0 Y0.4645
G1 F40.0 X0.25
G2 Y0.5355 I0.0 J0.0355
G1 X2.0
G2 Y0.4645 I0.0 J-0.0355
G1 F20.0 X1.98239 Y0.5305
G1 F40.0 X2.0 Z-0.1631
G2 Y0.4695 Z-0.18 I0.0 J-0.0305
G1 X0.25
G2 Y0.5305 I0.0 J0.0305
G1 X2.0
G2 Y0.4695 I0.0 J-0.0305
G1 F20.0 Y0.4645
G1 F40.0 X0.25
G2 Y0.5355 I0.0 J0.0355
G1 X2.0
G2 Y0.4645 I0.0 J-0.0355
G1 F20.0 X2.01053 Y0.52863
G2 F40.0 X2.0 Y0.4695 Z-0.195 I-0.01053 J-0.02863
G1 X0.25
G2 Y0.5305 I0.0 J0.0305
G1 X2.0
G2 Y0.4695 I0.0 J-0.0305
G1 F20.0 Y0.4645
G1 F40.0 X0.25
G2 Y0.5355 I0.0 J0.0355
G1 X2.0
G2 Y0.4645 I0.0 J-0.0355
G1 F20.0 X2.02444 Y0.48176
G2 F40.0 X2.0 Y0.4695 Z-0.2 I-0.02444 J0.01824
G1 X0.25
G2 Y0.5305 I0.0 J0.0305
G1 X2.0
G2 Y0.4695 I0.0 J-0.0305
G1 F20.0 Y0.4645
G1 F40.0 X0.25
G2 Y0.5355 I0.0 J0.0355
G1 X2.0
G2 Y0.4645 I0.0 J-0.0355
G0 Z0.25
G0 X3.0666 Y0.4695
G1 F20.0 Z0.0
G1 F40.0 X3.0 Z-0.01174
G2 X2.96952 Y0.49892 Z-0.02 I0.0 J0.0305
G2 X3.0 Y0.5305 I0.03048 J0.00108
G1 X4.75
G2 Y0.4695 I0.0 J-0.0305
G1 X3.0
G2 X2.96952 Y0.49892 I0.0 J0.0305
G1 F20.0 X2.96452 Y0.49874
G2 F40.0 X3.0 Y0.5355 I0.03548 J0.00126
G1 X4.75
G2 Y0.4645 I0.0 J-0.0355
G1 X3.0
G2 X2.96452 Y0.49874 I0.0 J0.0355
G0 Z0.25
G0 X3.0666 Y0.4695
G1 F20.0 Z-0.02
G1 F40.0 X3.0 Z-0.03174
G2 X2.96952 Y0.49892 Z-0.04 I0.0 J0.0305
G2 X3.0 Y0.5305 I0.03048 J0.00108
G1 X4.75
G2 Y0.4695 I0.0 J-0.0305
G1 X3.0
G2 X2.96952 Y0.49892 I0.0 J0.0305
G1 F20.0 X2.96452 Y0.49874
G2 F40.0 X3.0 Y0.5355 I0.03548 J0.00126
G1 X4.75
G2 Y0.4645 I0.0 J-0.0355
G1 X3.0
G2 X2.96452 Y0.49874 I0.0 J0.0355
G0 Z0.25
G0 X3.0666 Y0.4695
G1 F20.0 Z-0.04
G1 F40.0 X3.0 Z-0.05174
G2 X2.96952 Y0.49892 Z-0.06 I0.0 J0.0305
G2 X3.0 Y0.5305 I0.03048 J0.00108
G1 X4.75
G2 Y0.4695 I0.0 J-0.0305
G1 X3.0
G2 X2.96952 Y0.49892 I0.0 J0.0305
G1 F20.0 X2.96452 Y0.49874
G2 F40.0 X3.0 Y0.5355 I0.03548 J0.00126
G1 X4.75
G2 Y0.4645 I0.0 J-0.0355
G1 X3.0
G2 X2.96452 Y0.49874 I0.0 J0.0355
G0 Z0.25
G0 X3.0666 Y0.4695
G1 F20.0 Z-0.06
G1 F40.0 X3.0 Z-0.07174
G2 X2.96952 Y0.49892 Z-0.08 I0.0 J0.0305
G2 X3.0 Y0.5305 I0.03048 J0.00108
G1 X4.75
G2 Y0.4695 I0.0 J-0.0305
G1 X3.0
G2 X2.96952 Y0.49892 I0.0 J0.0305
G1 F20.0 X2.96452 Y0.49874
G2 F40.0 X3.0 Y0.5355 I0.03548 J0.00126
G1 X4.75
G2 Y0.4645 I0.0 J-0.0355
G1 X3.0
G2 X2.96452 Y0.49874 I0.0 J0.0355
G0 Z0.25
G0 X3.0666 Y0.4695
G1 F20.0 Z-0.08
G1 F40.0 X3.0 Z-0.09174
G2 X2.96952 Y0.49892 Z-0.1 I0.0 J0.0305
G2 X3.0 Y0.5305 I0.03048 J0.00108
G1 X4.75
G2 Y0.4695 I0.0 J-0.0305
G1 X3.0
G2 X2.96952 Y0.49892 I0.0 J0.0305
G1 F20.0 X2.96452 Y0.49874
G2 F40.0 X3.0 Y0.5355 I0.03548 J0.00126
G1 X4.75
G2 Y0.4645 I0.0 J-0.0355
G1 X3.0
G2 X2.96452 Y0.49874 I0.0 J0.0355
G0 Z0.25
G0 X3.0666 Y0.4695
G1 F20.0 Z-0.1
G1 F40.0 X3.0 Z-0.11174
G2 X2.96952 Y0.49892 Z-0.12 I0.0 J0.0305
G2 X3.0 Y0.5305 I0.03048 J0.00108
G1 X4.75
G2 Y0.4695 I0.0 J-0.0305
G1 X3.0
G2 X2.96952 Y0.49892 I0.0 J0.0305
G1 F20.0 X2.96452 Y0.49874
G2 F40.0 X3.0 Y0.5355 I0.03548 J0.00126
G1 X4.75
G2 Y0.4645 I0.0 J-0.0355
G1 X3.0
G2 X2.96452 Y0.49874 I0.0 J0.0355
G0 Z0.25
G0 X3.0666 Y0.4695
G1 F20.0 Z-0.12
G1 F40.0 X3.0 Z-0.13174
G2 X2.96952 Y0.49892 Z-0.14 I0.0 J0.0305
G2 X3.0 Y0.5305 I0.03048 J0.00108
G1 X4.75
G2 Y0.4695 I0.0 J-0.0305
G1 X3.0
G2 X2.96952 Y0.49892 I0.0 J0.0305
G1 F20.0 X2.96452 Y0.49874
G2 F40.0 X3.0 Y0.5355 I0.03548 J0.00126
G1 X4.75
G2 Y0.4645 I0.0 J-0.0355
G1 X3.0
G2 X2.96452 Y0.49874 I0.0 J0.0355
G0 Z0.25
G0 X3.0666 Y0.4695
G1 F20.0 Z-0.14
G1 F40.0 X3.0 Z-0.15174
G2 X2.96952 Y0.49892 Z-0.16 I0.0 J0.0305
G2 X3.0 Y0.5305 I0.03048 J0.00108
G1 X4.75
G2 Y0.4695 I0.0 J-0.0305
G1 X3.0
G2 X2.96952 Y0.49892 I0.0 J0.0305
G1 F20.0 X2.96452 Y0.49874
G2 F40.0 X3.0 Y0.5355 I0.03548 J0.00126
G1 X4.75
G2 Y0.4645 I0.0 J-0.0355
G1 X3.0
G2 X2.96452 Y0.49874 I0.0 J0.0355
G0 Z0.25
G0 X3.0666 Y0.4695
G1 F20.0 Z-0.16
G1 F40.0 X3.0 Z-0.17174
G2 X2.96952 Y0.49892 Z-0.18 I0.0 J0.0305
G2 X3.0 Y0.5305 I0.03048 J0.00108
G1 X4.75
G2 Y0.4695 I0.0 J-0.0305
G1 X3.0
G2 X2.96952 Y0.49892 I0.0 J0.0305
G1 F20.0 X2.96452 Y0.49874
G2 F40.0 X3.0 Y0.5355 I0.03548 J0.00126
G1 X4.75
G2 Y0.4645 I0.0 J-0.0355
G1 X3.0
G2 X2.96452 Y0.49874 I0.0 J0.0355
G1 F20.0 X3.03824 Y0.4695
G1 F40.0 X3.0 Z-0.18674
G2 X2.96952 Y0.49892 Z-0.195 I0.0 J0.0305
G2 X3.0 Y0.5305 I0.03048 J0.00108
G1 X4.75
G2 Y0.4695 I0.0 J-0.0305
G1 X3.0
G2 X2.96952 Y0.49892 I0.0 J0.0305
G1 F20.0 X2.96452 Y0.49874
G2 F40.0 X3.0 Y0.5355 I0.03548 J0.00126
G1 X4.75
G2 Y0.4645 I0.0 J-0.0355
G1 X3.0
G2 X2.96452 Y0.49874 I0.0 J0.0355
G1 F20.0 X2.98264 Y0.47492
G2 F40.0 X2.96952 Y0.49892 Z-0.2 I0.01736 J0.02508
G2 X3.0 Y0.5305 I0.03048 J0.00108
G1 X4.75
G2 Y0.4695 I0.0 J-0.0305
G1 X3.0
G2 X2.96952 Y0.49892 I0.0 J0.0305
G1 F20.0 X2.96452 Y0.49874
G2 F40.0 X3.0 Y0.5355 I0.03548 J0.00126
G1 X4.75
G2 Y0.4645 I0.0 J-0.0355
G1 X3.0
G2 X2.96452 Y0.49874 I0.0 J0.0355
( Clamp Holes )
S2000
G0 Z0.25
G0 X2.1875 Y0.767
G83 Z-0.2 Q0.05 R0.25 F10.0
G83 Y0.233 Z-0.2 Q0.05 R0.25
G83 X2.8125 Z-0.2 Q0.05 R0.25
G83 Y0.767 Z-0.2 Q0.05 R0.25
G80
( Ends )
S2000
G0 X-0.0625 Y0.88657
G1 F20.0 Z0.0
G1 F45.0 Y1.0 Z-0.02
G1 Y0.0
G0 Z0.25
G0 Y0.88657
G1 F20.0 Z-0.02
G1 F45.0 Y1.0 Z-0.04
G1 Y0.0
G0 Z0.25
G0 Y0.88657
G1 F20.0 Z-0.04
G1 F45.0 Y1.0 Z-0.06
G1 Y0.0
G0 Z0.25
G0 Y0.88657
G1 F20.0 Z-0.06
G1 F45.0 Y1.0 Z-0.08
G1 Y0.0
G0 Z0.25
G0 Y0.88657
G1 F20.0 Z-0.08
G1 F45.0 Y1.0 Z-0.1
G1 Y0.0
G0 Z0.25
G0 Y0.88657
G1 F20.0 Z-0.1
G1 F45.0 Y1.0 Z-0.12
G1 Y0.0
G0 Z0.25
G0 Y0.88657
G1 F20.0 Z-0.12
G1 F45.0 Y1.0 Z-0.14
G1 Y0.0
G0 Z0.25
G0 Y0.88657
G1 F20.0 Z-0.14
G1 F45.0 Y1.0 Z-0.16
G1 Y0.0
G0 Z0.25
G0 Y0.88657
G1 F20.0 Z-0.16
G1 F45.0 Y1.0 Z-0.18
G1 Y0.0
G0 Z0.25
G0 Y0.94329
G1 F20.0 Z-0.18
G1 F45.0 Y1.0 Z-0.19
G1 Y0.0
G0 Z0.25
G0 Y0.94329
G1 F20.0 Z-0.19
G1 F45.0 Y1.0 Z-0.2
G1 Y0.0
G0 Z0.25
G0 X5.0625 Y0.11343
G1 F20.0 Z0.0
G1 F45.0 Y0.0 Z-0.02
G1 Y1.0
G0 Z0.25
G0 Y0.11343
G1 F20.0 Z-0.02
G1 F45.0 Y0.0 Z-0.04
G1 Y1.0
G0 Z0.25
G0 Y0.11343
G1 F20.0 Z-0.04
G1 F45.0 Y0.0 Z-0.06
G1 Y1.0
G0 Z0.25
G0 Y0.11343
G1 F20.0 Z-0.06
G1 F45.0 Y0.0 Z-0.08
G1 Y1.0
G0 Z0.25
G0 Y0.11343
G1 F20.0 Z-0.08
G1 F45.0 Y0.0 Z-0.1
G1 Y1.0
G0 Z0.25
G0 Y0.11343
G1 F20.0 Z-0.1
G1 F45.0 Y0.0 Z-0.12
G1 Y1.0
G0 Z0.25
G0 Y0.11343
G1 F20.0 Z-0.12
G1 F45.0 Y0.0 Z-0.14
G1 Y1.0
G0 Z0.25
G0 Y0.11343
G1 F20.0 Z-0.14
G1 F45.0 Y0.0 Z-0.16
G1 Y1.0
G0 Z0.25
G0 Y0.11343
G1 F20.0 Z-0.16
G1 F45.0 Y0.0 Z-0.18
G1 Y1.0
G0 Z0.25
G0 Y0.05671
G1 F20.0 Z-0.18
G1 F45.0 Y0.0 Z-0.19
G1 Y1.0
G0 Z0.25
G0 Y0.05671
G1 F20.0 Z-0.19
G1 F45.0 Y0.0 Z-0.2
G1 Y1.0
G0 Z0.25
M5
M30
