( Made using CamBam - http://www.cambam.co.uk )
( combinedparts 8/1/2010 5:08:24 PM )
( T0 : 0.125 )
G20 G90 G64 G40
G0 Z0.5
( T0 : 0.125 )
T0 M6
( HoleCounterSinks )
G17
M3 S0
G0 X0.95323 Y6.99113
G1 F100.0 Z0.0
G2 F130.0 X0.96205 Y7.06064 Z-0.0468 I0.03082 J0.03141
G2 X1.02805 Y7.02253 Z-0.1 I0.022 J-0.03811
G2 X0.96205 Y6.98443 I-0.044 J0.0
G2 Y7.06064 I0.022 J0.03811
G2 X1.02805 Y7.02253 I0.022 J-0.03811
G1 F100.0 X1.07805
G2 F130.0 X0.93705 Y6.94113 I-0.094 J0.0
G2 Y7.10394 I0.047 J0.08141
G2 X1.07805 Y7.02253 I0.047 J-0.08141
G0 Z0.5
G0 X0.4807 Y6.47866
G1 F100.0 Z0.0
G2 F130.0 X0.46205 Y6.48443 Z-0.01136 I0.00335 J0.04387
G2 Y6.56064 Z-0.06457 I0.022 J0.03811
G2 X0.51771 Y6.55087 Z-0.1 I0.022 J-0.03811
G2 X0.52805 Y6.52253 I-0.03366 J-0.02833
G2 X0.46205 Y6.48443 I-0.044 J0.0
G2 Y6.56064 I0.022 J0.03811
G2 X0.51771 Y6.55087 I0.022 J-0.03811
G1 F100.0 X0.55596 Y6.58307
G2 F130.0 X0.57805 Y6.52253 I-0.07191 J-0.06053
G2 X0.43705 Y6.44113 I-0.094 J0.0
G2 Y6.60394 I0.047 J0.08141
G2 X0.55596 Y6.58307 I0.047 J-0.08141
G0 Z0.5
G0 X0.76409 Y4.84886
G1 F100.0 Z0.0
G2 F130.0 X0.70772 Y4.83823 Z-0.03607 I-0.03437 J0.02748
G2 Y4.91444 Z-0.08928 I0.022 J0.03811
G2 X0.72527 Y4.92011 Z-0.1 I0.022 J-0.03811
G2 X0.77372 Y4.87634 I0.00446 J-0.04377
G2 X0.70772 Y4.83823 I-0.044 J0.0
G2 Y4.91444 I0.022 J0.03811
G2 X0.72527 Y4.92011 I0.022 J-0.03811
G1 F100.0 X0.7202 Y4.96985
G2 F130.0 X0.82372 Y4.87634 I0.00952 J-0.09352
G2 X0.68272 Y4.79493 I-0.094 J0.0
G2 Y4.95774 I0.047 J0.08141
G2 X0.7202 Y4.96985 I0.047 J-0.08141
G0 Z0.5
G0 X0.76122 Y1.59561
G1 F100.0 Z0.0
G2 F130.0 X0.70772 Y1.58823 Z-0.03357 I-0.03149 J0.03073
G2 Y1.66444 Z-0.08677 I0.022 J0.03811
G2 X0.7296 Y1.67034 Z-0.1 I0.022 J-0.03811
G2 X0.77372 Y1.62634 I0.00013 J-0.044
G2 X0.70772 Y1.58823 I-0.044 J0.0
G2 Y1.66444 I0.022 J0.03811
G2 X0.7296 Y1.67034 I0.022 J-0.03811
G1 F100.0 X0.72945 Y1.72034
G2 F130.0 X0.82372 Y1.62634 I0.00027 J-0.094
G2 X0.68272 Y1.54493 I-0.094 J0.0
G2 Y1.70774 I0.047 J0.08141
G2 X0.72945 Y1.72034 I0.047 J-0.08141
G0 Z0.5
G0 X15.76073 Y1.65755
G1 F100.0 Z0.0
G2 F130.0 X15.77372 Y1.62634 Z-0.02003 I-0.03101 J-0.03121
G2 X15.70772 Y1.58823 Z-0.07324 I-0.044 J0.0
G2 X15.68572 Y1.62661 Z-0.1 I0.022 J0.03811
G2 X15.70772 Y1.66444 I0.044 J-0.00028
G2 X15.77372 Y1.62634 I0.022 J-0.03811
G2 X15.70772 Y1.58823 I-0.044 J0.0
G2 X15.68572 Y1.62661 I0.022 J0.03811
G1 F100.0 X15.63572 Y1.62693
G2 F130.0 X15.68272 Y1.70774 I0.094 J-0.00059
G2 X15.82372 Y1.62634 I0.047 J-0.08141
G2 X15.68272 Y1.54493 I-0.094 J0.0
G2 X15.63572 Y1.62693 I0.047 J0.08141
G0 Z0.5
G0 X15.69922 Y4.90805
G1 F100.0 Z0.0
G2 F130.0 X15.70772 Y4.91444 Z-0.00616 I0.0305 J-0.03171
G2 X15.77372 Y4.87634 Z-0.05936 I0.022 J-0.03811
G2 X15.72845 Y4.83236 Z-0.1 I-0.044 J0.0
G2 X15.70772 Y4.83823 I0.00127 J0.04398
G2 Y4.91444 I0.022 J0.03811
G2 X15.77372 Y4.87634 I0.022 J-0.03811
G2 X15.72845 Y4.83236 I-0.044 J0.0
G1 F100.0 X15.727 Y4.78238
G2 F130.0 X15.68272 Y4.79493 I0.00272 J0.09396
G2 Y4.95774 I0.047 J0.08141
G2 X15.82372 Y4.87634 I0.047 J-0.08141
G2 X15.727 Y4.78238 I-0.094 J0.0
G0 Z0.5
G0 X15.95748 Y6.55761
G1 F100.0 Z0.0
G2 F130.0 X15.96205 Y6.56064 Z-0.00317 I0.02657 J-0.03507
G2 X16.02805 Y6.52253 Z-0.05637 I0.022 J-0.03811
G2 X15.97762 Y6.47901 Z-0.1 I-0.044 J0.0
G2 X15.96205 Y6.48443 I0.00643 J0.04353
G2 Y6.56064 I0.022 J0.03811
G2 X16.02805 Y6.52253 I0.022 J-0.03811
G2 X15.97762 Y6.47901 I-0.044 J0.0
G1 F100.0 X15.97031 Y6.42954
G2 F130.0 X15.93705 Y6.44113 I0.01374 J0.09299
G2 Y6.60394 I0.047 J0.08141
G2 X16.07805 Y6.52253 I0.047 J-0.08141
G2 X15.97031 Y6.42954 I-0.094 J0.0
G0 Z0.5
G0 X15.44022 Y7.02645
G1 F100.0 Z0.0
G2 F130.0 X15.46205 Y7.06064 Z-0.02434 I0.04383 J-0.00391
G2 X15.52805 Y7.02253 Z-0.07754 I0.022 J-0.03811
G2 X15.51195 Y6.98851 Z-0.1 I-0.044 J0.0
G2 X15.46205 Y6.98443 I-0.0279 J0.03402
G2 Y7.06064 I0.022 J0.03811
G2 X15.52805 Y7.02253 I0.022 J-0.03811
G2 X15.51195 Y6.98851 I-0.044 J0.0
G1 F100.0 X15.54365 Y6.94985
G2 F130.0 X15.43705 Y6.94113 I-0.0596 J0.07269
G2 Y7.10394 I0.047 J0.08141
G2 X15.57805 Y7.02253 I0.047 J-0.08141
G2 X15.54365 Y6.94985 I-0.094 J0.0
G0 Z0.5
G0 X15.45271 Y7.05342
G1 F100.0 Z-0.1
G2 F130.0 X15.46205 Y7.06064 Z-0.10684 I0.03134 J-0.03088
G2 X15.52805 Y7.02253 Z-0.16004 I0.022 J-0.03811
G2 X15.51195 Y6.98851 Z-0.1825 I-0.044 J0.0
G2 X15.46205 Y6.98443 I-0.0279 J0.03402
G2 Y7.06064 I0.022 J0.03811
G2 X15.52805 Y7.02253 I0.022 J-0.03811
G2 X15.51195 Y6.98851 I-0.044 J0.0
G1 F100.0 X15.54365 Y6.94985
G2 F130.0 X15.43705 Y6.94113 I-0.0596 J0.07269
G2 Y7.10394 I0.047 J0.08141
G2 X15.57805 Y7.02253 I0.047 J-0.08141
G2 X15.54365 Y6.94985 I-0.094 J0.0
G0 Z0.5
G0 X16.01869 Y6.49541
G1 F100.0 Z-0.1
G2 F130.0 X15.96205 Y6.48443 Z-0.13633 I-0.03464 J0.02713
G2 X15.95247 Y6.55317 Z-0.1825 I0.022 J0.03811
G2 X15.96205 Y6.56064 I0.03158 J-0.03064
G2 X16.02805 Y6.52253 I0.022 J-0.03811
G2 X15.96205 Y6.48443 I-0.044 J0.0
G2 X15.95247 Y6.55317 I0.022 J0.03811
G1 F100.0 X15.91659 Y6.58799
G2 F130.0 X15.93705 Y6.60394 I0.06746 J-0.06546
G2 X16.07805 Y6.52253 I0.047 J-0.08141
G2 X15.93705 Y6.44113 I-0.094 J0.0
G2 X15.91659 Y6.58799 I0.047 J0.08141
G0 Z0.5
G0 X15.7296 Y4.83234
G1 F100.0 Z-0.1
G2 F130.0 X15.70772 Y4.83823 Z-0.11323 I0.00012 J0.044
G2 Y4.91444 Z-0.16644 I0.022 J0.03811
G2 X15.7345 Y4.92008 Z-0.1825 I0.022 J-0.03811
G2 X15.77372 Y4.87634 I-0.00478 J-0.04374
G2 X15.70772 Y4.83823 I-0.044 J0.0
G2 Y4.91444 I0.022 J0.03811
G2 X15.7345 Y4.92008 I0.022 J-0.03811
G1 F100.0 X15.73992 Y4.96978
G2 F130.0 X15.82372 Y4.87634 I-0.0102 J-0.09344
G2 X15.68272 Y4.79493 I-0.094 J0.0
G2 Y4.95774 I0.047 J0.08141
G2 X15.73992 Y4.96978 I0.047 J-0.08141
G0 Z0.5
G0 X15.73424 Y1.58257
G1 F100.0 Z-0.1
G2 F130.0 X15.70772 Y1.58823 Z-0.11592 I-0.00452 J0.04377
G2 Y1.66444 Z-0.16912 I0.022 J0.03811
G2 X15.72986 Y1.67034 Z-0.1825 I0.022 J-0.03811
G2 X15.77372 Y1.62634 I-0.00013 J-0.044
G2 X15.70772 Y1.58823 I-0.044 J0.0
G2 Y1.66444 I0.022 J0.03811
G2 X15.72986 Y1.67034 I0.022 J-0.03811
G1 F100.0 X15.73001 Y1.72034
G2 F130.0 X15.82372 Y1.62634 I-0.00029 J-0.094
G2 X15.68272 Y1.54493 I-0.094 J0.0
G2 Y1.70774 I0.047 J0.08141
G2 X15.73001 Y1.72034 I0.047 J-0.08141
G0 Z0.5
G0 X0.686 Y1.62141
G1 F100.0 Z-0.1
G2 F130.0 X0.70772 Y1.66444 Z-0.12945 I0.04372 J0.00493
G2 X0.77372 Y1.62661 Z-0.1825 I0.022 J-0.03811
G2 Y1.62634 I-0.044 J-0.00028
G2 X0.70772 Y1.58823 I-0.044 J0.0
G2 Y1.66444 I0.022 J0.03811
G2 X0.77372 Y1.62661 I0.022 J-0.03811
G1 F100.0 X0.82372 Y1.62693
G2 F130.0 Y1.62634 I-0.094 J-0.00059
G2 X0.68272 Y1.54493 I-0.094 J0.0
G2 Y1.70774 I0.047 J0.08141
G2 X0.82372 Y1.62693 I0.047 J-0.08141
G0 Z0.5
G0 X0.7238 Y4.91994
G1 F100.0 Z-0.1
G2 F130.0 X0.77372 Y4.87634 Z-0.14333 I0.00592 J-0.0436
G2 X0.73099 Y4.83236 Z-0.1825 I-0.044 J0.0
G2 X0.70772 Y4.83823 I-0.00127 J0.04398
G2 Y4.91444 I0.022 J0.03811
G2 X0.77372 Y4.87634 I0.022 J-0.03811
G2 X0.73099 Y4.83236 I-0.044 J0.0
G1 F100.0 X0.73244 Y4.78238
G2 F130.0 X0.68272 Y4.79493 I-0.00272 J0.09396
G2 Y4.95774 I0.047 J0.08141
G2 X0.82372 Y4.87634 I0.047 J-0.08141
G2 X0.73244 Y4.78238 I-0.094 J0.0
G0 Z0.5
G0 X0.47326 Y6.56519
G1 F100.0 Z-0.1
G2 F130.0 X0.52805 Y6.52253 Z-0.1462 I0.01079 J-0.04266
G2 X0.49027 Y6.47898 Z-0.1825 I-0.044 J0.0
G2 X0.46205 Y6.48443 I-0.00622 J0.04356
G2 Y6.56064 I0.022 J0.03811
G2 X0.52805 Y6.52253 I0.022 J-0.03811
G2 X0.49027 Y6.47898 I-0.044 J0.0
G1 F100.0 X0.49733 Y6.42948
G2 F130.0 X0.43705 Y6.44113 I-0.01328 J0.09306
G2 Y6.60394 I0.047 J0.08141
G2 X0.57805 Y6.52253 I0.047 J-0.08141
G2 X0.49733 Y6.42948 I-0.094 J0.0
G0 Z0.5
G0 X1.00821 Y7.05931
G1 F100.0 Z-0.1
G2 F130.0 X1.02805 Y7.02253 Z-0.12514 I-0.02416 J-0.03677
G2 X0.96205 Y6.98443 Z-0.17834 I-0.044 J0.0
G2 X0.95614 Y6.98852 Z-0.1825 I0.022 J0.03811
G2 X0.96205 Y7.06064 I0.02791 J0.03401
G2 X1.02805 Y7.02253 I0.022 J-0.03811
G2 X0.96205 Y6.98443 I-0.044 J0.0
G2 X0.95614 Y6.98852 I0.022 J0.03811
G1 F100.0 X0.92442 Y6.94987
G2 F130.0 X0.93705 Y7.10394 I0.05963 J0.07266
G2 X1.07805 Y7.02253 I0.047 J-0.08141
G2 X0.93705 Y6.94113 I-0.094 J0.0
G2 X0.92442 Y6.94987 I0.047 J0.08141
G1 F100.0 X0.96333 Y6.98372
G2 F130.0 X0.96205 Y6.98443 Z-0.18334 I0.02072 J0.03881
G2 X0.95614 Y6.98852 Z-0.1875 I0.022 J0.03811
G2 X0.96205 Y7.06064 I0.02791 J0.03401
G2 X1.02805 Y7.02253 I0.022 J-0.03811
G2 X0.96205 Y6.98443 I-0.044 J0.0
G2 X0.95614 Y6.98852 I0.022 J0.03811
G1 F100.0 X0.92442 Y6.94987
G2 F130.0 X0.93705 Y7.10394 I0.05963 J0.07266
G2 X1.07805 Y7.02253 I0.047 J-0.08141
G2 X0.93705 Y6.94113 I-0.094 J0.0
G2 X0.92442 Y6.94987 I0.047 J0.08141
G0 Z0.5
G0 X0.50902 Y6.55876
G1 F100.0 Z-0.1825
G2 F130.0 X0.51563 Y6.55318 Z-0.1875 I-0.02497 J-0.03623
G2 X0.52805 Y6.52253 I-0.03158 J-0.03064
G2 X0.46205 Y6.48443 I-0.044 J0.0
G2 Y6.56064 I0.022 J0.03811
G2 X0.51563 Y6.55318 I0.022 J-0.03811
G1 F100.0 X0.55151 Y6.588
G2 F130.0 X0.57805 Y6.52253 I-0.06746 J-0.06546
G2 X0.43705 Y6.44113 I-0.094 J0.0
G2 Y6.60394 I0.047 J0.08141
G2 X0.55151 Y6.588 I0.047 J-0.08141
G0 Z0.5
G0 X0.7167 Y4.91837
G1 F100.0 Z-0.1825
G2 F130.0 X0.72517 Y4.9201 Z-0.1875 I0.01303 J-0.04203
G2 X0.77372 Y4.87634 I0.00456 J-0.04376
G2 X0.70772 Y4.83823 I-0.044 J0.0
G2 Y4.91444 I0.022 J0.03811
G2 X0.72517 Y4.9201 I0.022 J-0.03811
G1 F100.0 X0.71999 Y4.96983
G2 F130.0 X0.82372 Y4.87634 I0.00973 J-0.09349
G2 X0.68272 Y4.79493 I-0.094 J0.0
G2 Y4.95774 I0.047 J0.08141
G2 X0.71999 Y4.96983 I0.047 J-0.08141
G0 Z0.5
G0 X0.72099 Y1.66946
G1 F100.0 Z-0.1825
G2 F130.0 X0.72959 Y1.67034 Z-0.1875 I0.00873 J-0.04313
G2 X0.77372 Y1.62634 I0.00013 J-0.044
G2 X0.70772 Y1.58823 I-0.044 J0.0
G2 Y1.66444 I0.022 J0.03811
G2 X0.72959 Y1.67034 I0.022 J-0.03811
G1 F100.0 X0.72945 Y1.72034
G2 F130.0 X0.82372 Y1.62634 I0.00027 J-0.094
G2 X0.68272 Y1.54493 I-0.094 J0.0
G2 Y1.70774 I0.047 J0.08141
G2 X0.72945 Y1.72034 I0.047 J-0.08141
G0 Z0.5
G0 X15.68652 Y1.618
G1 F100.0 Z-0.1825
G2 F130.0 X15.68572 Y1.62661 Z-0.1875 I0.0432 J0.00833
G2 X15.70772 Y1.66444 I0.044 J-0.00028
G2 X15.77372 Y1.62634 I0.022 J-0.03811
G2 X15.70772 Y1.58823 I-0.044 J0.0
G2 X15.68572 Y1.62661 I0.022 J0.03811
G1 F100.0 X15.63572 Y1.62693
G2 F130.0 X15.68272 Y1.70774 I0.094 J-0.00059
G2 X15.82372 Y1.62634 I0.047 J-0.08141
G2 X15.68272 Y1.54493 I-0.094 J0.0
G2 X15.63572 Y1.62693 I0.047 J0.08141
G0 Z0.5
G0 X15.73708 Y4.83296
G1 F100.0 Z-0.1825
G2 F130.0 X15.72845 Y4.83236 Z-0.1875 I-0.00735 J0.04338
G2 X15.70772 Y4.83823 I0.00127 J0.04398
G2 Y4.91444 I0.022 J0.03811
G2 X15.77372 Y4.87634 I0.022 J-0.03811
G2 X15.72845 Y4.83236 I-0.044 J0.0
G1 F100.0 X15.727 Y4.78238
G2 F130.0 X15.68272 Y4.79493 I0.00272 J0.09396
G2 Y4.95774 I0.047 J0.08141
G2 X15.82372 Y4.87634 I0.047 J-0.08141
G2 X15.727 Y4.78238 I-0.094 J0.0
G0 Z0.5
G0 X15.98626 Y6.47859
G1 F100.0 Z-0.1825
G2 F130.0 X15.97762 Y6.47901 Z-0.1875 I-0.00221 J0.04394
G2 X15.96205 Y6.48443 I0.00643 J0.04353
G2 Y6.56064 I0.022 J0.03811
G2 X16.02805 Y6.52253 I0.022 J-0.03811
G2 X15.97762 Y6.47901 I-0.044 J0.0
G1 F100.0 X15.97031 Y6.42954
G2 F130.0 X15.93705 Y6.44113 I0.01374 J0.09299
G2 Y6.60394 I0.047 J0.08141
G2 X16.07805 Y6.52253 I0.047 J-0.08141
G2 X15.97031 Y6.42954 I-0.094 J0.0
G0 Z0.5
G0 X15.51806 Y6.99462
G1 F100.0 Z-0.1825
G2 F130.0 X15.51195 Y6.98851 Z-0.1875 I-0.03401 J0.02791
G2 X15.46205 Y6.98443 I-0.0279 J0.03402
G2 Y7.06064 I0.022 J0.03811
G2 X15.52805 Y7.02253 I0.022 J-0.03811
G2 X15.51195 Y6.98851 I-0.044 J0.0
G1 F100.0 X15.54365 Y6.94985
G2 F130.0 X15.43705 Y6.94113 I-0.0596 J0.07269
G2 Y7.10394 I0.047 J0.08141
G2 X15.57805 Y7.02253 I0.047 J-0.08141
G2 X15.54365 Y6.94985 I-0.094 J0.0
G0 Z0.5
M5
M30
