( Made using CamBam - http://www.cambam.co.uk )
( combinedparts2 4/20/2011 4:18:58 PM )
( T0 : 0.125 )
G20 G90 G64 G40
G0 Z0.25
( T0 : 0.125 )
T0 M6
( HoleCounterSinks )
G17
M3 S2000
G0 X15.0859 Y1.21915
G1 F75.0 Z0.0
G3 F120.0 X15.08817 Y1.23312 Z-0.00251 I-0.04173 J0.01396
G3 X15.02217 Y1.27122 Z-0.01875 I-0.044 J0.0
G3 Y1.19501 Z-0.035 I0.022 J-0.03811
G3 X15.08817 Y1.23312 Z-0.05125 I0.022 J0.03811
G3 X15.02217 Y1.27122 Z-0.0675 I-0.044 J0.0
G3 Y1.19501 Z-0.08375 I0.022 J-0.03811
G3 X15.08817 Y1.23312 Z-0.1 I0.022 J0.03811
G3 X15.02217 Y1.27122 I-0.044 J0.0
G3 Y1.19501 I0.022 J-0.03811
G3 X15.08817 Y1.23312 I0.022 J0.03811
G1 F75.0 X15.13817
G3 F120.0 X14.99717 Y1.31452 I-0.094 J0.0
G3 Y1.15171 I0.047 J-0.08141
G3 X15.13817 Y1.23312 I0.047 J0.08141
G0 Z0.25
G0 X15.02859 Y1.27427
G1 F75.0 Z-0.1
G3 F120.0 X15.02217 Y1.27122 Z-0.10125 I0.01558 J-0.04115
G3 Y1.19501 Z-0.1175 I0.022 J-0.03811
G3 X15.08817 Y1.23312 Z-0.13375 I0.022 J0.03811
G3 X15.02217 Y1.27122 Z-0.15 I-0.044 J0.0
G3 Y1.19501 Z-0.16625 I0.022 J-0.03811
G3 X15.08817 Y1.23312 Z-0.1825 I0.022 J0.03811
G3 X15.02217 Y1.27122 I-0.044 J0.0
G3 Y1.19501 I0.022 J-0.03811
G3 X15.08817 Y1.23312 I0.022 J0.03811
G1 F75.0 X15.13817
G3 F120.0 X14.99717 Y1.31452 I-0.094 J0.0
G3 Y1.15171 I0.047 J-0.08141
G3 X15.13817 Y1.23312 I0.047 J0.08141
G1 F75.0 X15.07934 Y1.20668
G3 F120.0 X15.08817 Y1.23312 Z-0.1875 I-0.03517 J0.02643
G3 X15.02217 Y1.27122 I-0.044 J0.0
G3 Y1.19501 I0.022 J-0.03811
G3 X15.08817 Y1.23312 I0.022 J0.03811
G1 F75.0 X15.13817
G3 F120.0 X14.99717 Y1.31452 I-0.094 J0.0
G3 Y1.15171 I0.047 J-0.08141
G3 X15.13817 Y1.23312 I0.047 J0.08141
G0 Z0.25
G0 X15.03142 Y4.441
G1 F75.0 Z0.0
G3 F120.0 X15.04544 Y4.43913 Z-0.00251 I0.01275 J0.04211
G3 X15.08817 Y4.48312 Z-0.01447 I-0.00127 J0.04398
G3 X15.02217 Y4.52122 Z-0.03072 I-0.044 J0.0
G3 Y4.44501 Z-0.04697 I0.022 J-0.03811
G3 X15.04544 Y4.43913 Z-0.05125 I0.022 J0.03811
G3 X15.08817 Y4.48312 Z-0.06322 I-0.00127 J0.04398
G3 X15.02217 Y4.52122 Z-0.07946 I-0.044 J0.0
G3 Y4.44501 Z-0.09571 I0.022 J-0.03811
G3 X15.04544 Y4.43913 Z-0.1 I0.022 J0.03811
G3 X15.08817 Y4.48312 I-0.00127 J0.04398
G3 X15.02217 Y4.52122 I-0.044 J0.0
G3 Y4.44501 I0.022 J-0.03811
G3 X15.04544 Y4.43913 I0.022 J0.03811
G1 F75.0 X15.04689 Y4.38915
G3 F120.0 X15.13817 Y4.48312 I-0.00272 J0.09396
G3 X14.99717 Y4.56452 I-0.094 J0.0
G3 Y4.40171 I0.047 J-0.08141
G3 X15.04689 Y4.38915 I0.047 J0.08141
G0 Z0.25
G0 X15.08485 Y4.49988
G1 F75.0 Z-0.1
G3 F120.0 X15.02217 Y4.52122 Z-0.11322 I-0.04068 J-0.01676
G3 Y4.44501 Z-0.12947 I0.022 J-0.03811
G3 X15.04544 Y4.43913 Z-0.13375 I0.022 J0.03811
G3 X15.08817 Y4.48312 Z-0.14572 I-0.00127 J0.04398
G3 X15.02217 Y4.52122 Z-0.16196 I-0.044 J0.0
G3 Y4.44501 Z-0.17821 I0.022 J-0.03811
G3 X15.04544 Y4.43913 Z-0.1825 I0.022 J0.03811
G3 X15.08817 Y4.48312 I-0.00127 J0.04398
G3 X15.02217 Y4.52122 I-0.044 J0.0
G3 Y4.44501 I0.022 J-0.03811
G3 X15.04544 Y4.43913 I0.022 J0.03811
G1 F75.0 X15.04689 Y4.38915
G3 F120.0 X15.13817 Y4.48312 I-0.00272 J0.09396
G3 X14.99717 Y4.56452 I-0.094 J0.0
G3 Y4.40171 I0.047 J-0.08141
G3 X15.04689 Y4.38915 I0.047 J0.08141
G1 F75.0 X15.01876 Y4.44719
G3 F120.0 X15.02217 Y4.44501 Z-0.18321 I0.02541 J0.03592
G3 X15.04544 Y4.43913 Z-0.1875 I0.022 J0.03811
G3 X15.08817 Y4.48312 I-0.00127 J0.04398
G3 X15.02217 Y4.52122 I-0.044 J0.0
G3 Y4.44501 I0.022 J-0.03811
G3 X15.04544 Y4.43913 I0.022 J0.03811
G1 F75.0 X15.04689 Y4.38915
G3 F120.0 X15.13817 Y4.48312 I-0.00272 J0.09396
G3 X14.99717 Y4.56452 I-0.094 J0.0
G3 Y4.40171 I0.047 J-0.08141
G3 X15.04689 Y4.38915 I0.047 J0.08141
G0 Z0.25
G0 X15.28996 Y5.69033
G1 F75.0 Z0.0
G3 F120.0 X15.30322 Y5.68539 Z-0.00251 I0.02179 J0.03822
G3 X15.35575 Y5.72855 Z-0.01621 I0.00854 J0.04316
G3 X15.28975 Y5.76666 Z-0.03246 I-0.044 J0.0
G3 Y5.69045 Z-0.04871 I0.022 J-0.03811
G3 X15.30322 Y5.68539 Z-0.05125 I0.022 J0.03811
G3 X15.35575 Y5.72855 Z-0.06495 I0.00854 J0.04316
G3 X15.28975 Y5.76666 Z-0.0812 I-0.044 J0.0
G3 Y5.69045 Z-0.09745 I0.022 J-0.03811
G3 X15.30322 Y5.68539 Z-0.1 I0.022 J0.03811
G3 X15.35575 Y5.72855 I0.00854 J0.04316
G3 X15.28975 Y5.76666 I-0.044 J0.0
G3 Y5.69045 I0.022 J-0.03811
G3 X15.30322 Y5.68539 I0.022 J0.03811
G1 F75.0 X15.29352 Y5.63634
G3 F120.0 X15.40575 Y5.72855 I0.01824 J0.09221
G3 X15.26475 Y5.80996 I-0.094 J0.0
G3 Y5.64715 I0.047 J-0.08141
G3 X15.29352 Y5.63634 I0.047 J0.08141
G0 Z0.25
G0 X15.35514 Y5.73585
G1 F75.0 Z-0.1
G3 F120.0 X15.28975 Y5.76666 Z-0.11496 I-0.04339 J-0.0073
G3 Y5.69045 Z-0.13121 I0.022 J-0.03811
G3 X15.30322 Y5.68539 Z-0.13375 I0.022 J0.03811
G3 X15.35575 Y5.72855 Z-0.14745 I0.00854 J0.04316
G3 X15.28975 Y5.76666 Z-0.1637 I-0.044 J0.0
G3 Y5.69045 Z-0.17995 I0.022 J-0.03811
G3 X15.30322 Y5.68539 Z-0.1825 I0.022 J0.03811
G3 X15.35575 Y5.72855 I0.00854 J0.04316
G3 X15.28975 Y5.76666 I-0.044 J0.0
G3 Y5.69045 I0.022 J-0.03811
G3 X15.30322 Y5.68539 I0.022 J0.03811
G1 F75.0 X15.29352 Y5.63634
G3 F120.0 X15.40575 Y5.72855 I0.01824 J0.09221
G3 X15.26475 Y5.80996 I-0.094 J0.0
G3 Y5.64715 I0.047 J-0.08141
G3 X15.29352 Y5.63634 I0.047 J0.08141
G1 F75.0 X15.279 Y5.69917
G3 F120.0 X15.28975 Y5.69045 Z-0.18495 I0.03276 J0.02938
G3 X15.30322 Y5.68539 Z-0.1875 I0.022 J0.03811
G3 X15.35575 Y5.72855 I0.00854 J0.04316
G3 X15.28975 Y5.76666 I-0.044 J0.0
G3 Y5.69045 I0.022 J-0.03811
G3 X15.30322 Y5.68539 I0.022 J0.03811
G1 F75.0 X15.29352 Y5.63634
G3 F120.0 X15.40575 Y5.72855 I0.01824 J0.09221
G3 X15.26475 Y5.80996 I-0.094 J0.0
G3 Y5.64715 I0.047 J-0.08141
G3 X15.29352 Y5.63634 I0.047 J0.08141
G0 Z0.25
G0 X14.82726 Y6.18737
G1 F75.0 Z0.0
G3 F120.0 X14.83952 Y6.19442 Z-0.00251 I-0.0155 J0.04118
G3 X14.85575 Y6.22855 Z-0.00939 I-0.02777 J0.03413
G3 X14.78975 Y6.26666 Z-0.02564 I-0.044 J0.0
G3 Y6.19045 Z-0.04189 I0.022 J-0.03811
G3 X14.83952 Y6.19442 Z-0.05125 I0.022 J0.03811
G3 X14.85575 Y6.22855 Z-0.05814 I-0.02777 J0.03413
G3 X14.78975 Y6.26666 Z-0.07439 I-0.044 J0.0
G3 Y6.19045 Z-0.09064 I0.022 J-0.03811
G3 X14.83952 Y6.19442 Z-0.1 I0.022 J0.03811
G3 X14.85575 Y6.22855 I-0.02777 J0.03413
G3 X14.78975 Y6.26666 I-0.044 J0.0
G3 Y6.19045 I0.022 J-0.03811
G3 X14.83952 Y6.19442 I0.022 J0.03811
G1 F75.0 X14.87107 Y6.15563
G3 F120.0 X14.90575 Y6.22855 I-0.05932 J0.07292
G3 X14.76475 Y6.30996 I-0.094 J0.0
G3 Y6.14715 I0.047 J-0.08141
G3 X14.87107 Y6.15563 I0.047 J0.08141
G0 Z0.25
G0 X14.83384 Y6.26661
G1 F75.0 Z-0.1
G3 F120.0 X14.78975 Y6.26666 Z-0.10814 I-0.02209 J-0.03805
G3 Y6.19045 Z-0.12439 I0.022 J-0.03811
G3 X14.83952 Y6.19442 Z-0.13375 I0.022 J0.03811
G3 X14.85575 Y6.22855 Z-0.14064 I-0.02777 J0.03413
G3 X14.78975 Y6.26666 Z-0.15689 I-0.044 J0.0
G3 Y6.19045 Z-0.17314 I0.022 J-0.03811
G3 X14.83952 Y6.19442 Z-0.1825 I0.022 J0.03811
G3 X14.85575 Y6.22855 I-0.02777 J0.03413
G3 X14.78975 Y6.26666 I-0.044 J0.0
G3 Y6.19045 I0.022 J-0.03811
G3 X14.83952 Y6.19442 I0.022 J0.03811
G1 F75.0 X14.87107 Y6.15563
G3 F120.0 X14.90575 Y6.22855 I-0.05932 J0.07292
G3 X14.76475 Y6.30996 I-0.094 J0.0
G3 Y6.14715 I0.047 J-0.08141
G3 X14.87107 Y6.15563 I0.047 J0.08141
G1 F75.0 X14.81345 Y6.18458
G3 F120.0 X14.83952 Y6.19442 Z-0.1875 I-0.00169 J0.04397
G3 X14.85575 Y6.22855 I-0.02777 J0.03413
G3 X14.78975 Y6.26666 I-0.044 J0.0
G3 Y6.19045 I0.022 J-0.03811
G3 X14.83952 Y6.19442 I0.022 J0.03811
G1 F75.0 X14.87107 Y6.15563
G3 F120.0 X14.90575 Y6.22855 I-0.05932 J0.07292
G3 X14.76475 Y6.30996 I-0.094 J0.0
G3 Y6.14715 I0.047 J-0.08141
G3 X14.87107 Y6.15563 I0.047 J0.08141
G0 Z0.25
G0 X0.82291 Y6.21437
G1 F75.0 Z0.0
G3 F120.0 X0.82525 Y6.22832 Z-0.00251 I-0.04165 J0.01418
G1 Y6.22855 Z-0.00255
G3 X0.75925 Y6.26666 Z-0.01879 I-0.044 J0.0
G3 Y6.19045 Z-0.03504 I0.022 J-0.03811
G3 X0.82525 Y6.22832 Z-0.05125 I0.022 J0.03811
G1 Y6.22855 Z-0.05129
G3 X0.75925 Y6.26666 Z-0.06754 I-0.044 J0.0
G3 Y6.19045 Z-0.08379 I0.022 J-0.03811
G3 X0.82525 Y6.22832 Z-0.1 I0.022 J0.03811
G3 Y6.22855 I-0.044 J0.00023
G3 X0.75925 Y6.26666 I-0.044 J0.0
G3 Y6.19045 I0.022 J-0.03811
G3 X0.82525 Y6.22832 I0.022 J0.03811
G1 F75.0 X0.87525 Y6.22807
G3 F120.0 Y6.22855 I-0.094 J0.00049
G3 X0.73425 Y6.30996 I-0.094 J0.0
G3 Y6.14715 I0.047 J-0.08141
G3 X0.87525 Y6.22807 I0.047 J0.08141
G0 Z0.25
G0 X0.76589 Y6.26978
G1 F75.0 Z-0.1
G3 F120.0 X0.75925 Y6.26666 Z-0.10129 I0.01537 J-0.04123
G3 Y6.19045 Z-0.11754 I0.022 J-0.03811
G3 X0.82525 Y6.22832 Z-0.13375 I0.022 J0.03811
G1 Y6.22855 Z-0.13379
G3 X0.75925 Y6.26666 Z-0.15004 I-0.044 J0.0
G3 Y6.19045 Z-0.16629 I0.022 J-0.03811
G3 X0.82525 Y6.22832 Z-0.1825 I0.022 J0.03811
G3 Y6.22855 I-0.044 J0.00023
G3 X0.75925 Y6.26666 I-0.044 J0.0
G3 Y6.19045 I0.022 J-0.03811
G3 X0.82525 Y6.22832 I0.022 J0.03811
G1 F75.0 X0.87525 Y6.22807
G3 F120.0 Y6.22855 I-0.094 J0.00049
G3 X0.73425 Y6.30996 I-0.094 J0.0
G3 Y6.14715 I0.047 J-0.08141
G3 X0.87525 Y6.22807 I0.047 J0.08141
G1 F75.0 X0.81629 Y6.20194
G3 F120.0 X0.82525 Y6.22832 Z-0.1875 I-0.03504 J0.02662
G3 Y6.22855 I-0.044 J0.00023
G3 X0.75925 Y6.26666 I-0.044 J0.0
G3 Y6.19045 I0.022 J-0.03811
G3 X0.82525 Y6.22832 I0.022 J0.03811
G1 F75.0 X0.87525 Y6.22807
G3 F120.0 Y6.22855 I-0.094 J0.00049
G3 X0.73425 Y6.30996 I-0.094 J0.0
G3 Y6.14715 I0.047 J-0.08141
G3 X0.87525 Y6.22807 I0.047 J0.08141
G0 Z0.25
G0 X0.32218 Y5.74472
G1 F75.0 Z0.0
G3 F120.0 X0.31493 Y5.75687 Z-0.00251 I-0.04092 J-0.01617
G3 X0.25925 Y5.76666 Z-0.01333 I-0.03368 J-0.02832
G3 Y5.69045 Z-0.02958 I0.022 J-0.03811
G3 X0.32525 Y5.72855 Z-0.04583 I0.022 J0.03811
G3 X0.31493 Y5.75687 Z-0.05125 I-0.044 J0.0
G3 X0.25925 Y5.76666 Z-0.06208 I-0.03368 J-0.02832
G3 Y5.69045 Z-0.07833 I0.022 J-0.03811
G3 X0.32525 Y5.72855 Z-0.09458 I0.022 J0.03811
G3 X0.31493 Y5.75687 Z-0.1 I-0.044 J0.0
G3 X0.25925 Y5.76666 I-0.03368 J-0.02832
G3 Y5.69045 I0.022 J-0.03811
G3 X0.32525 Y5.72855 I0.022 J0.03811
G3 X0.31493 Y5.75687 I-0.044 J0.0
G1 F75.0 X0.3532 Y5.78905
G3 F120.0 X0.23425 Y5.80996 I-0.07194 J-0.0605
G3 Y5.64715 I0.047 J-0.08141
G3 X0.37525 Y5.72855 I0.047 J0.08141
G3 X0.3532 Y5.78905 I-0.094 J0.0
G0 Z0.25
G0 X0.24285 Y5.75002
G1 F75.0 Z-0.1
G3 F120.0 X0.25925 Y5.69045 Z-0.11208 I0.03841 J-0.02147
G3 X0.32525 Y5.72855 Z-0.12833 I0.022 J0.03811
G3 X0.31493 Y5.75687 Z-0.13375 I-0.044 J0.0
G3 X0.25925 Y5.76666 Z-0.14458 I-0.03368 J-0.02832
G3 Y5.69045 Z-0.16083 I0.022 J-0.03811
G3 X0.32525 Y5.72855 Z-0.17708 I0.022 J0.03811
G3 X0.31493 Y5.75687 Z-0.1825 I-0.044 J0.0
G3 X0.25925 Y5.76666 I-0.03368 J-0.02832
G3 Y5.69045 I0.022 J-0.03811
G3 X0.32525 Y5.72855 I0.022 J0.03811
G3 X0.31493 Y5.75687 I-0.044 J0.0
G1 F75.0 X0.3532 Y5.78905
G3 F120.0 X0.23425 Y5.80996 I-0.07194 J-0.0605
G3 Y5.64715 I0.047 J-0.08141
G3 X0.37525 Y5.72855 I0.047 J0.08141
G3 X0.3532 Y5.78905 I-0.094 J0.0
G1 F75.0 X0.32519 Y5.73096
G3 F120.0 X0.31493 Y5.75687 Z-0.1875 I-0.04393 J-0.00241
G3 X0.25925 Y5.76666 I-0.03368 J-0.02832
G3 Y5.69045 I0.022 J-0.03811
G3 X0.32525 Y5.72855 I0.022 J0.03811
G3 X0.31493 Y5.75687 I-0.044 J0.0
G1 F75.0 X0.3532 Y5.78905
G3 F120.0 X0.23425 Y5.80996 I-0.07194 J-0.0605
G3 Y5.64715 I0.047 J-0.08141
G3 X0.37525 Y5.72855 I0.047 J0.08141
G3 X0.3532 Y5.78905 I-0.094 J0.0
G0 Z0.25
G0 X0.52171 Y4.52623
G1 F75.0 Z0.0
G3 F120.0 X0.50758 Y4.52679 Z-0.00251 I-0.00879 J-0.04311
G3 X0.49092 Y4.52122 Z-0.00562 I0.00534 J-0.04367
G3 Y4.44501 Z-0.02187 I0.022 J-0.03811
G3 X0.55692 Y4.48312 Z-0.03812 I0.022 J0.03811
G3 X0.50758 Y4.52679 Z-0.05125 I-0.044 J0.0
G3 X0.49092 Y4.52122 Z-0.05437 I0.00534 J-0.04367
G3 Y4.44501 Z-0.07062 I0.022 J-0.03811
G3 X0.55692 Y4.48312 Z-0.08687 I0.022 J0.03811
G3 X0.50758 Y4.52679 Z-0.1 I-0.044 J0.0
G3 X0.49092 Y4.52122 I0.00534 J-0.04367
G3 Y4.44501 I0.022 J-0.03811
G3 X0.55692 Y4.48312 I0.022 J0.03811
G3 X0.50758 Y4.52679 I-0.044 J0.0
G1 F75.0 X0.50151 Y4.57642
G3 F120.0 X0.46592 Y4.56452 I0.01141 J-0.0933
G3 Y4.40171 I0.047 J-0.08141
G3 X0.60692 Y4.48312 I0.047 J0.08141
G3 X0.50151 Y4.57642 I-0.094 J0.0
G0 Z0.25
G0 X0.47397 Y4.46266
G1 F75.0 Z-0.1
G3 F120.0 X0.49092 Y4.44501 Z-0.10437 I0.03895 J0.02046
G3 X0.55692 Y4.48312 Z-0.12062 I0.022 J0.03811
G3 X0.50758 Y4.52679 Z-0.13375 I-0.044 J0.0
G3 X0.49092 Y4.52122 Z-0.13687 I0.00534 J-0.04367
G3 Y4.44501 Z-0.15312 I0.022 J-0.03811
G3 X0.55692 Y4.48312 Z-0.16937 I0.022 J0.03811
G3 X0.50758 Y4.52679 Z-0.1825 I-0.044 J0.0
G3 X0.49092 Y4.52122 I0.00534 J-0.04367
G3 Y4.44501 I0.022 J-0.03811
G3 X0.55692 Y4.48312 I0.022 J0.03811
G3 X0.50758 Y4.52679 I-0.044 J0.0
G1 F75.0 X0.50151 Y4.57642
G3 F120.0 X0.46592 Y4.56452 I0.01141 J-0.0933
G3 Y4.40171 I0.047 J-0.08141
G3 X0.60692 Y4.48312 I0.047 J0.08141
G3 X0.50151 Y4.57642 I-0.094 J0.0
G1 F75.0 X0.53489 Y4.52124
G3 F120.0 X0.50758 Y4.52679 Z-0.1875 I-0.02197 J-0.03812
G3 X0.49092 Y4.52122 I0.00534 J-0.04367
G3 Y4.44501 I0.022 J-0.03811
G3 X0.55692 Y4.48312 I0.022 J0.03811
G3 X0.50758 Y4.52679 I-0.044 J0.0
G1 F75.0 X0.50151 Y4.57642
G3 F120.0 X0.46592 Y4.56452 I0.01141 J-0.0933
G3 Y4.40171 I0.047 J-0.08141
G3 X0.60692 Y4.48312 I0.047 J0.08141
G3 X0.50151 Y4.57642 I-0.094 J0.0
G0 Z0.25
G0 X0.52674 Y1.27489
G1 F75.0 Z0.0
G3 F120.0 X0.51277 Y1.27712 Z-0.00251 I-0.01382 J-0.04177
G3 X0.49092 Y1.27122 Z-0.00654 I0.00015 J-0.044
G3 Y1.19501 Z-0.02279 I0.022 J-0.03811
G3 X0.55692 Y1.23312 Z-0.03904 I0.022 J0.03811
G3 X0.51277 Y1.27712 Z-0.05125 I-0.044 J0.0
G3 X0.49092 Y1.27122 Z-0.05529 I0.00015 J-0.044
G3 Y1.19501 Z-0.07154 I0.022 J-0.03811
G3 X0.55692 Y1.23312 Z-0.08779 I0.022 J0.03811
G3 X0.51277 Y1.27712 Z-0.1 I-0.044 J0.0
G3 X0.49092 Y1.27122 I0.00015 J-0.044
G3 Y1.19501 I0.022 J-0.03811
G3 X0.55692 Y1.23312 I0.022 J0.03811
G3 X0.51277 Y1.27712 I-0.044 J0.0
G1 F75.0 X0.5126 Y1.32712
G3 F120.0 X0.46592 Y1.31452 I0.00032 J-0.094
G3 Y1.15171 I0.047 J-0.08141
G3 X0.60692 Y1.23312 I0.047 J0.08141
G3 X0.5126 Y1.32712 I-0.094 J0.0
G0 Z0.25
G0 X0.47182 Y1.2174
G1 F75.0 Z-0.1
G3 F120.0 X0.49092 Y1.19501 Z-0.10529 I0.0411 J0.01572
G3 X0.55692 Y1.23312 Z-0.12154 I0.022 J0.03811
G3 X0.51277 Y1.27712 Z-0.13375 I-0.044 J0.0
G3 X0.49092 Y1.27122 Z-0.13779 I0.00015 J-0.044
G3 Y1.19501 Z-0.15404 I0.022 J-0.03811
G3 X0.55692 Y1.23312 Z-0.17029 I0.022 J0.03811
G3 X0.51277 Y1.27712 Z-0.1825 I-0.044 J0.0
G3 X0.49092 Y1.27122 I0.00015 J-0.044
G3 Y1.19501 I0.022 J-0.03811
G3 X0.55692 Y1.23312 I0.022 J0.03811
G3 X0.51277 Y1.27712 I-0.044 J0.0
G1 F75.0 X0.5126 Y1.32712
G3 F120.0 X0.46592 Y1.31452 I0.00032 J-0.094
G3 Y1.15171 I0.047 J-0.08141
G3 X0.60692 Y1.23312 I0.047 J0.08141
G3 X0.5126 Y1.32712 I-0.094 J0.0
G1 F75.0 X0.53923 Y1.26838
G3 F120.0 X0.51277 Y1.27712 Z-0.1875 I-0.02631 J-0.03526
G3 X0.49092 Y1.27122 I0.00015 J-0.044
G3 Y1.19501 I0.022 J-0.03811
G3 X0.55692 Y1.23312 I0.022 J0.03811
G3 X0.51277 Y1.27712 I-0.044 J0.0
G1 F75.0 X0.5126 Y1.32712
G3 F120.0 X0.46592 Y1.31452 I0.00032 J-0.094
G3 Y1.15171 I0.047 J-0.08141
G3 X0.60692 Y1.23312 I0.047 J0.08141
G3 X0.5126 Y1.32712 I-0.094 J0.0
( HolesThru )
S2000
G0 Z0.25
G0 X0.76204 Y6.24454
G1 F75.0 Z0.0
G3 F120.0 X0.76875 Y6.2069 Z-0.00768 I0.01922 J-0.01599
G3 X0.80625 Y6.22855 Z-0.01691 I0.0125 J0.02165
G3 X0.76875 Y6.2502 Z-0.02614 I-0.025 J0.0
G3 Y6.2069 Z-0.03537 I0.0125 J-0.02165
G3 X0.80625 Y6.22855 Z-0.04461 I0.0125 J0.02165
G3 X0.76875 Y6.2502 Z-0.05384 I-0.025 J0.0
G3 Y6.2069 Z-0.06307 I0.0125 J-0.02165
G3 X0.80625 Y6.22855 Z-0.0723 I0.0125 J0.02165
G3 X0.76875 Y6.2502 Z-0.08154 I-0.025 J0.0
G3 Y6.2069 Z-0.09077 I0.0125 J-0.02165
G3 X0.80625 Y6.22855 Z-0.1 I0.0125 J0.02165
G3 X0.76875 Y6.2502 I-0.025 J0.0
G3 Y6.2069 I0.0125 J-0.02165
G3 X0.80625 Y6.22855 I0.0125 J0.02165
G1 F75.0 X0.76204 Y6.24454
G3 F120.0 X0.76875 Y6.2069 Z-0.10768 I0.01922 J-0.01599
G3 X0.80625 Y6.22855 Z-0.11691 I0.0125 J0.02165
G3 X0.76875 Y6.2502 Z-0.12614 I-0.025 J0.0
G3 Y6.2069 Z-0.13537 I0.0125 J-0.02165
G3 X0.80625 Y6.22855 Z-0.14461 I0.0125 J0.02165
G3 X0.76875 Y6.2502 Z-0.15384 I-0.025 J0.0
G3 Y6.2069 Z-0.16307 I0.0125 J-0.02165
G3 X0.80625 Y6.22855 Z-0.1723 I0.0125 J0.02165
G3 X0.76875 Y6.2502 Z-0.18154 I-0.025 J0.0
G3 Y6.2069 Z-0.19077 I0.0125 J-0.02165
G3 X0.80625 Y6.22855 Z-0.2 I0.0125 J0.02165
G3 X0.76875 Y6.2502 I-0.025 J0.0
G3 Y6.2069 I0.0125 J-0.02165
G3 X0.80625 Y6.22855 I0.0125 J0.02165
G1 F75.0 X0.76204 Y6.24454
G3 F120.0 X0.76875 Y6.2069 Z-0.20768 I0.01922 J-0.01599
G3 X0.80625 Y6.22855 Z-0.21691 I0.0125 J0.02165
G3 X0.76875 Y6.2502 Z-0.22614 I-0.025 J0.0
G3 Y6.2069 Z-0.23537 I0.0125 J-0.02165
G3 X0.80625 Y6.22855 Z-0.24461 I0.0125 J0.02165
G3 X0.76875 Y6.2502 Z-0.25384 I-0.025 J0.0
G3 Y6.2069 Z-0.26307 I0.0125 J-0.02165
G3 X0.80625 Y6.22855 Z-0.2723 I0.0125 J0.02165
G3 X0.76875 Y6.2502 Z-0.28154 I-0.025 J0.0
G3 Y6.2069 Z-0.29077 I0.0125 J-0.02165
G3 X0.80625 Y6.22855 Z-0.3 I0.0125 J0.02165
G3 X0.76875 Y6.2502 I-0.025 J0.0
G3 Y6.2069 I0.0125 J-0.02165
G3 X0.80625 Y6.22855 I0.0125 J0.02165
G1 F75.0 X0.75778 Y6.21996
G3 F120.0 X0.76875 Y6.2069 Z-0.30307 I0.02348 J0.00859
G3 X0.80625 Y6.22855 Z-0.3123 I0.0125 J0.02165
G3 X0.76875 Y6.2502 Z-0.32154 I-0.025 J0.0
G3 Y6.2069 Z-0.33077 I0.0125 J-0.02165
G3 X0.80625 Y6.22855 Z-0.34 I0.0125 J0.02165
G3 X0.76875 Y6.2502 I-0.025 J0.0
G3 Y6.2069 I0.0125 J-0.02165
G3 X0.80625 Y6.22855 I0.0125 J0.02165
G1 F75.0 X0.78976 Y6.25206
G3 F120.0 X0.76875 Y6.2502 Z-0.34384 I-0.0085 J-0.02351
G3 Y6.2069 Z-0.35307 I0.0125 J-0.02165
G3 X0.80625 Y6.22855 Z-0.3623 I0.0125 J0.02165
G3 X0.76875 Y6.2502 Z-0.37154 I-0.025 J0.0
G3 Y6.2069 Z-0.38077 I0.0125 J-0.02165
G3 X0.80625 Y6.22855 Z-0.39 I0.0125 J0.02165
G3 X0.76875 Y6.2502 I-0.025 J0.0
G3 Y6.2069 I0.0125 J-0.02165
G3 X0.80625 Y6.22855 I0.0125 J0.02165
G1 F75.0 X0.81625
G3 F120.0 X0.76375 Y6.25886 I-0.035 J0.0
G3 Y6.19824 I0.0175 J-0.03031
G3 X0.81625 Y6.22855 I0.0175 J0.03031
G0 Z0.25
G0 X0.2563 Y5.72711
G1 F75.0 Z0.0
G3 F120.0 X0.26875 Y5.7069 Z-0.00436 I0.02496 J0.00144
G3 X0.30625 Y5.72855 Z-0.01359 I0.0125 J0.02165
G3 X0.29952 Y5.74562 Z-0.01691 I-0.025 J0.0
G3 X0.26875 Y5.7502 Z-0.02283 I-0.01827 J-0.01707
G3 Y5.7069 Z-0.03206 I0.0125 J-0.02165
G3 X0.30625 Y5.72855 Z-0.04129 I0.0125 J0.02165
G3 X0.29952 Y5.74562 Z-0.04461 I-0.025 J0.0
G3 X0.26875 Y5.7502 Z-0.05052 I-0.01827 J-0.01707
G3 Y5.7069 Z-0.05976 I0.0125 J-0.02165
G3 X0.30625 Y5.72855 Z-0.06899 I0.0125 J0.02165
G3 X0.29952 Y5.74562 Z-0.0723 I-0.025 J0.0
G3 X0.26875 Y5.7502 Z-0.07822 I-0.01827 J-0.01707
G3 Y5.7069 Z-0.08745 I0.0125 J-0.02165
G3 X0.30625 Y5.72855 Z-0.09669 I0.0125 J0.02165
G3 X0.29952 Y5.74562 Z-0.1 I-0.025 J0.0
G3 X0.26875 Y5.7502 I-0.01827 J-0.01707
G3 Y5.7069 I0.0125 J-0.02165
G3 X0.30625 Y5.72855 I0.0125 J0.02165
G3 X0.29952 Y5.74562 I-0.025 J0.0
G1 F75.0 X0.2563 Y5.72711
G3 F120.0 X0.26875 Y5.7069 Z-0.10436 I0.02496 J0.00144
G3 X0.30625 Y5.72855 Z-0.11359 I0.0125 J0.02165
G3 X0.29952 Y5.74562 Z-0.11691 I-0.025 J0.0
G3 X0.26875 Y5.7502 Z-0.12283 I-0.01827 J-0.01707
G3 Y5.7069 Z-0.13206 I0.0125 J-0.02165
G3 X0.30625 Y5.72855 Z-0.14129 I0.0125 J0.02165
G3 X0.29952 Y5.74562 Z-0.14461 I-0.025 J0.0
G3 X0.26875 Y5.7502 Z-0.15052 I-0.01827 J-0.01707
G3 Y5.7069 Z-0.15976 I0.0125 J-0.02165
G3 X0.30625 Y5.72855 Z-0.16899 I0.0125 J0.02165
G3 X0.29952 Y5.74562 Z-0.1723 I-0.025 J0.0
G3 X0.26875 Y5.7502 Z-0.17822 I-0.01827 J-0.01707
G3 Y5.7069 Z-0.18745 I0.0125 J-0.02165
G3 X0.30625 Y5.72855 Z-0.19669 I0.0125 J0.02165
G3 X0.29952 Y5.74562 Z-0.2 I-0.025 J0.0
G3 X0.26875 Y5.7502 I-0.01827 J-0.01707
G3 Y5.7069 I0.0125 J-0.02165
G3 X0.30625 Y5.72855 I0.0125 J0.02165
G3 X0.29952 Y5.74562 I-0.025 J0.0
G1 F75.0 X0.2563 Y5.72711
G3 F120.0 X0.26875 Y5.7069 Z-0.20436 I0.02496 J0.00144
G3 X0.30625 Y5.72855 Z-0.21359 I0.0125 J0.02165
G3 X0.29952 Y5.74562 Z-0.21691 I-0.025 J0.0
G3 X0.26875 Y5.7502 Z-0.22283 I-0.01827 J-0.01707
G3 Y5.7069 Z-0.23206 I0.0125 J-0.02165
G3 X0.30625 Y5.72855 Z-0.24129 I0.0125 J0.02165
G3 X0.29952 Y5.74562 Z-0.24461 I-0.025 J0.0
G3 X0.26875 Y5.7502 Z-0.25052 I-0.01827 J-0.01707
G3 Y5.7069 Z-0.25976 I0.0125 J-0.02165
G3 X0.30625 Y5.72855 Z-0.26899 I0.0125 J0.02165
G3 X0.29952 Y5.74562 Z-0.2723 I-0.025 J0.0
G3 X0.26875 Y5.7502 Z-0.27822 I-0.01827 J-0.01707
G3 Y5.7069 Z-0.28745 I0.0125 J-0.02165
G3 X0.30625 Y5.72855 Z-0.29669 I0.0125 J0.02165
G3 X0.29952 Y5.74562 Z-0.3 I-0.025 J0.0
G3 X0.26875 Y5.7502 I-0.01827 J-0.01707
G3 Y5.7069 I0.0125 J-0.02165
G3 X0.30625 Y5.72855 I0.0125 J0.02165
G3 X0.29952 Y5.74562 I-0.025 J0.0
G1 F75.0 X0.26997 Y5.70625
G3 F120.0 X0.30625 Y5.72855 Z-0.30899 I0.01129 J0.02231
G3 X0.29952 Y5.74562 Z-0.3123 I-0.025 J0.0
G3 X0.26875 Y5.7502 Z-0.31822 I-0.01827 J-0.01707
G3 Y5.7069 Z-0.32745 I0.0125 J-0.02165
G3 X0.30625 Y5.72855 Z-0.33669 I0.0125 J0.02165
G3 X0.29952 Y5.74562 Z-0.34 I-0.025 J0.0
G3 X0.26875 Y5.7502 I-0.01827 J-0.01707
G3 Y5.7069 I0.0125 J-0.02165
G3 X0.30625 Y5.72855 I0.0125 J0.02165
G3 X0.29952 Y5.74562 I-0.025 J0.0
G1 F75.0 X0.27141 Y5.75153
G3 F120.0 X0.26875 Y5.7502 Z-0.34052 I0.00984 J-0.02298
G3 Y5.7069 Z-0.34976 I0.0125 J-0.02165
G3 X0.30625 Y5.72855 Z-0.35899 I0.0125 J0.02165
G3 X0.29952 Y5.74562 Z-0.3623 I-0.025 J0.0
G3 X0.26875 Y5.7502 Z-0.36822 I-0.01827 J-0.01707
G3 Y5.7069 Z-0.37745 I0.0125 J-0.02165
G3 X0.30625 Y5.72855 Z-0.38669 I0.0125 J0.02165
G3 X0.29952 Y5.74562 Z-0.39 I-0.025 J0.0
G3 X0.26875 Y5.7502 I-0.01827 J-0.01707
G3 Y5.7069 I0.0125 J-0.02165
G3 X0.30625 Y5.72855 I0.0125 J0.02165
G3 X0.29952 Y5.74562 I-0.025 J0.0
G1 F75.0 X0.30683 Y5.75245
G3 F120.0 X0.26375 Y5.75886 I-0.02557 J-0.0239
G3 Y5.69824 I0.0175 J-0.03031
G3 X0.31625 Y5.72855 I0.0175 J0.03031
G3 X0.30683 Y5.75245 I-0.035 J0.0
G0 Z0.25
G0 X0.49236 Y4.4698
G1 F75.0 Z0.0
G3 F120.0 X0.50067 Y4.4619 Z-0.00204 I0.02056 J0.01332
G3 X0.53742 Y4.48312 Z-0.01109 I0.01225 J0.02122
G3 X0.50899 Y4.5073 Z-0.01857 I-0.0245 J0.0
G3 X0.50067 Y4.50433 Z-0.02014 I0.00393 J-0.02418
G3 Y4.4619 Z-0.02918 I0.01225 J-0.02122
G3 X0.53742 Y4.48312 Z-0.03823 I0.01225 J0.02122
G3 X0.50899 Y4.5073 Z-0.04571 I-0.0245 J0.0
G3 X0.50067 Y4.50433 Z-0.04728 I0.00393 J-0.02418
G3 Y4.4619 Z-0.05633 I0.01225 J-0.02122
G3 X0.53742 Y4.48312 Z-0.06538 I0.01225 J0.02122
G3 X0.50899 Y4.5073 Z-0.07286 I-0.0245 J0.0
G3 X0.50067 Y4.50433 Z-0.07442 I0.00393 J-0.02418
G3 Y4.4619 Z-0.08347 I0.01225 J-0.02122
G3 X0.53742 Y4.48312 Z-0.09252 I0.01225 J0.02122
G3 X0.50899 Y4.5073 Z-0.1 I-0.0245 J0.0
G3 X0.50067 Y4.50433 I0.00393 J-0.02418
G3 Y4.4619 I0.01225 J-0.02122
G3 X0.53742 Y4.48312 I0.01225 J0.02122
G3 X0.50899 Y4.5073 I-0.0245 J0.0
G1 F75.0 X0.49236 Y4.4698
G3 F120.0 X0.50067 Y4.4619 Z-0.10204 I0.02056 J0.01332
G3 X0.53742 Y4.48312 Z-0.11109 I0.01225 J0.02122
G3 X0.50899 Y4.5073 Z-0.11857 I-0.0245 J0.0
G3 X0.50067 Y4.50433 Z-0.12014 I0.00393 J-0.02418
G3 Y4.4619 Z-0.12918 I0.01225 J-0.02122
G3 X0.53742 Y4.48312 Z-0.13823 I0.01225 J0.02122
G3 X0.50899 Y4.5073 Z-0.14571 I-0.0245 J0.0
G3 X0.50067 Y4.50433 Z-0.14728 I0.00393 J-0.02418
G3 Y4.4619 Z-0.15633 I0.01225 J-0.02122
G3 X0.53742 Y4.48312 Z-0.16538 I0.01225 J0.02122
G3 X0.50899 Y4.5073 Z-0.17286 I-0.0245 J0.0
G3 X0.50067 Y4.50433 Z-0.17442 I0.00393 J-0.02418
G3 Y4.4619 Z-0.18347 I0.01225 J-0.02122
G3 X0.53742 Y4.48312 Z-0.19252 I0.01225 J0.02122
G3 X0.50899 Y4.5073 Z-0.2 I-0.0245 J0.0
G3 X0.50067 Y4.50433 I0.00393 J-0.02418
G3 Y4.4619 I0.01225 J-0.02122
G3 X0.53742 Y4.48312 I0.01225 J0.02122
G3 X0.50899 Y4.5073 I-0.0245 J0.0
G1 F75.0 X0.49236 Y4.4698
G3 F120.0 X0.50067 Y4.4619 Z-0.20204 I0.02056 J0.01332
G3 X0.53742 Y4.48312 Z-0.21109 I0.01225 J0.02122
G3 X0.50899 Y4.5073 Z-0.21857 I-0.0245 J0.0
G3 X0.50067 Y4.50433 Z-0.22014 I0.00393 J-0.02418
G3 Y4.4619 Z-0.22918 I0.01225 J-0.02122
G3 X0.53742 Y4.48312 Z-0.23823 I0.01225 J0.02122
G3 X0.50899 Y4.5073 Z-0.24571 I-0.0245 J0.0
G3 X0.50067 Y4.50433 Z-0.24728 I0.00393 J-0.02418
G3 Y4.4619 Z-0.25633 I0.01225 J-0.02122
G3 X0.53742 Y4.48312 Z-0.26538 I0.01225 J0.02122
G3 X0.50899 Y4.5073 Z-0.27286 I-0.0245 J0.0
G3 X0.50067 Y4.50433 Z-0.27442 I0.00393 J-0.02418
G3 Y4.4619 Z-0.28347 I0.01225 J-0.02122
G3 X0.53742 Y4.48312 Z-0.29252 I0.01225 J0.02122
G3 X0.50899 Y4.5073 Z-0.3 I-0.0245 J0.0
G3 X0.50067 Y4.50433 I0.00393 J-0.02418
G3 Y4.4619 I0.01225 J-0.02122
G3 X0.53742 Y4.48312 I0.01225 J0.02122
G3 X0.50899 Y4.5073 I-0.0245 J0.0
G1 F75.0 X0.52078 Y4.45991
G3 F120.0 X0.53742 Y4.48312 Z-0.30538 I-0.00786 J0.02321
G3 X0.50899 Y4.5073 Z-0.31286 I-0.0245 J0.0
G3 X0.50067 Y4.50433 Z-0.31442 I0.00393 J-0.02418
G3 Y4.4619 Z-0.32347 I0.01225 J-0.02122
G3 X0.53742 Y4.48312 Z-0.33252 I0.01225 J0.02122
G3 X0.50899 Y4.5073 Z-0.34 I-0.0245 J0.0
G3 X0.50067 Y4.50433 I0.00393 J-0.02418
G3 Y4.4619 I0.01225 J-0.02122
G3 X0.53742 Y4.48312 I0.01225 J0.02122
G3 X0.50899 Y4.5073 I-0.0245 J0.0
G1 F75.0 X0.49052 Y4.49305
G3 F120.0 X0.50067 Y4.4619 Z-0.34633 I0.0224 J-0.00993
G3 X0.53742 Y4.48312 Z-0.35538 I0.01225 J0.02122
G3 X0.50899 Y4.5073 Z-0.36286 I-0.0245 J0.0
G3 X0.50067 Y4.50433 Z-0.36442 I0.00393 J-0.02418
G3 Y4.4619 Z-0.37347 I0.01225 J-0.02122
G3 X0.53742 Y4.48312 Z-0.38252 I0.01225 J0.02122
G3 X0.50899 Y4.5073 Z-0.39 I-0.0245 J0.0
G3 X0.50067 Y4.50433 I0.00393 J-0.02418
G3 Y4.4619 I0.01225 J-0.02122
G3 X0.53742 Y4.48312 I0.01225 J0.02122
G3 X0.50899 Y4.5073 I-0.0245 J0.0
G1 F75.0 X0.50739 Y4.51717
G3 F120.0 X0.49567 Y4.51299 I0.00553 J-0.03405
G3 Y4.45324 I0.01725 J-0.02988
G3 X0.54742 Y4.48312 I0.01725 J0.02988
G3 X0.50739 Y4.51717 I-0.0345 J0.0
G0 Z0.25
G0 X0.4905 Y1.22323
G1 F75.0 Z0.0
G3 F120.0 X0.50067 Y1.2119 Z-0.00273 I0.02242 J0.00989
G3 X0.53742 Y1.23312 Z-0.01178 I0.01225 J0.02122
G3 X0.51288 Y1.25762 Z-0.01857 I-0.0245 J0.0
G3 X0.50067 Y1.25433 Z-0.02082 I0.00004 J-0.0245
G3 Y1.2119 Z-0.02987 I0.01225 J-0.02122
G3 X0.53742 Y1.23312 Z-0.03892 I0.01225 J0.02122
G3 X0.51288 Y1.25762 Z-0.04571 I-0.0245 J0.0
G3 X0.50067 Y1.25433 Z-0.04797 I0.00004 J-0.0245
G3 Y1.2119 Z-0.05702 I0.01225 J-0.02122
G3 X0.53742 Y1.23312 Z-0.06606 I0.01225 J0.02122
G3 X0.51288 Y1.25762 Z-0.07286 I-0.0245 J0.0
G3 X0.50067 Y1.25433 Z-0.07511 I0.00004 J-0.0245
G3 Y1.2119 Z-0.08416 I0.01225 J-0.02122
G3 X0.53742 Y1.23312 Z-0.09321 I0.01225 J0.02122
G3 X0.51288 Y1.25762 Z-0.1 I-0.0245 J0.0
G3 X0.50067 Y1.25433 I0.00004 J-0.0245
G3 Y1.2119 I0.01225 J-0.02122
G3 X0.53742 Y1.23312 I0.01225 J0.02122
G3 X0.51288 Y1.25762 I-0.0245 J0.0
G1 F75.0 X0.4905 Y1.22323
G3 F120.0 X0.50067 Y1.2119 Z-0.10273 I0.02242 J0.00989
G3 X0.53742 Y1.23312 Z-0.11178 I0.01225 J0.02122
G3 X0.51288 Y1.25762 Z-0.11857 I-0.0245 J0.0
G3 X0.50067 Y1.25433 Z-0.12082 I0.00004 J-0.0245
G3 Y1.2119 Z-0.12987 I0.01225 J-0.02122
G3 X0.53742 Y1.23312 Z-0.13892 I0.01225 J0.02122
G3 X0.51288 Y1.25762 Z-0.14571 I-0.0245 J0.0
G3 X0.50067 Y1.25433 Z-0.14797 I0.00004 J-0.0245
G3 Y1.2119 Z-0.15702 I0.01225 J-0.02122
G3 X0.53742 Y1.23312 Z-0.16606 I0.01225 J0.02122
G3 X0.51288 Y1.25762 Z-0.17286 I-0.0245 J0.0
G3 X0.50067 Y1.25433 Z-0.17511 I0.00004 J-0.0245
G3 Y1.2119 Z-0.18416 I0.01225 J-0.02122
G3 X0.53742 Y1.23312 Z-0.19321 I0.01225 J0.02122
G3 X0.51288 Y1.25762 Z-0.2 I-0.0245 J0.0
G3 X0.50067 Y1.25433 I0.00004 J-0.0245
G3 Y1.2119 I0.01225 J-0.02122
G3 X0.53742 Y1.23312 I0.01225 J0.02122
G3 X0.51288 Y1.25762 I-0.0245 J0.0
G1 F75.0 X0.4905 Y1.22323
G3 F120.0 X0.50067 Y1.2119 Z-0.20273 I0.02242 J0.00989
G3 X0.53742 Y1.23312 Z-0.21178 I0.01225 J0.02122
G3 X0.51288 Y1.25762 Z-0.21857 I-0.0245 J0.0
G3 X0.50067 Y1.25433 Z-0.22082 I0.00004 J-0.0245
G3 Y1.2119 Z-0.22987 I0.01225 J-0.02122
G3 X0.53742 Y1.23312 Z-0.23892 I0.01225 J0.02122
G3 X0.51288 Y1.25762 Z-0.24571 I-0.0245 J0.0
G3 X0.50067 Y1.25433 Z-0.24797 I0.00004 J-0.0245
G3 Y1.2119 Z-0.25702 I0.01225 J-0.02122
G3 X0.53742 Y1.23312 Z-0.26606 I0.01225 J0.02122
G3 X0.51288 Y1.25762 Z-0.27286 I-0.0245 J0.0
G3 X0.50067 Y1.25433 Z-0.27511 I0.00004 J-0.0245
G3 Y1.2119 Z-0.28416 I0.01225 J-0.02122
G3 X0.53742 Y1.23312 Z-0.29321 I0.01225 J0.02122
G3 X0.51288 Y1.25762 Z-0.3 I-0.0245 J0.0
G3 X0.50067 Y1.25433 I0.00004 J-0.0245
G3 Y1.2119 I0.01225 J-0.02122
G3 X0.53742 Y1.23312 I0.01225 J0.02122
G3 X0.51288 Y1.25762 I-0.0245 J0.0
G1 F75.0 X0.517 Y1.20896
G3 F120.0 X0.53742 Y1.23312 Z-0.30606 I-0.00408 J0.02416
G3 X0.51288 Y1.25762 Z-0.31286 I-0.0245 J0.0
G3 X0.50067 Y1.25433 Z-0.31511 I0.00004 J-0.0245
G3 Y1.2119 Z-0.32416 I0.01225 J-0.02122
G3 X0.53742 Y1.23312 Z-0.33321 I0.01225 J0.02122
G3 X0.51288 Y1.25762 Z-0.34 I-0.0245 J0.0
G3 X0.50067 Y1.25433 I0.00004 J-0.0245
G3 Y1.2119 I0.01225 J-0.02122
G3 X0.53742 Y1.23312 I0.01225 J0.02122
G3 X0.51288 Y1.25762 I-0.0245 J0.0
G1 F75.0 X0.49238 Y1.24648
G3 F120.0 X0.50067 Y1.2119 Z-0.34702 I0.02054 J-0.01336
G3 X0.53742 Y1.23312 Z-0.35606 I0.01225 J0.02122
G3 X0.51288 Y1.25762 Z-0.36286 I-0.0245 J0.0
G3 X0.50067 Y1.25433 Z-0.36511 I0.00004 J-0.0245
G3 Y1.2119 Z-0.37416 I0.01225 J-0.02122
G3 X0.53742 Y1.23312 Z-0.38321 I0.01225 J0.02122
G3 X0.51288 Y1.25762 Z-0.39 I-0.0245 J0.0
G3 X0.50067 Y1.25433 I0.00004 J-0.0245
G3 Y1.2119 I0.01225 J-0.02122
G3 X0.53742 Y1.23312 I0.01225 J0.02122
G3 X0.51288 Y1.25762 I-0.0245 J0.0
G1 F75.0 X0.51286 Y1.26762
G3 F120.0 X0.49567 Y1.26299 I0.00006 J-0.0345
G3 Y1.20324 I0.01725 J-0.02988
G3 X0.54742 Y1.23312 I0.01725 J0.02988
G3 X0.51286 Y1.26762 I-0.0345 J0.0
G0 Z0.25
G0 X15.06335 Y1.21708
G1 F75.0 Z0.0
G3 F120.0 X15.06917 Y1.23312 Z-0.00307 I-0.01918 J0.01604
G3 X15.03167 Y1.25477 Z-0.0123 I-0.025 J0.0
G3 X15.01917 Y1.23318 Z-0.01691 I0.0125 J-0.02165
G3 X15.03167 Y1.21147 Z-0.02153 I0.025 J-0.00006
G3 X15.06917 Y1.23312 Z-0.03077 I0.0125 J0.02165
G3 X15.03167 Y1.25477 Z-0.04 I-0.025 J0.0
G3 X15.01917 Y1.23318 Z-0.04461 I0.0125 J-0.02165
G3 X15.03167 Y1.21147 Z-0.04923 I0.025 J-0.00006
G3 X15.06917 Y1.23312 Z-0.05846 I0.0125 J0.02165
G3 X15.03167 Y1.25477 Z-0.0677 I-0.025 J0.0
G3 X15.01917 Y1.23318 Z-0.0723 I0.0125 J-0.02165
G3 X15.03167 Y1.21147 Z-0.07693 I0.025 J-0.00006
G3 X15.06917 Y1.23312 Z-0.08616 I0.0125 J0.02165
G3 X15.03167 Y1.25477 Z-0.09539 I-0.025 J0.0
G3 X15.01917 Y1.23318 Z-0.1 I0.0125 J-0.02165
G3 X15.03167 Y1.21147 I0.025 J-0.00006
G3 X15.06917 Y1.23312 I0.0125 J0.02165
G3 X15.03167 Y1.25477 I-0.025 J0.0
G3 X15.01917 Y1.23318 I0.0125 J-0.02165
G1 F75.0 X15.06335 Y1.21708
G3 F120.0 X15.06917 Y1.23312 Z-0.10307 I-0.01918 J0.01604
G3 X15.03167 Y1.25477 Z-0.1123 I-0.025 J0.0
G3 X15.01917 Y1.23318 Z-0.11691 I0.0125 J-0.02165
G3 X15.03167 Y1.21147 Z-0.12153 I0.025 J-0.00006
G3 X15.06917 Y1.23312 Z-0.13077 I0.0125 J0.02165
G3 X15.03167 Y1.25477 Z-0.14 I-0.025 J0.0
G3 X15.01917 Y1.23318 Z-0.14461 I0.0125 J-0.02165
G3 X15.03167 Y1.21147 Z-0.14923 I0.025 J-0.00006
G3 X15.06917 Y1.23312 Z-0.15846 I0.0125 J0.02165
G3 X15.03167 Y1.25477 Z-0.1677 I-0.025 J0.0
G3 X15.01917 Y1.23318 Z-0.1723 I0.0125 J-0.02165
G3 X15.03167 Y1.21147 Z-0.17693 I0.025 J-0.00006
G3 X15.06917 Y1.23312 Z-0.18616 I0.0125 J0.02165
G3 X15.03167 Y1.25477 Z-0.19539 I-0.025 J0.0
G3 X15.01917 Y1.23318 Z-0.2 I0.0125 J-0.02165
G3 X15.03167 Y1.21147 I0.025 J-0.00006
G3 X15.06917 Y1.23312 I0.0125 J0.02165
G3 X15.03167 Y1.25477 I-0.025 J0.0
G3 X15.01917 Y1.23318 I0.0125 J-0.02165
G1 F75.0 X15.06335 Y1.21708
G3 F120.0 X15.06917 Y1.23312 Z-0.20307 I-0.01918 J0.01604
G3 X15.03167 Y1.25477 Z-0.2123 I-0.025 J0.0
G3 X15.01917 Y1.23318 Z-0.21691 I0.0125 J-0.02165
G3 X15.03167 Y1.21147 Z-0.22153 I0.025 J-0.00006
G3 X15.06917 Y1.23312 Z-0.23077 I0.0125 J0.02165
G3 X15.03167 Y1.25477 Z-0.24 I-0.025 J0.0
G3 X15.01917 Y1.23318 Z-0.24461 I0.0125 J-0.02165
G3 X15.03167 Y1.21147 Z-0.24923 I0.025 J-0.00006
G3 X15.06917 Y1.23312 Z-0.25846 I0.0125 J0.02165
G3 X15.03167 Y1.25477 Z-0.2677 I-0.025 J0.0
G3 X15.01917 Y1.23318 Z-0.2723 I0.0125 J-0.02165
G3 X15.03167 Y1.21147 Z-0.27693 I0.025 J-0.00006
G3 X15.06917 Y1.23312 Z-0.28616 I0.0125 J0.02165
G3 X15.03167 Y1.25477 Z-0.29539 I-0.025 J0.0
G3 X15.01917 Y1.23318 Z-0.3 I0.0125 J-0.02165
G3 X15.03167 Y1.21147 I0.025 J-0.00006
G3 X15.06917 Y1.23312 I0.0125 J0.02165
G3 X15.03167 Y1.25477 I-0.025 J0.0
G3 X15.01917 Y1.23318 I0.0125 J-0.02165
G1 F75.0 X15.06767 Y1.24165
G3 F120.0 X15.03167 Y1.25477 Z-0.3077 I-0.0235 J-0.00853
G3 X15.01917 Y1.23318 Z-0.3123 I0.0125 J-0.02165
G3 X15.03167 Y1.21147 Z-0.31693 I0.025 J-0.00006
G3 X15.06917 Y1.23312 Z-0.32616 I0.0125 J0.02165
G3 X15.03167 Y1.25477 Z-0.33539 I-0.025 J0.0
G3 X15.01917 Y1.23318 Z-0.34 I0.0125 J-0.02165
G3 X15.03167 Y1.21147 I0.025 J-0.00006
G3 X15.06917 Y1.23312 I0.0125 J0.02165
G3 X15.03167 Y1.25477 I-0.025 J0.0
G3 X15.01917 Y1.23318 I0.0125 J-0.02165
G1 F75.0 X15.03561 Y1.20963
G3 F120.0 X15.06917 Y1.23312 Z-0.34846 I0.00856 J0.02349
G3 X15.03167 Y1.25477 Z-0.3577 I-0.025 J0.0
G3 X15.01917 Y1.23318 Z-0.3623 I0.0125 J-0.02165
G3 X15.03167 Y1.21147 Z-0.36693 I0.025 J-0.00006
G3 X15.06917 Y1.23312 Z-0.37616 I0.0125 J0.02165
G3 X15.03167 Y1.25477 Z-0.38539 I-0.025 J0.0
G3 X15.01917 Y1.23318 Z-0.39 I0.0125 J-0.02165
G3 X15.03167 Y1.21147 I0.025 J-0.00006
G3 X15.06917 Y1.23312 I0.0125 J0.02165
G3 X15.03167 Y1.25477 I-0.025 J0.0
G3 X15.01917 Y1.23318 I0.0125 J-0.02165
G1 F75.0 X15.00917 Y1.2332
G3 F120.0 X15.02667 Y1.2028 I0.035 J-0.00008
G3 X15.07917 Y1.23312 I0.0175 J0.03031
G3 X15.02667 Y1.26343 I-0.035 J0.0
G3 X15.00917 Y1.2332 I0.0175 J-0.03031
G0 Z0.25
G0 X15.06037 Y4.50216
G1 F75.0 Z0.0
G3 F120.0 X15.03167 Y4.50477 Z-0.00541 I-0.0162 J-0.01904
G3 Y4.46147 Z-0.01465 I0.0125 J-0.02165
G3 X15.0439 Y4.45812 Z-0.01691 I0.0125 J0.02165
G3 X15.06917 Y4.48312 Z-0.02388 I0.00027 J0.025
G3 X15.03167 Y4.50477 Z-0.03311 I-0.025 J0.0
G3 Y4.46147 Z-0.04234 I0.0125 J-0.02165
G3 X15.0439 Y4.45812 Z-0.04461 I0.0125 J0.02165
G3 X15.06917 Y4.48312 Z-0.05158 I0.00027 J0.025
G3 X15.03167 Y4.50477 Z-0.06081 I-0.025 J0.0
G3 Y4.46147 Z-0.07004 I0.0125 J-0.02165
G3 X15.0439 Y4.45812 Z-0.0723 I0.0125 J0.02165
G3 X15.06917 Y4.48312 Z-0.07927 I0.00027 J0.025
G3 X15.03167 Y4.50477 Z-0.08851 I-0.025 J0.0
G3 Y4.46147 Z-0.09774 I0.0125 J-0.02165
G3 X15.0439 Y4.45812 Z-0.1 I0.0125 J0.02165
G3 X15.06917 Y4.48312 I0.00027 J0.025
G3 X15.03167 Y4.50477 I-0.025 J0.0
G3 Y4.46147 I0.0125 J-0.02165
G3 X15.0439 Y4.45812 I0.0125 J0.02165
G1 F75.0 X15.06037 Y4.50216
G3 F120.0 X15.03167 Y4.50477 Z-0.10541 I-0.0162 J-0.01904
G3 Y4.46147 Z-0.11465 I0.0125 J-0.02165
G3 X15.0439 Y4.45812 Z-0.11691 I0.0125 J0.02165
G3 X15.06917 Y4.48312 Z-0.12388 I0.00027 J0.025
G3 X15.03167 Y4.50477 Z-0.13311 I-0.025 J0.0
G3 Y4.46147 Z-0.14234 I0.0125 J-0.02165
G3 X15.0439 Y4.45812 Z-0.14461 I0.0125 J0.02165
G3 X15.06917 Y4.48312 Z-0.15158 I0.00027 J0.025
G3 X15.03167 Y4.50477 Z-0.16081 I-0.025 J0.0
G3 Y4.46147 Z-0.17004 I0.0125 J-0.02165
G3 X15.0439 Y4.45812 Z-0.1723 I0.0125 J0.02165
G3 X15.06917 Y4.48312 Z-0.17927 I0.00027 J0.025
G3 X15.03167 Y4.50477 Z-0.18851 I-0.025 J0.0
G3 Y4.46147 Z-0.19774 I0.0125 J-0.02165
G3 X15.0439 Y4.45812 Z-0.2 I0.0125 J0.02165
G3 X15.06917 Y4.48312 I0.00027 J0.025
G3 X15.03167 Y4.50477 I-0.025 J0.0
G3 Y4.46147 I0.0125 J-0.02165
G3 X15.0439 Y4.45812 I0.0125 J0.02165
G1 F75.0 X15.06037 Y4.50216
G3 F120.0 X15.03167 Y4.50477 Z-0.20541 I-0.0162 J-0.01904
G3 Y4.46147 Z-0.21465 I0.0125 J-0.02165
G3 X15.0439 Y4.45812 Z-0.21691 I0.0125 J0.02165
G3 X15.06917 Y4.48312 Z-0.22388 I0.00027 J0.025
G3 X15.03167 Y4.50477 Z-0.23311 I-0.025 J0.0
G3 Y4.46147 Z-0.24234 I0.0125 J-0.02165
G3 X15.0439 Y4.45812 Z-0.24461 I0.0125 J0.02165
G3 X15.06917 Y4.48312 Z-0.25158 I0.00027 J0.025
G3 X15.03167 Y4.50477 Z-0.26081 I-0.025 J0.0
G3 Y4.46147 Z-0.27004 I0.0125 J-0.02165
G3 X15.0439 Y4.45812 Z-0.2723 I0.0125 J0.02165
G3 X15.06917 Y4.48312 Z-0.27927 I0.00027 J0.025
G3 X15.03167 Y4.50477 Z-0.28851 I-0.025 J0.0
G3 Y4.46147 Z-0.29774 I0.0125 J-0.02165
G3 X15.0439 Y4.45812 Z-0.3 I0.0125 J0.02165
G3 X15.06917 Y4.48312 I0.00027 J0.025
G3 X15.03167 Y4.50477 I-0.025 J0.0
G3 Y4.46147 I0.0125 J-0.02165
G3 X15.0439 Y4.45812 I0.0125 J0.02165
G1 F75.0 X15.03583 Y4.50668
G3 F120.0 X15.03167 Y4.50477 Z-0.30081 I0.00834 J-0.02357
G3 Y4.46147 Z-0.31004 I0.0125 J-0.02165
G3 X15.0439 Y4.45812 Z-0.3123 I0.0125 J0.02165
G3 X15.06917 Y4.48312 Z-0.31927 I0.00027 J0.025
G3 X15.03167 Y4.50477 Z-0.32851 I-0.025 J0.0
G3 Y4.46147 Z-0.33774 I0.0125 J-0.02165
G3 X15.0439 Y4.45812 Z-0.34 I0.0125 J0.02165
G3 X15.06917 Y4.48312 I0.00027 J0.025
G3 X15.03167 Y4.50477 I-0.025 J0.0
G3 Y4.46147 I0.0125 J-0.02165
G3 X15.0439 Y4.45812 I0.0125 J0.02165
G1 F75.0 X15.06759 Y4.47436
G3 F120.0 X15.06917 Y4.48312 Z-0.34158 I-0.02342 J0.00875
G3 X15.03167 Y4.50477 Z-0.35081 I-0.025 J0.0
G3 Y4.46147 Z-0.36004 I0.0125 J-0.02165
G3 X15.0439 Y4.45812 Z-0.3623 I0.0125 J0.02165
G3 X15.06917 Y4.48312 Z-0.36927 I0.00027 J0.025
G3 X15.03167 Y4.50477 Z-0.37851 I-0.025 J0.0
G3 Y4.46147 Z-0.38774 I0.0125 J-0.02165
G3 X15.0439 Y4.45812 Z-0.39 I0.0125 J0.02165
G3 X15.06917 Y4.48312 I0.00027 J0.025
G3 X15.03167 Y4.50477 I-0.025 J0.0
G3 Y4.46147 I0.0125 J-0.02165
G3 X15.0439 Y4.45812 I0.0125 J0.02165
G1 F75.0 X15.04379 Y4.44812
G3 F120.0 X15.07917 Y4.48312 I0.00038 J0.035
G3 X15.02667 Y4.51343 I-0.035 J0.0
G3 Y4.4528 I0.0175 J-0.03031
G3 X15.04379 Y4.44812 I0.0175 J0.03031
G0 Z0.25
G0 X15.33134 Y5.74409
G1 F75.0 Z0.0
G3 F120.0 X15.29925 Y5.7502 Z-0.00628 I-0.01959 J-0.01553
G3 Y5.7069 Z-0.01551 I0.0125 J-0.02165
G3 X15.30663 Y5.70408 Z-0.01691 I0.0125 J0.02165
G3 X15.33675 Y5.72855 Z-0.02474 I0.00512 J0.02447
G3 X15.29925 Y5.7502 Z-0.03397 I-0.025 J0.0
G3 Y5.7069 Z-0.04321 I0.0125 J-0.02165
G3 X15.30663 Y5.70408 Z-0.04461 I0.0125 J0.02165
G3 X15.33675 Y5.72855 Z-0.05244 I0.00512 J0.02447
G3 X15.29925 Y5.7502 Z-0.06167 I-0.025 J0.0
G3 Y5.7069 Z-0.0709 I0.0125 J-0.02165
G3 X15.30663 Y5.70408 Z-0.0723 I0.0125 J0.02165
G3 X15.33675 Y5.72855 Z-0.08014 I0.00512 J0.02447
G3 X15.29925 Y5.7502 Z-0.08937 I-0.025 J0.0
G3 Y5.7069 Z-0.0986 I0.0125 J-0.02165
G3 X15.30663 Y5.70408 Z-0.1 I0.0125 J0.02165
G3 X15.33675 Y5.72855 I0.00512 J0.02447
G3 X15.29925 Y5.7502 I-0.025 J0.0
G3 Y5.7069 I0.0125 J-0.02165
G3 X15.30663 Y5.70408 I0.0125 J0.02165
G1 F75.0 X15.33134 Y5.74409
G3 F120.0 X15.29925 Y5.7502 Z-0.10628 I-0.01959 J-0.01553
G3 Y5.7069 Z-0.11551 I0.0125 J-0.02165
G3 X15.30663 Y5.70408 Z-0.11691 I0.0125 J0.02165
G3 X15.33675 Y5.72855 Z-0.12474 I0.00512 J0.02447
G3 X15.29925 Y5.7502 Z-0.13397 I-0.025 J0.0
G3 Y5.7069 Z-0.14321 I0.0125 J-0.02165
G3 X15.30663 Y5.70408 Z-0.14461 I0.0125 J0.02165
G3 X15.33675 Y5.72855 Z-0.15244 I0.00512 J0.02447
G3 X15.29925 Y5.7502 Z-0.16167 I-0.025 J0.0
G3 Y5.7069 Z-0.1709 I0.0125 J-0.02165
G3 X15.30663 Y5.70408 Z-0.1723 I0.0125 J0.02165
G3 X15.33675 Y5.72855 Z-0.18014 I0.00512 J0.02447
G3 X15.29925 Y5.7502 Z-0.18937 I-0.025 J0.0
G3 Y5.7069 Z-0.1986 I0.0125 J-0.02165
G3 X15.30663 Y5.70408 Z-0.2 I0.0125 J0.02165
G3 X15.33675 Y5.72855 I0.00512 J0.02447
G3 X15.29925 Y5.7502 I-0.025 J0.0
G3 Y5.7069 I0.0125 J-0.02165
G3 X15.30663 Y5.70408 I0.0125 J0.02165
G1 F75.0 X15.33134 Y5.74409
G3 F120.0 X15.29925 Y5.7502 Z-0.20628 I-0.01959 J-0.01553
G3 Y5.7069 Z-0.21551 I0.0125 J-0.02165
G3 X15.30663 Y5.70408 Z-0.21691 I0.0125 J0.02165
G3 X15.33675 Y5.72855 Z-0.22474 I0.00512 J0.02447
G3 X15.29925 Y5.7502 Z-0.23397 I-0.025 J0.0
G3 Y5.7069 Z-0.24321 I0.0125 J-0.02165
G3 X15.30663 Y5.70408 Z-0.24461 I0.0125 J0.02165
G3 X15.33675 Y5.72855 Z-0.25244 I0.00512 J0.02447
G3 X15.29925 Y5.7502 Z-0.26167 I-0.025 J0.0
G3 Y5.7069 Z-0.2709 I0.0125 J-0.02165
G3 X15.30663 Y5.70408 Z-0.2723 I0.0125 J0.02165
G3 X15.33675 Y5.72855 Z-0.28014 I0.00512 J0.02447
G3 X15.29925 Y5.7502 Z-0.28937 I-0.025 J0.0
G3 Y5.7069 Z-0.2986 I0.0125 J-0.02165
G3 X15.30663 Y5.70408 Z-0.3 I0.0125 J0.02165
G3 X15.33675 Y5.72855 I0.00512 J0.02447
G3 X15.29925 Y5.7502 I-0.025 J0.0
G3 Y5.7069 I0.0125 J-0.02165
G3 X15.30663 Y5.70408 I0.0125 J0.02165
G1 F75.0 X15.30816 Y5.75329
G3 F120.0 X15.29925 Y5.7502 Z-0.30167 I0.0036 J-0.02474
G3 Y5.7069 Z-0.3109 I0.0125 J-0.02165
G3 X15.30663 Y5.70408 Z-0.3123 I0.0125 J0.02165
G3 X15.33675 Y5.72855 Z-0.32014 I0.00512 J0.02447
G3 X15.29925 Y5.7502 Z-0.32937 I-0.025 J0.0
G3 Y5.7069 Z-0.3386 I0.0125 J-0.02165
G3 X15.30663 Y5.70408 Z-0.34 I0.0125 J0.02165
G3 X15.33675 Y5.72855 I0.00512 J0.02447
G3 X15.29925 Y5.7502 I-0.025 J0.0
G3 Y5.7069 I0.0125 J-0.02165
G3 X15.30663 Y5.70408 I0.0125 J0.02165
G1 F75.0 X15.33302 Y5.71541
G3 F120.0 X15.33675 Y5.72855 Z-0.34244 I-0.02127 J0.01314
G3 X15.29925 Y5.7502 Z-0.35167 I-0.025 J0.0
G3 Y5.7069 Z-0.3609 I0.0125 J-0.02165
G3 X15.30663 Y5.70408 Z-0.3623 I0.0125 J0.02165
G3 X15.33675 Y5.72855 Z-0.37014 I0.00512 J0.02447
G3 X15.29925 Y5.7502 Z-0.37937 I-0.025 J0.0
G3 Y5.7069 Z-0.3886 I0.0125 J-0.02165
G3 X15.30663 Y5.70408 Z-0.39 I0.0125 J0.02165
G3 X15.33675 Y5.72855 I0.00512 J0.02447
G3 X15.29925 Y5.7502 I-0.025 J0.0
G3 Y5.7069 I0.0125 J-0.02165
G3 X15.30663 Y5.70408 I0.0125 J0.02165
G1 F75.0 X15.30459 Y5.69429
G3 F120.0 X15.34675 Y5.72855 I0.00717 J0.03426
G3 X15.29425 Y5.75886 I-0.035 J0.0
G3 Y5.69824 I0.0175 J-0.03031
G3 X15.30459 Y5.69429 I0.0175 J0.03031
G0 Z0.25
G0 X14.81048 Y6.25352
G1 F75.0 Z0.0
G3 F120.0 X14.79925 Y6.2502 Z-0.00208 I0.00128 J-0.02497
G3 Y6.2069 Z-0.01132 I0.0125 J-0.02165
G3 X14.82871 Y6.21018 Z-0.01691 I0.0125 J0.02165
G3 X14.83675 Y6.22855 Z-0.02055 I-0.01695 J0.01838
G3 X14.79925 Y6.2502 Z-0.02978 I-0.025 J0.0
G3 Y6.2069 Z-0.03901 I0.0125 J-0.02165
G3 X14.82871 Y6.21018 Z-0.04461 I0.0125 J0.02165
G3 X14.83675 Y6.22855 Z-0.04825 I-0.01695 J0.01838
G3 X14.79925 Y6.2502 Z-0.05748 I-0.025 J0.0
G3 Y6.2069 Z-0.06671 I0.0125 J-0.02165
G3 X14.82871 Y6.21018 Z-0.0723 I0.0125 J0.02165
G3 X14.83675 Y6.22855 Z-0.07594 I-0.01695 J0.01838
G3 X14.79925 Y6.2502 Z-0.08517 I-0.025 J0.0
G3 Y6.2069 Z-0.09441 I0.0125 J-0.02165
G3 X14.82871 Y6.21018 Z-0.1 I0.0125 J0.02165
G3 X14.83675 Y6.22855 I-0.01695 J0.01838
G3 X14.79925 Y6.2502 I-0.025 J0.0
G3 Y6.2069 I0.0125 J-0.02165
G3 X14.82871 Y6.21018 I0.0125 J0.02165
G1 F75.0 X14.81048 Y6.25352
G3 F120.0 X14.79925 Y6.2502 Z-0.10208 I0.00128 J-0.02497
G3 Y6.2069 Z-0.11132 I0.0125 J-0.02165
G3 X14.82871 Y6.21018 Z-0.11691 I0.0125 J0.02165
G3 X14.83675 Y6.22855 Z-0.12055 I-0.01695 J0.01838
G3 X14.79925 Y6.2502 Z-0.12978 I-0.025 J0.0
G3 Y6.2069 Z-0.13901 I0.0125 J-0.02165
G3 X14.82871 Y6.21018 Z-0.14461 I0.0125 J0.02165
G3 X14.83675 Y6.22855 Z-0.14825 I-0.01695 J0.01838
G3 X14.79925 Y6.2502 Z-0.15748 I-0.025 J0.0
G3 Y6.2069 Z-0.16671 I0.0125 J-0.02165
G3 X14.82871 Y6.21018 Z-0.1723 I0.0125 J0.02165
G3 X14.83675 Y6.22855 Z-0.17594 I-0.01695 J0.01838
G3 X14.79925 Y6.2502 Z-0.18517 I-0.025 J0.0
G3 Y6.2069 Z-0.19441 I0.0125 J-0.02165
G3 X14.82871 Y6.21018 Z-0.2 I0.0125 J0.02165
G3 X14.83675 Y6.22855 I-0.01695 J0.01838
G3 X14.79925 Y6.2502 I-0.025 J0.0
G3 Y6.2069 I0.0125 J-0.02165
G3 X14.82871 Y6.21018 I0.0125 J0.02165
G1 F75.0 X14.81048 Y6.25352
G3 F120.0 X14.79925 Y6.2502 Z-0.20208 I0.00128 J-0.02497
G3 Y6.2069 Z-0.21132 I0.0125 J-0.02165
G3 X14.82871 Y6.21018 Z-0.21691 I0.0125 J0.02165
G3 X14.83675 Y6.22855 Z-0.22055 I-0.01695 J0.01838
G3 X14.79925 Y6.2502 Z-0.22978 I-0.025 J0.0
G3 Y6.2069 Z-0.23901 I0.0125 J-0.02165
G3 X14.82871 Y6.21018 Z-0.24461 I0.0125 J0.02165
G3 X14.83675 Y6.22855 Z-0.24825 I-0.01695 J0.01838
G3 X14.79925 Y6.2502 Z-0.25748 I-0.025 J0.0
G3 Y6.2069 Z-0.26671 I0.0125 J-0.02165
G3 X14.82871 Y6.21018 Z-0.2723 I0.0125 J0.02165
G3 X14.83675 Y6.22855 Z-0.27594 I-0.01695 J0.01838
G3 X14.79925 Y6.2502 Z-0.28517 I-0.025 J0.0
G3 Y6.2069 Z-0.29441 I0.0125 J-0.02165
G3 X14.82871 Y6.21018 Z-0.3 I0.0125 J0.02165
G3 X14.83675 Y6.22855 I-0.01695 J0.01838
G3 X14.79925 Y6.2502 I-0.025 J0.0
G3 Y6.2069 I0.0125 J-0.02165
G3 X14.82871 Y6.21018 I0.0125 J0.02165
G1 F75.0 X14.78952 Y6.23999
G3 F120.0 X14.79925 Y6.2069 Z-0.30671 I0.02223 J-0.01143
G3 X14.82871 Y6.21018 Z-0.3123 I0.0125 J0.02165
G3 X14.83675 Y6.22855 Z-0.31594 I-0.01695 J0.01838
G3 X14.79925 Y6.2502 Z-0.32517 I-0.025 J0.0
G3 Y6.2069 Z-0.33441 I0.0125 J-0.02165
G3 X14.82871 Y6.21018 Z-0.34 I0.0125 J0.02165
G3 X14.83675 Y6.22855 I-0.01695 J0.01838
G3 X14.79925 Y6.2502 I-0.025 J0.0
G3 Y6.2069 I0.0125 J-0.02165
G3 X14.82871 Y6.21018 I0.0125 J0.02165
G1 F75.0 X14.8348 Y6.23824
G3 F120.0 X14.79925 Y6.2502 Z-0.34748 I-0.02305 J-0.00969
G3 Y6.2069 Z-0.35671 I0.0125 J-0.02165
G3 X14.82871 Y6.21018 Z-0.3623 I0.0125 J0.02165
G3 X14.83675 Y6.22855 Z-0.36594 I-0.01695 J0.01838
G3 X14.79925 Y6.2502 Z-0.37517 I-0.025 J0.0
G3 Y6.2069 Z-0.38441 I0.0125 J-0.02165
G3 X14.82871 Y6.21018 Z-0.39 I0.0125 J0.02165
G3 X14.83675 Y6.22855 I-0.01695 J0.01838
G3 X14.79925 Y6.2502 I-0.025 J0.0
G3 Y6.2069 I0.0125 J-0.02165
G3 X14.82871 Y6.21018 I0.0125 J0.02165
G1 F75.0 X14.83549 Y6.20283
G3 F120.0 X14.84675 Y6.22855 I-0.02373 J0.02573
G3 X14.79425 Y6.25886 I-0.035 J0.0
G3 Y6.19824 I0.0175 J-0.03031
G3 X14.83549 Y6.20283 I0.0175 J0.03031
( PinHoles )
S2000
G0 Z0.1
G0 X4.0305 Y6.10355
G83 Z-0.25 Q0.1 R0.1 F75.0
G83 X7.5305 Z-0.25 Q0.1 R0.1
G80
( Slots )
S2000
G0 Z0.25
G0 X13.56344 Y4.45562
G1 Z0.0
G1 F120.0 X14.04417 Z-0.08477
G3 Y4.51062 Z-0.1 I0.0 J0.0275
G1 X12.01292
G3 Y4.45562 I0.0 J-0.0275
G1 X14.04417
G3 Y4.51062 I0.0 J0.0275
G1 F75.0 Y4.56062
G1 F120.0 X12.01292
G3 Y4.40562 I0.0 J-0.0775
G1 X14.04417
G3 Y4.56062 I0.0 J0.0775
G1 F75.0 Y4.61062
G1 F120.0 X12.01292
G3 Y4.35562 I0.0 J-0.1275
G1 X14.04417
G3 Y4.61062 I0.0 J0.1275
G1 F75.0 Y4.66062
G1 F120.0 X12.01292
G3 Y4.30562 I0.0 J-0.1775
G1 X14.04417
G3 Y4.66062 I0.0 J0.1775
G0 Z0.25
G0 X13.56344 Y4.45562
G1 F75.0 Z-0.1
G1 F120.0 X14.04417 Z-0.18477
G3 Y4.51062 Z-0.2 I0.0 J0.0275
G1 X12.01292
G3 Y4.45562 I0.0 J-0.0275
G1 X14.04417
G3 Y4.51062 I0.0 J0.0275
G1 F75.0 Y4.56062
G1 F120.0 X12.01292
G3 Y4.40562 I0.0 J-0.0775
G1 X14.04417
G3 Y4.56062 I0.0 J0.0775
G1 F75.0 Y4.61062
G1 F120.0 X12.01292
G3 Y4.35562 I0.0 J-0.1275
G1 X14.04417
G3 Y4.61062 I0.0 J0.1275
G1 F75.0 Y4.66062
G1 F120.0 X12.01292
G3 Y4.30562 I0.0 J-0.1775
G1 X14.04417
G3 Y4.66062 I0.0 J0.1775
G0 Z0.25
G0 X13.87536 Y4.45562
G1 F75.0 Z-0.2
G1 F120.0 X14.04417 Z-0.22977
G3 Y4.51062 Z-0.245 I0.0 J0.0275
G1 X12.01292
G3 Y4.45562 I0.0 J-0.0275
G1 X14.04417
G3 Y4.51062 I0.0 J0.0275
G1 F75.0 Y4.56062
G1 F120.0 X12.01292
G3 Y4.40562 I0.0 J-0.0775
G1 X14.04417
G3 Y4.56062 I0.0 J0.0775
G1 F75.0 Y4.61062
G1 F120.0 X12.01292
G3 Y4.35562 I0.0 J-0.1275
G1 X14.04417
G3 Y4.61062 I0.0 J0.1275
G1 F75.0 Y4.66062
G1 F120.0 X12.01292
G3 Y4.30562 I0.0 J-0.1775
G1 X14.04417
G3 Y4.66062 I0.0 J0.1775
G0 Z0.25
G0 X14.06776 Y4.49725
G1 F75.0 Z-0.245
G3 F120.0 X14.04417 Y4.51062 Z-0.25 I-0.02359 J-0.01413
G1 X12.01292
G3 Y4.45562 I0.0 J-0.0275
G1 X14.04417
G3 Y4.51062 I0.0 J0.0275
G1 F75.0 Y4.56062
G1 F120.0 X12.01292
G3 Y4.40562 I0.0 J-0.0775
G1 X14.04417
G3 Y4.56062 I0.0 J0.0775
G1 F75.0 Y4.61062
G1 F120.0 X12.01292
G3 Y4.35562 I0.0 J-0.1275
G1 X14.04417
G3 Y4.61062 I0.0 J0.1275
G1 F75.0 Y4.66062
G1 F120.0 X12.01292
G3 Y4.30562 I0.0 J-0.1775
G1 X14.04417
G3 Y4.66062 I0.0 J0.1775
G1 F75.0 Y4.67062
G1 F120.0 X12.01292
G3 Y4.29562 I0.0 J-0.1875
G1 X14.04417
G3 Y4.67062 I0.0 J0.1875
G0 Z0.25
G0 X13.56344 Y1.95562
G1 F75.0 Z0.0
G1 F120.0 X14.04417 Z-0.08477
G3 Y2.01062 Z-0.1 I0.0 J0.0275
G1 X12.01292
G3 Y1.95562 I0.0 J-0.0275
G1 X14.04417
G3 Y2.01062 I0.0 J0.0275
G1 F75.0 Y2.06062
G1 F120.0 X12.01292
G3 Y1.90562 I0.0 J-0.0775
G1 X14.04417
G3 Y2.06062 I0.0 J0.0775
G1 F75.0 Y2.11062
G1 F120.0 X12.01292
G3 Y1.85562 I0.0 J-0.1275
G1 X14.04417
G3 Y2.11062 I0.0 J0.1275
G1 F75.0 Y2.16062
G1 F120.0 X12.01292
G3 Y1.80562 I0.0 J-0.1775
G1 X14.04417
G3 Y2.16062 I0.0 J0.1775
G0 Z0.25
G0 X13.56344 Y1.95562
G1 F75.0 Z-0.1
G1 F120.0 X14.04417 Z-0.18477
G3 Y2.01062 Z-0.2 I0.0 J0.0275
G1 X12.01292
G3 Y1.95562 I0.0 J-0.0275
G1 X14.04417
G3 Y2.01062 I0.0 J0.0275
G1 F75.0 Y2.06062
G1 F120.0 X12.01292
G3 Y1.90562 I0.0 J-0.0775
G1 X14.04417
G3 Y2.06062 I0.0 J0.0775
G1 F75.0 Y2.11062
G1 F120.0 X12.01292
G3 Y1.85562 I0.0 J-0.1275
G1 X14.04417
G3 Y2.11062 I0.0 J0.1275
G1 F75.0 Y2.16062
G1 F120.0 X12.01292
G3 Y1.80562 I0.0 J-0.1775
G1 X14.04417
G3 Y2.16062 I0.0 J0.1775
G0 Z0.25
G0 X13.87536 Y1.95562
G1 F75.0 Z-0.2
G1 F120.0 X14.04417 Z-0.22977
G3 Y2.01062 Z-0.245 I0.0 J0.0275
G1 X12.01292
G3 Y1.95562 I0.0 J-0.0275
G1 X14.04417
G3 Y2.01062 I0.0 J0.0275
G1 F75.0 Y2.06062
G1 F120.0 X12.01292
G3 Y1.90562 I0.0 J-0.0775
G1 X14.04417
G3 Y2.06062 I0.0 J0.0775
G1 F75.0 Y2.11062
G1 F120.0 X12.01292
G3 Y1.85562 I0.0 J-0.1275
G1 X14.04417
G3 Y2.11062 I0.0 J0.1275
G1 F75.0 Y2.16062
G1 F120.0 X12.01292
G3 Y1.80562 I0.0 J-0.1775
G1 X14.04417
G3 Y2.16062 I0.0 J0.1775
G0 Z0.25
G0 X14.06776 Y1.99725
G1 F75.0 Z-0.245
G3 F120.0 X14.04417 Y2.01062 Z-0.25 I-0.02359 J-0.01413
G1 X12.01292
G3 Y1.95562 I0.0 J-0.0275
G1 X14.04417
G3 Y2.01062 I0.0 J0.0275
G1 F75.0 Y2.06062
G1 F120.0 X12.01292
G3 Y1.90562 I0.0 J-0.0775
G1 X14.04417
G3 Y2.06062 I0.0 J0.0775
G1 F75.0 Y2.11062
G1 F120.0 X12.01292
G3 Y1.85562 I0.0 J-0.1275
G1 X14.04417
G3 Y2.11062 I0.0 J0.1275
G1 F75.0 Y2.16062
G1 F120.0 X12.01292
G3 Y1.80562 I0.0 J-0.1775
G1 X14.04417
G3 Y2.16062 I0.0 J0.1775
G1 F75.0 Y2.17062
G1 F120.0 X12.01292
G3 Y1.79562 I0.0 J-0.1875
G1 X14.04417
G3 Y2.17062 I0.0 J0.1875
( SlotsThru )
S2000
G0 Z0.25
G0 X13.55401 Y4.45862
G1 F75.0 Z0.0
G1 F120.0 X14.04417 Z-0.08643
G3 Y4.50762 Z-0.1 I0.0 J0.0245
G1 X12.01292
G3 Y4.45862 I0.0 J-0.0245
G1 X14.04417
G3 Y4.50762 I0.0 J0.0245
G0 Z0.25
G0 X13.55401 Y4.45862
G1 F75.0 Z-0.1
G1 F120.0 X14.04417 Z-0.18643
G3 Y4.50762 Z-0.2 I0.0 J0.0245
G1 X12.01292
G3 Y4.45862 I0.0 J-0.0245
G1 X14.04417
G3 Y4.50762 I0.0 J0.0245
G0 Z0.25
G0 X13.55401 Y4.45862
G1 F75.0 Z-0.2
G1 F120.0 X14.04417 Z-0.28643
G3 Y4.50762 Z-0.3 I0.0 J0.0245
G1 X12.01292
G3 Y4.45862 I0.0 J-0.0245
G1 X14.04417
G3 Y4.50762 I0.0 J0.0245
G0 Z0.25
G0 X13.63908 Y4.45862
G1 F75.0 Z-0.3
G1 F120.0 X14.04417 Z-0.37143
G3 Y4.50762 Z-0.385 I0.0 J0.0245
G1 X12.01292
G3 Y4.45862 I0.0 J-0.0245
G1 X14.04417
G3 Y4.50762 I0.0 J0.0245
G1 F75.0 X14.06661 Y4.49296
G3 F120.0 X14.04417 Y4.50762 Z-0.39 I-0.02244 J-0.00984
G1 X12.01292
G3 Y4.45862 I0.0 J-0.0245
G1 X14.04417
G3 Y4.50762 I0.0 J0.0245
G1 F75.0 Y4.51762
G1 F120.0 X12.01292
G3 Y4.44862 I0.0 J-0.0345
G1 X14.04417
G3 Y4.51762 I0.0 J0.0345
G0 Z0.25
G0 X13.55401 Y1.95862
G1 F75.0 Z0.0
G1 F120.0 X14.04417 Z-0.08643
G3 Y2.00762 Z-0.1 I0.0 J0.0245
G1 X12.01292
G3 Y1.95862 I0.0 J-0.0245
G1 X14.04417
G3 Y2.00762 I0.0 J0.0245
G0 Z0.25
G0 X13.55401 Y1.95862
G1 F75.0 Z-0.1
G1 F120.0 X14.04417 Z-0.18643
G3 Y2.00762 Z-0.2 I0.0 J0.0245
G1 X12.01292
G3 Y1.95862 I0.0 J-0.0245
G1 X14.04417
G3 Y2.00762 I0.0 J0.0245
G0 Z0.25
G0 X13.55401 Y1.95862
G1 F75.0 Z-0.2
G1 F120.0 X14.04417 Z-0.28643
G3 Y2.00762 Z-0.3 I0.0 J0.0245
G1 X12.01292
G3 Y1.95862 I0.0 J-0.0245
G1 X14.04417
G3 Y2.00762 I0.0 J0.0245
G0 Z0.25
G0 X13.63908 Y1.95862
G1 F75.0 Z-0.3
G1 F120.0 X14.04417 Z-0.37143
G3 Y2.00762 Z-0.385 I0.0 J0.0245
G1 X12.01292
G3 Y1.95862 I0.0 J-0.0245
G1 X14.04417
G3 Y2.00762 I0.0 J0.0245
G1 F75.0 X14.06661 Y1.99296
G3 F120.0 X14.04417 Y2.00762 Z-0.39 I-0.02244 J-0.00984
G1 X12.01292
G3 Y1.95862 I0.0 J-0.0245
G1 X14.04417
G3 Y2.00762 I0.0 J0.0245
G1 F75.0 Y2.01762
G1 F120.0 X12.01292
G3 Y1.94862 I0.0 J-0.0345
G1 X14.04417
G3 Y2.01762 I0.0 J0.0345
( RoughInnerPocket )
S2000
G0 Z0.25
G0 X2.70505 Y3.41062
G1 F75.0 Z0.0
G1 F120.0 X2.13792 Z-0.1
G3 X2.08542 Y3.35812 I0.0 J-0.0525
G1 Y0.60812
G3 X2.13792 Y0.55562 I0.0525 J0.0
G1 X11.51292
G3 X11.56542 Y0.60812 I0.0 J0.0525
G1 Y3.35812
G3 X11.51292 Y3.41062 I-0.0525 J0.0
G1 X2.13792
G0 Z0.25
G0 X2.70505
G1 F75.0 Z-0.1
G1 F120.0 X2.13792 Z-0.2
G3 X2.08542 Y3.35812 I0.0 J-0.0525
G1 Y0.60812
G3 X2.13792 Y0.55562 I0.0525 J0.0
G1 X11.51292
G3 X11.56542 Y0.60812 I0.0 J0.0525
G1 Y3.35812
G3 X11.51292 Y3.41062 I-0.0525 J0.0
G1 X2.13792
G0 Z0.25
G0 X2.70505
G1 F75.0 Z-0.2
G1 F120.0 X2.13792 Z-0.3
G3 X2.08542 Y3.35812 I0.0 J-0.0525
G1 Y0.60812
G3 X2.13792 Y0.55562 I0.0525 J0.0
G1 X11.51292
G3 X11.56542 Y0.60812 I0.0 J0.0525
G1 Y3.35812
G3 X11.51292 Y3.41062 I-0.0525 J0.0
G1 X2.13792
G0 Z0.25
G0 X2.44984
G1 F75.0 Z-0.3
G1 F120.0 X2.13792 Z-0.355
G3 X2.08542 Y3.35812 I0.0 J-0.0525
G1 Y0.60812
G3 X2.13792 Y0.55562 I0.0525 J0.0
G1 X11.51292
G3 X11.56542 Y0.60812 I0.0 J0.0525
G1 Y3.35812
G3 X11.51292 Y3.41062 I-0.0525 J0.0
G1 X2.13792
G1 F75.0 X2.19463
G1 F120.0 X2.13792 Z-0.365
G3 X2.08542 Y3.35812 I0.0 J-0.0525
G1 Y0.60812
G3 X2.13792 Y0.55562 I0.0525 J0.0
G1 X11.51292
G3 X11.56542 Y0.60812 I0.0 J0.0525
G1 Y3.35812
G3 X11.51292 Y3.41062 I-0.0525 J0.0
G1 X2.13792
( FinishInnerPocket )
S2000
G0 Z0.25
G0 X4.26465 Y3.42062
G1 F75.0 Z0.0
G1 F120.0 X2.13792 Z-0.375
G3 X2.07542 Y3.35812 I0.0 J-0.0625
G1 Y0.60812
G3 X2.13792 Y0.54562 I0.0625 J0.0
G1 X11.51292
G3 X11.57542 Y0.60812 I0.0 J0.0625
G1 Y3.35812
G3 X11.51292 Y3.42062 I-0.0625 J0.0
G1 X2.13792
G1 F75.0 X2.16628
G1 F120.0 X2.13792 Z-0.38
G3 X2.07542 Y3.35812 I0.0 J-0.0625
G1 Y0.60812
G3 X2.13792 Y0.54562 I0.0625 J0.0
G1 X11.51292
G3 X11.57542 Y0.60812 I0.0 J0.0625
G1 Y3.35812
G3 X11.51292 Y3.42062 I-0.0625 J0.0
G1 X2.13792
( RoughOuterProfile )
S2000
G0 Z0.25
G0 X-0.042 Y6.06098
G1 F75.0 Z0.0
G1 F120.0 Y6.41605 Z-0.06261
G2 X0.093 Y6.55105 Z-0.1 I0.135 J0.0
G1 X15.49925
G2 X15.63425 Y6.41605 I0.0 J-0.135
G1 Y5.47855
G2 X15.31175 Y5.15605 I-0.3225 J0.0
G1 X0.2805
G2 X-0.042 Y5.47855 I0.0 J0.3225
G1 Y6.41605
G2 X0.093 Y6.55105 I0.135 J0.0
G0 Z0.25
G0 X-0.042 Y6.06098
G1 F75.0 Z-0.1
G1 F120.0 Y6.41605 Z-0.16261
G2 X0.093 Y6.55105 Z-0.2 I0.135 J0.0
G1 X15.49925
G2 X15.63425 Y6.41605 I0.0 J-0.135
G1 Y5.47855
G2 X15.31175 Y5.15605 I-0.3225 J0.0
G1 X0.2805
G2 X-0.042 Y5.47855 I0.0 J0.3225
G1 Y6.41605
G2 X0.093 Y6.55105 I0.135 J0.0
G0 Z0.25
G0 X-0.042 Y6.06098
G1 F75.0 Z-0.2
G1 F120.0 Y6.41605 Z-0.26261
G2 X0.093 Y6.55105 Z-0.3 I0.135 J0.0
G1 X15.49925
G2 X15.63425 Y6.41605 I0.0 J-0.135
G1 Y5.47855
G2 X15.31175 Y5.15605 I-0.3225 J0.0
G1 X0.2805
G2 X-0.042 Y5.47855 I0.0 J0.3225
G1 Y6.41605
G2 X0.093 Y6.55105 I0.135 J0.0
G0 Z0.25
G0 X-0.042 Y6.34455
G1 F75.0 Z-0.3
G1 F120.0 Y6.41605 Z-0.31261
G2 X0.093 Y6.55105 Z-0.35 I0.135 J0.0
G1 X15.49925
G2 X15.63425 Y6.41605 I0.0 J-0.135
G1 Y5.47855
G2 X15.31175 Y5.15605 I-0.3225 J0.0
G1 X0.2805
G2 X-0.042 Y5.47855 I0.0 J0.3225
G1 Y6.41605
G2 X0.093 Y6.55105 I0.135 J0.0
G1 F75.0 X0.01345 Y6.52512
G2 F120.0 X0.093 Y6.55105 Z-0.365 I0.07955 J-0.10907
G1 X15.49925
G2 X15.63425 Y6.41605 I0.0 J-0.135
G1 Y5.47855
G2 X15.31175 Y5.15605 I-0.3225 J0.0
G1 X0.2805
G2 X-0.042 Y5.47855 I0.0 J0.3225
G1 Y6.41605
G2 X0.093 Y6.55105 I0.135 J0.0
G0 Z0.25
G0 X-0.05958 Y4.64251
G1 F75.0 Z0.0
G1 F120.0 Y4.73312 Z-0.01598
G2 X0.23291 Y5.05422 Z-0.1 I0.3225 J0.0
G2 X0.26292 Y5.05562 I0.03001 J-0.3211
G1 X15.29417
G2 X15.61667 Y4.73312 I0.0 J-0.3225
G1 Y0.04562
G2 X15.48167 Y-0.08938 I-0.135 J0.0
G1 X0.07542
G2 X-0.05958 Y0.04562 I0.0 J0.135
G1 Y4.73312
G2 X0.23291 Y5.05422 I0.3225 J0.0
G0 Z0.25
G0 X-0.05958 Y4.64251
G1 F75.0 Z-0.1
G1 F120.0 Y4.73312 Z-0.11598
G2 X0.23291 Y5.05422 Z-0.2 I0.3225 J0.0
G2 X0.26292 Y5.05562 I0.03001 J-0.3211
G1 X15.29417
G2 X15.61667 Y4.73312 I0.0 J-0.3225
G1 Y0.04562
G2 X15.48167 Y-0.08938 I-0.135 J0.0
G1 X0.07542
G2 X-0.05958 Y0.04562 I0.0 J0.135
G1 Y4.73312
G2 X0.23291 Y5.05422 I0.3225 J0.0
G0 Z0.25
G0 X-0.05958 Y4.64251
G1 F75.0 Z-0.2
G1 F120.0 Y4.73312 Z-0.21598
G2 X0.23291 Y5.05422 Z-0.3 I0.3225 J0.0
G2 X0.26292 Y5.05562 I0.03001 J-0.3211
G1 X15.29417
G2 X15.61667 Y4.73312 I0.0 J-0.3225
G1 Y0.04562
G2 X15.48167 Y-0.08938 I-0.135 J0.0
G1 X0.07542
G2 X-0.05958 Y0.04562 I0.0 J0.135
G1 Y4.73312
G2 X0.23291 Y5.05422 I0.3225 J0.0
G0 Z0.25
G0 X-0.00355 Y4.91477
G1 F75.0 Z-0.3
G2 F120.0 X0.23291 Y5.05422 Z-0.35 I0.26647 J-0.18165
G2 X0.26292 Y5.05562 I0.03001 J-0.3211
G1 X15.29417
G2 X15.61667 Y4.73312 I0.0 J-0.3225
G1 Y0.04562
G2 X15.48167 Y-0.08938 I-0.135 J0.0
G1 X0.07542
G2 X-0.05958 Y0.04562 I0.0 J0.135
G1 Y4.73312
G2 X0.23291 Y5.05422 I0.3225 J0.0
G1 F75.0 X0.15022 Y5.03528
G2 F120.0 X0.23291 Y5.05422 Z-0.365 I0.1127 J-0.30217
G2 X0.26292 Y5.05562 I0.03001 J-0.3211
G1 X15.29417
G2 X15.61667 Y4.73312 I0.0 J-0.3225
G1 Y0.04562
G2 X15.48167 Y-0.08938 I-0.135 J0.0
G1 X0.07542
G2 X-0.05958 Y0.04562 I0.0 J0.135
G1 Y4.73312
G2 X0.23291 Y5.05422 I0.3225 J0.0
( FinishOuterProfiles )
S2000
G0 Z0.25
G0 X0.81087 Y5.16605
G1 F75.0 Z0.0
G1 F120.0 X0.2805 Z-0.09352
G2 X-0.032 Y5.47855 Z-0.18007 I0.0 J0.3125
G1 Y6.41605 Z-0.34538
G2 X0.093 Y6.54105 Z-0.38 I0.125 J0.0
G1 X15.49925
G2 X15.62425 Y6.41605 I0.0 J-0.125
G1 Y5.47855
G2 X15.31175 Y5.16605 I-0.3125 J0.0
G1 X0.2805
G2 X-0.032 Y5.47855 I0.0 J0.3125
G1 Y6.41605
G2 X0.093 Y6.54105 I0.125 J0.0
G0 Z0.25
G0 X-0.04958 Y3.03962
G1 F75.0 Z0.0
G1 F120.0 Y4.73312 Z-0.29861
G2 X0.23368 Y5.04424 Z-0.38 I0.3125 J0.0
G2 X0.26292 Y5.04562 I0.02924 J-0.31113
G1 X15.29417
G2 X15.60667 Y4.73312 I0.0 J-0.3125
G1 Y0.04562
G2 X15.48167 Y-0.07938 I-0.125 J0.0
G1 X0.07542
G2 X-0.04958 Y0.04562 I0.0 J0.125
G1 Y4.73312
G2 X0.23368 Y5.04424 I0.3125 J0.0
G0 Z0.25
M5
M30
