( Made using CamBam - http://www.cambam.co.uk )
( combinedparts 3/1/2011 9:46:46 PM )
( T0 : 0.125 )
G20 G90 G64 G40
G0 Z0.25
( T0 : 0.125 )
( T0 M6 )
( HoleCounterSinks )
G17
M3 S2000
G0 X1.02578 Y7.00857
G1 F75.0 Z0.0
G3 F120.0 X1.02805 Y7.02253 Z-0.00251 I-0.04173 J0.01396
G3 X0.96205 Y7.06064 Z-0.01875 I-0.044 J0.0
G3 Y6.98443 Z-0.035 I0.022 J-0.03811
G3 X1.02805 Y7.02253 Z-0.05125 I0.022 J0.03811
G3 X0.96205 Y7.06064 Z-0.0675 I-0.044 J0.0
G3 Y6.98443 Z-0.08375 I0.022 J-0.03811
G3 X1.02805 Y7.02253 Z-0.1 I0.022 J0.03811
G3 X0.96205 Y7.06064 I-0.044 J0.0
G3 Y6.98443 I0.022 J-0.03811
G3 X1.02805 Y7.02253 I0.022 J0.03811
G1 F75.0 X1.07805
G3 F120.0 X0.93705 Y7.10394 I-0.094 J0.0
G3 Y6.94113 I0.047 J-0.08141
G3 X1.07805 Y7.02253 I0.047 J0.08141
G0 Z0.25
G0 X0.96847 Y7.06368
G1 F75.0 Z-0.1
G3 F120.0 X0.96205 Y7.06064 Z-0.10125 I0.01558 J-0.04115
G3 Y6.98443 Z-0.1175 I0.022 J-0.03811
G3 X1.02805 Y7.02253 Z-0.13375 I0.022 J0.03811
G3 X0.96205 Y7.06064 Z-0.15 I-0.044 J0.0
G3 Y6.98443 Z-0.16625 I0.022 J-0.03811
G3 X1.02805 Y7.02253 Z-0.1825 I0.022 J0.03811
G3 X0.96205 Y7.06064 I-0.044 J0.0
G3 Y6.98443 I0.022 J-0.03811
G3 X1.02805 Y7.02253 I0.022 J0.03811
G1 F75.0 X1.07805
G3 F120.0 X0.93705 Y7.10394 I-0.094 J0.0
G3 Y6.94113 I0.047 J-0.08141
G3 X1.07805 Y7.02253 I0.047 J0.08141
G1 F75.0 X1.01922 Y6.9961
G3 F120.0 X1.02805 Y7.02253 Z-0.1875 I-0.03517 J0.02643
G3 X0.96205 Y7.06064 I-0.044 J0.0
G3 Y6.98443 I0.022 J-0.03811
G3 X1.02805 Y7.02253 I0.022 J0.03811
G1 F75.0 X1.07805
G3 F120.0 X0.93705 Y7.10394 I-0.094 J0.0
G3 Y6.94113 I0.047 J-0.08141
G3 X1.07805 Y7.02253 I0.047 J0.08141
G0 Z0.25
G0 X0.52496 Y6.53872
G1 F75.0 Z0.0
G3 F120.0 X0.51771 Y6.55087 Z-0.00251 I-0.04091 J-0.01619
G3 X0.46205 Y6.56064 Z-0.01333 I-0.03366 J-0.02833
G3 Y6.48443 Z-0.02958 I0.022 J-0.03811
G3 X0.52805 Y6.52253 Z-0.04582 I0.022 J0.03811
G3 X0.51771 Y6.55087 Z-0.05125 I-0.044 J0.0
G3 X0.46205 Y6.56064 Z-0.06207 I-0.03366 J-0.02833
G3 Y6.48443 Z-0.07832 I0.022 J-0.03811
G3 X0.52805 Y6.52253 Z-0.09457 I0.022 J0.03811
G3 X0.51771 Y6.55087 Z-0.1 I-0.044 J0.0
G3 X0.46205 Y6.56064 I-0.03366 J-0.02833
G3 Y6.48443 I0.022 J-0.03811
G3 X0.52805 Y6.52253 I0.022 J0.03811
G3 X0.51771 Y6.55087 I-0.044 J0.0
G1 F75.0 X0.55596 Y6.58307
G3 F120.0 X0.43705 Y6.60394 I-0.07191 J-0.06053
G3 Y6.44113 I0.047 J-0.08141
G3 X0.57805 Y6.52253 I0.047 J0.08141
G3 X0.55596 Y6.58307 I-0.094 J0.0
G0 Z0.25
G0 X0.44563 Y6.54398
G1 F75.0 Z-0.1
G3 F120.0 X0.46205 Y6.48443 Z-0.11208 I0.03842 J-0.02145
G3 X0.52805 Y6.52253 Z-0.12832 I0.022 J0.03811
G3 X0.51771 Y6.55087 Z-0.13375 I-0.044 J0.0
G3 X0.46205 Y6.56064 Z-0.14457 I-0.03366 J-0.02833
G3 Y6.48443 Z-0.16082 I0.022 J-0.03811
G3 X0.52805 Y6.52253 Z-0.17707 I0.022 J0.03811
G3 X0.51771 Y6.55087 Z-0.1825 I-0.044 J0.0
G3 X0.46205 Y6.56064 I-0.03366 J-0.02833
G3 Y6.48443 I0.022 J-0.03811
G3 X0.52805 Y6.52253 I0.022 J0.03811
G3 X0.51771 Y6.55087 I-0.044 J0.0
G1 F75.0 X0.55596 Y6.58307
G3 F120.0 X0.43705 Y6.60394 I-0.07191 J-0.06053
G3 Y6.44113 I0.047 J-0.08141
G3 X0.57805 Y6.52253 I0.047 J0.08141
G3 X0.55596 Y6.58307 I-0.094 J0.0
G1 F75.0 X0.52798 Y6.52496
G3 F120.0 X0.51771 Y6.55087 Z-0.1875 I-0.04393 J-0.00243
G3 X0.46205 Y6.56064 I-0.03366 J-0.02833
G3 Y6.48443 I0.022 J-0.03811
G3 X0.52805 Y6.52253 I0.022 J0.03811
G3 X0.51771 Y6.55087 I-0.044 J0.0
G1 F75.0 X0.55596 Y6.58307
G3 F120.0 X0.43705 Y6.60394 I-0.07191 J-0.06053
G3 Y6.44113 I0.047 J-0.08141
G3 X0.57805 Y6.52253 I0.047 J0.08141
G3 X0.55596 Y6.58307 I-0.094 J0.0
G0 Z0.25
G0 X0.73939 Y4.91926
G1 F75.0 Z0.0
G3 F120.0 X0.72527 Y4.92011 Z-0.00251 I-0.00966 J-0.04293
G3 X0.70772 Y4.91444 Z-0.00578 I0.00446 J-0.04377
G3 Y4.83823 Z-0.02203 I0.022 J-0.03811
G3 X0.77372 Y4.87634 Z-0.03828 I0.022 J0.03811
G3 X0.72527 Y4.92011 Z-0.05125 I-0.044 J0.0
G3 X0.70772 Y4.91444 Z-0.05453 I0.00446 J-0.04377
G3 Y4.83823 Z-0.07078 I0.022 J-0.03811
G3 X0.77372 Y4.87634 Z-0.08703 I0.022 J0.03811
G3 X0.72527 Y4.92011 Z-0.1 I-0.044 J0.0
G3 X0.70772 Y4.91444 I0.00446 J-0.04377
G3 Y4.83823 I0.022 J-0.03811
G3 X0.77372 Y4.87634 I0.022 J0.03811
G3 X0.72527 Y4.92011 I-0.044 J0.0
G1 F75.0 X0.7202 Y4.96985
G3 F120.0 X0.68272 Y4.95774 I0.00952 J-0.09352
G3 Y4.79493 I0.047 J-0.08141
G3 X0.82372 Y4.87634 I0.047 J0.08141
G3 X0.7202 Y4.96985 I-0.094 J0.0
G0 Z0.25
G0 X0.69036 Y4.85667
G1 F75.0 Z-0.1
G3 F120.0 X0.70772 Y4.83823 Z-0.10453 I0.03936 J0.01967
G3 X0.77372 Y4.87634 Z-0.12078 I0.022 J0.03811
G3 X0.72527 Y4.92011 Z-0.13375 I-0.044 J0.0
G3 X0.70772 Y4.91444 Z-0.13703 I0.00446 J-0.04377
G3 Y4.83823 Z-0.15328 I0.022 J-0.03811
G3 X0.77372 Y4.87634 Z-0.16953 I0.022 J0.03811
G3 X0.72527 Y4.92011 Z-0.1825 I-0.044 J0.0
G3 X0.70772 Y4.91444 I0.00446 J-0.04377
G3 Y4.83823 I0.022 J-0.03811
G3 X0.77372 Y4.87634 I0.022 J0.03811
G3 X0.72527 Y4.92011 I-0.044 J0.0
G1 F75.0 X0.7202 Y4.96985
G3 F120.0 X0.68272 Y4.95774 I0.00952 J-0.09352
G3 Y4.79493 I0.047 J-0.08141
G3 X0.82372 Y4.87634 I0.047 J0.08141
G3 X0.7202 Y4.96985 I-0.094 J0.0
G1 F75.0 X0.75246 Y4.91401
G3 F120.0 X0.72527 Y4.92011 Z-0.1875 I-0.02274 J-0.03767
G3 X0.70772 Y4.91444 I0.00446 J-0.04377
G3 Y4.83823 I0.022 J-0.03811
G3 X0.77372 Y4.87634 I0.022 J0.03811
G3 X0.72527 Y4.92011 I-0.044 J0.0
G1 F75.0 X0.7202 Y4.96985
G3 F120.0 X0.68272 Y4.95774 I0.00952 J-0.09352
G3 Y4.79493 I0.047 J-0.08141
G3 X0.82372 Y4.87634 I0.047 J0.08141
G3 X0.7202 Y4.96985 I-0.094 J0.0
G0 Z0.25
G0 X0.74357 Y1.6681
G1 F75.0 Z0.0
G3 F120.0 X0.7296 Y1.67034 Z-0.00251 I-0.01384 J-0.04177
G3 X0.70772 Y1.66444 Z-0.00655 I0.00013 J-0.044
G3 Y1.58823 Z-0.02279 I0.022 J-0.03811
G3 X0.77372 Y1.62634 Z-0.03904 I0.022 J0.03811
G3 X0.7296 Y1.67034 Z-0.05125 I-0.044 J0.0
G3 X0.70772 Y1.66444 Z-0.05529 I0.00013 J-0.044
G3 Y1.58823 Z-0.07154 I0.022 J-0.03811
G3 X0.77372 Y1.62634 Z-0.08779 I0.022 J0.03811
G3 X0.7296 Y1.67034 Z-0.1 I-0.044 J0.0
G3 X0.70772 Y1.66444 I0.00013 J-0.044
G3 Y1.58823 I0.022 J-0.03811
G3 X0.77372 Y1.62634 I0.022 J0.03811
G3 X0.7296 Y1.67034 I-0.044 J0.0
G1 F75.0 X0.72945 Y1.72034
G3 F120.0 X0.68272 Y1.70774 I0.00027 J-0.094
G3 Y1.54493 I0.047 J-0.08141
G3 X0.82372 Y1.62634 I0.047 J0.08141
G3 X0.72945 Y1.72034 I-0.094 J0.0
G0 Z0.25
G0 X0.68862 Y1.61064
G1 F75.0 Z-0.1
G3 F120.0 X0.70772 Y1.58823 Z-0.10529 I0.04111 J0.0157
G3 X0.77372 Y1.62634 Z-0.12154 I0.022 J0.03811
G3 X0.7296 Y1.67034 Z-0.13375 I-0.044 J0.0
G3 X0.70772 Y1.66444 Z-0.13779 I0.00013 J-0.044
G3 Y1.58823 Z-0.15404 I0.022 J-0.03811
G3 X0.77372 Y1.62634 Z-0.17029 I0.022 J0.03811
G3 X0.7296 Y1.67034 Z-0.1825 I-0.044 J0.0
G3 X0.70772 Y1.66444 I0.00013 J-0.044
G3 Y1.58823 I0.022 J-0.03811
G3 X0.77372 Y1.62634 I0.022 J0.03811
G3 X0.7296 Y1.67034 I-0.044 J0.0
G1 F75.0 X0.72945 Y1.72034
G3 F120.0 X0.68272 Y1.70774 I0.00027 J-0.094
G3 Y1.54493 I0.047 J-0.08141
G3 X0.82372 Y1.62634 I0.047 J0.08141
G3 X0.72945 Y1.72034 I-0.094 J0.0
G1 F75.0 X0.75606 Y1.66159
G3 F120.0 X0.7296 Y1.67034 Z-0.1875 I-0.02633 J-0.03525
G3 X0.70772 Y1.66444 I0.00013 J-0.044
G3 Y1.58823 I0.022 J-0.03811
G3 X0.77372 Y1.62634 I0.022 J0.03811
G3 X0.7296 Y1.67034 I-0.044 J0.0
G1 F75.0 X0.72945 Y1.72034
G3 F120.0 X0.68272 Y1.70774 I0.00027 J-0.094
G3 Y1.54493 I0.047 J-0.08141
G3 X0.82372 Y1.62634 I0.047 J0.08141
G3 X0.72945 Y1.72034 I-0.094 J0.0
G0 Z0.25
G0 X15.68808 Y1.64056
G1 F75.0 Z0.0
G3 F120.0 X15.68572 Y1.62661 Z-0.00251 I0.04164 J-0.01422
G3 X15.70772 Y1.58823 Z-0.01068 I0.044 J-0.00028
G3 X15.77372 Y1.62634 Z-0.02693 I0.022 J0.03811
G3 X15.70772 Y1.66444 Z-0.04318 I-0.044 J0.0
G3 X15.68572 Y1.62661 Z-0.05125 I0.022 J-0.03811
G3 X15.70772 Y1.58823 Z-0.05943 I0.044 J-0.00028
G3 X15.77372 Y1.62634 Z-0.07567 I0.022 J0.03811
G3 X15.70772 Y1.66444 Z-0.09192 I-0.044 J0.0
G3 X15.68572 Y1.62661 Z-0.1 I0.022 J-0.03811
G3 X15.70772 Y1.58823 I0.044 J-0.00028
G3 X15.77372 Y1.62634 I0.022 J0.03811
G3 X15.70772 Y1.66444 I-0.044 J0.0
G3 X15.68572 Y1.62661 I0.022 J-0.03811
G1 F75.0 X15.63572 Y1.62693
G3 F120.0 X15.68272 Y1.54493 I0.094 J-0.00059
G3 X15.82372 Y1.62634 I0.047 J0.08141
G3 X15.68272 Y1.70774 I-0.094 J0.0
G3 X15.63572 Y1.62693 I0.047 J-0.08141
G0 Z0.25
G0 X15.74504 Y1.58509
G1 F75.0 Z-0.1
G3 F120.0 X15.77372 Y1.62634 Z-0.10943 I-0.01532 J0.04125
G3 X15.70772 Y1.66444 Z-0.12568 I-0.044 J0.0
G3 X15.68572 Y1.62661 Z-0.13375 I0.022 J-0.03811
G3 X15.70772 Y1.58823 Z-0.14193 I0.044 J-0.00028
G3 X15.77372 Y1.62634 Z-0.15817 I0.022 J0.03811
G3 X15.70772 Y1.66444 Z-0.17442 I-0.044 J0.0
G3 X15.68572 Y1.62661 Z-0.1825 I0.022 J-0.03811
G3 X15.70772 Y1.58823 I0.044 J-0.00028
G3 X15.77372 Y1.62634 I0.022 J0.03811
G3 X15.70772 Y1.66444 I-0.044 J0.0
G3 X15.68572 Y1.62661 I0.022 J-0.03811
G1 F75.0 X15.63572 Y1.62693
G3 F120.0 X15.68272 Y1.54493 I0.094 J-0.00059
G3 X15.82372 Y1.62634 I0.047 J0.08141
G3 X15.68272 Y1.70774 I-0.094 J0.0
G3 X15.63572 Y1.62693 I0.047 J-0.08141
G1 F75.0 X15.69471 Y1.65299
G3 F120.0 X15.68572 Y1.62661 Z-0.1875 I0.03501 J-0.02665
G3 X15.70772 Y1.58823 I0.044 J-0.00028
G3 X15.77372 Y1.62634 I0.022 J0.03811
G3 X15.70772 Y1.66444 I-0.044 J0.0
G3 X15.68572 Y1.62661 I0.022 J-0.03811
G1 F75.0 X15.63572 Y1.62693
G3 F120.0 X15.68272 Y1.54493 I0.094 J-0.00059
G3 X15.82372 Y1.62634 I0.047 J0.08141
G3 X15.68272 Y1.70774 I-0.094 J0.0
G3 X15.63572 Y1.62693 I0.047 J-0.08141
G0 Z0.25
G0 X15.71456 Y4.83503
G1 F75.0 Z0.0
G3 F120.0 X15.72845 Y4.83236 Z-0.00251 I0.01516 J0.0413
G3 X15.77372 Y4.87634 Z-0.01492 I0.00127 J0.04398
G3 X15.70772 Y4.91444 Z-0.03117 I-0.044 J0.0
G3 Y4.83823 Z-0.04741 I0.022 J-0.03811
G3 X15.72845 Y4.83236 Z-0.05125 I0.022 J0.03811
G3 X15.77372 Y4.87634 Z-0.06366 I0.00127 J0.04398
G3 X15.70772 Y4.91444 Z-0.07991 I-0.044 J0.0
G3 Y4.83823 Z-0.09616 I0.022 J-0.03811
G3 X15.72845 Y4.83236 Z-0.1 I0.022 J0.03811
G3 X15.77372 Y4.87634 I0.00127 J0.04398
G3 X15.70772 Y4.91444 I-0.044 J0.0
G3 Y4.83823 I0.022 J-0.03811
G3 X15.72845 Y4.83236 I0.022 J0.03811
G1 F75.0 X15.727 Y4.78238
G3 F120.0 X15.82372 Y4.87634 I0.00272 J0.09396
G3 X15.68272 Y4.95774 I-0.094 J0.0
G3 Y4.79493 I0.047 J-0.08141
G3 X15.727 Y4.78238 I0.047 J0.08141
G0 Z0.25
G0 X15.77131 Y4.89072
G1 F75.0 Z-0.1
G3 F120.0 X15.70772 Y4.91444 Z-0.11367 I-0.04158 J-0.01438
G3 Y4.83823 Z-0.12991 I0.022 J-0.03811
G3 X15.72845 Y4.83236 Z-0.13375 I0.022 J0.03811
G3 X15.77372 Y4.87634 Z-0.14616 I0.00127 J0.04398
G3 X15.70772 Y4.91444 Z-0.16241 I-0.044 J0.0
G3 Y4.83823 Z-0.17866 I0.022 J-0.03811
G3 X15.72845 Y4.83236 Z-0.1825 I0.022 J0.03811
G3 X15.77372 Y4.87634 I0.00127 J0.04398
G3 X15.70772 Y4.91444 I-0.044 J0.0
G3 Y4.83823 I0.022 J-0.03811
G3 X15.72845 Y4.83236 I0.022 J0.03811
G1 F75.0 X15.727 Y4.78238
G3 F120.0 X15.82372 Y4.87634 I0.00272 J0.09396
G3 X15.68272 Y4.95774 I-0.094 J0.0
G3 Y4.79493 I0.047 J-0.08141
G3 X15.727 Y4.78238 I0.047 J0.08141
G1 F75.0 X15.70228 Y4.84194
G3 F120.0 X15.70772 Y4.83823 Z-0.18366 I0.02744 J0.0344
G3 X15.72845 Y4.83236 Z-0.1875 I0.022 J0.03811
G3 X15.77372 Y4.87634 I0.00127 J0.04398
G3 X15.70772 Y4.91444 I-0.044 J0.0
G3 Y4.83823 I0.022 J-0.03811
G3 X15.72845 Y4.83236 I0.022 J0.03811
G1 F75.0 X15.727 Y4.78238
G3 F120.0 X15.82372 Y4.87634 I0.00272 J0.09396
G3 X15.68272 Y4.95774 I-0.094 J0.0
G3 Y4.79493 I0.047 J-0.08141
G3 X15.727 Y4.78238 I0.047 J0.08141
G0 Z0.25
G0 X15.96414 Y6.4833
G1 F75.0 Z0.0
G3 F120.0 X15.97762 Y6.47901 Z-0.00251 I0.01991 J0.03924
G3 X16.02805 Y6.52253 Z-0.01583 I0.00643 J0.04353
G3 X15.96205 Y6.56064 Z-0.03208 I-0.044 J0.0
G3 Y6.48443 Z-0.04833 I0.022 J-0.03811
G3 X15.97762 Y6.47901 Z-0.05125 I0.022 J0.03811
G3 X16.02805 Y6.52253 Z-0.06458 I0.00643 J0.04353
G3 X15.96205 Y6.56064 Z-0.08083 I-0.044 J0.0
G3 Y6.48443 Z-0.09708 I0.022 J-0.03811
G3 X15.97762 Y6.47901 Z-0.1 I0.022 J0.03811
G3 X16.02805 Y6.52253 I0.00643 J0.04353
G3 X15.96205 Y6.56064 I-0.044 J0.0
G3 Y6.48443 I0.022 J-0.03811
G3 X15.97762 Y6.47901 I0.022 J0.03811
G1 F75.0 X15.97031 Y6.42954
G3 F120.0 X16.07805 Y6.52253 I0.01374 J0.09299
G3 X15.93705 Y6.60394 I-0.094 J0.0
G3 Y6.44113 I0.047 J-0.08141
G3 X15.97031 Y6.42954 I0.047 J0.08141
G0 Z0.25
G0 X16.02703 Y6.53193
G1 F75.0 Z-0.1
G3 F120.0 X15.96205 Y6.56064 Z-0.11458 I-0.04298 J-0.0094
G3 Y6.48443 Z-0.13083 I0.022 J-0.03811
G3 X15.97762 Y6.47901 Z-0.13375 I0.022 J0.03811
G3 X16.02805 Y6.52253 Z-0.14708 I0.00643 J0.04353
G3 X15.96205 Y6.56064 Z-0.16333 I-0.044 J0.0
G3 Y6.48443 Z-0.17958 I0.022 J-0.03811
G3 X15.97762 Y6.47901 Z-0.1825 I0.022 J0.03811
G3 X16.02805 Y6.52253 I0.00643 J0.04353
G3 X15.96205 Y6.56064 I-0.044 J0.0
G3 Y6.48443 I0.022 J-0.03811
G3 X15.97762 Y6.47901 I0.022 J0.03811
G1 F75.0 X15.97031 Y6.42954
G3 F120.0 X16.07805 Y6.52253 I0.01374 J0.09299
G3 X15.93705 Y6.60394 I-0.094 J0.0
G3 Y6.44113 I0.047 J-0.08141
G3 X15.97031 Y6.42954 I0.047 J0.08141
G1 F75.0 X15.95276 Y6.4916
G3 F120.0 X15.96205 Y6.48443 Z-0.18458 I0.03129 J0.03093
G3 X15.97762 Y6.47901 Z-0.1875 I0.022 J0.03811
G3 X16.02805 Y6.52253 I0.00643 J0.04353
G3 X15.96205 Y6.56064 I-0.044 J0.0
G3 Y6.48443 I0.022 J-0.03811
G3 X15.97762 Y6.47901 I0.022 J0.03811
G1 F75.0 X15.97031 Y6.42954
G3 F120.0 X16.07805 Y6.52253 I0.01374 J0.09299
G3 X15.93705 Y6.60394 I-0.094 J0.0
G3 Y6.44113 I0.047 J-0.08141
G3 X15.97031 Y6.42954 I0.047 J0.08141
G0 Z0.25
G0 X15.49971 Y6.98142
G1 F75.0 Z0.0
G3 F120.0 X15.51195 Y6.98851 Z-0.00251 I-0.01566 J0.04112
G3 X15.52805 Y7.02253 Z-0.00936 I-0.0279 J0.03402
G3 X15.46205 Y7.06064 Z-0.02561 I-0.044 J0.0
G3 Y6.98443 Z-0.04186 I0.022 J-0.03811
G3 X15.51195 Y6.98851 Z-0.05125 I0.022 J0.03811
G3 X15.52805 Y7.02253 Z-0.05811 I-0.0279 J0.03402
G3 X15.46205 Y7.06064 Z-0.07436 I-0.044 J0.0
G3 Y6.98443 Z-0.09061 I0.022 J-0.03811
G3 X15.51195 Y6.98851 Z-0.1 I0.022 J0.03811
G3 X15.52805 Y7.02253 I-0.0279 J0.03402
G3 X15.46205 Y7.06064 I-0.044 J0.0
G3 Y6.98443 I0.022 J-0.03811
G3 X15.51195 Y6.98851 I0.022 J0.03811
G1 F75.0 X15.54365 Y6.94985
G3 F120.0 X15.57805 Y7.02253 I-0.0596 J0.07269
G3 X15.43705 Y7.10394 I-0.094 J0.0
G3 Y6.94113 I0.047 J-0.08141
G3 X15.54365 Y6.94985 I0.047 J0.08141
G0 Z0.25
G0 X15.50599 Y7.06067
G1 F75.0 Z-0.1
G3 F120.0 X15.46205 Y7.06064 Z-0.10811 I-0.02194 J-0.03814
G3 Y6.98443 Z-0.12436 I0.022 J-0.03811
G3 X15.51195 Y6.98851 Z-0.13375 I0.022 J0.03811
G3 X15.52805 Y7.02253 Z-0.14061 I-0.0279 J0.03402
G3 X15.46205 Y7.06064 Z-0.15686 I-0.044 J0.0
G3 Y6.98443 Z-0.17311 I0.022 J-0.03811
G3 X15.51195 Y6.98851 Z-0.1825 I0.022 J0.03811
G3 X15.52805 Y7.02253 I-0.0279 J0.03402
G3 X15.46205 Y7.06064 I-0.044 J0.0
G3 Y6.98443 I0.022 J-0.03811
G3 X15.51195 Y6.98851 I0.022 J0.03811
G1 F75.0 X15.54365 Y6.94985
G3 F120.0 X15.57805 Y7.02253 I-0.0596 J0.07269
G3 X15.43705 Y7.10394 I-0.094 J0.0
G3 Y6.94113 I0.047 J-0.08141
G3 X15.54365 Y6.94985 I0.047 J0.08141
G1 F75.0 X15.48591 Y6.97857
G3 F120.0 X15.51195 Y6.98851 Z-0.1875 I-0.00186 J0.04396
G3 X15.52805 Y7.02253 I-0.0279 J0.03402
G3 X15.46205 Y7.06064 I-0.044 J0.0
G3 Y6.98443 I0.022 J-0.03811
G3 X15.51195 Y6.98851 I0.022 J0.03811
G1 F75.0 X15.54365 Y6.94985
G3 F120.0 X15.57805 Y7.02253 I-0.0596 J0.07269
G3 X15.43705 Y7.10394 I-0.094 J0.0
G3 Y6.94113 I0.047 J-0.08141
G3 X15.54365 Y6.94985 I0.047 J0.08141
( HolesThru )
S2000
G0 Z0.25
G0 X0.96483 Y7.03852
G1 F75.0 Z0.0
G3 F120.0 X0.97155 Y7.00088 Z-0.00768 I0.01922 J-0.01599
G3 X1.00905 Y7.02253 Z-0.01691 I0.0125 J0.02165
G3 X0.97155 Y7.04419 Z-0.02614 I-0.025 J0.0
G3 Y7.00088 Z-0.03537 I0.0125 J-0.02165
G3 X1.00905 Y7.02253 Z-0.04461 I0.0125 J0.02165
G3 X0.97155 Y7.04419 Z-0.05384 I-0.025 J0.0
G3 Y7.00088 Z-0.06307 I0.0125 J-0.02165
G3 X1.00905 Y7.02253 Z-0.0723 I0.0125 J0.02165
G3 X0.97155 Y7.04419 Z-0.08154 I-0.025 J0.0
G3 Y7.00088 Z-0.09077 I0.0125 J-0.02165
G3 X1.00905 Y7.02253 Z-0.1 I0.0125 J0.02165
G3 X0.97155 Y7.04419 I-0.025 J0.0
G3 Y7.00088 I0.0125 J-0.02165
G3 X1.00905 Y7.02253 I0.0125 J0.02165
G1 F75.0 X0.96483 Y7.03852
G3 F120.0 X0.97155 Y7.00088 Z-0.10768 I0.01922 J-0.01599
G3 X1.00905 Y7.02253 Z-0.11691 I0.0125 J0.02165
G3 X0.97155 Y7.04419 Z-0.12614 I-0.025 J0.0
G3 Y7.00088 Z-0.13537 I0.0125 J-0.02165
G3 X1.00905 Y7.02253 Z-0.14461 I0.0125 J0.02165
G3 X0.97155 Y7.04419 Z-0.15384 I-0.025 J0.0
G3 Y7.00088 Z-0.16307 I0.0125 J-0.02165
G3 X1.00905 Y7.02253 Z-0.1723 I0.0125 J0.02165
G3 X0.97155 Y7.04419 Z-0.18154 I-0.025 J0.0
G3 Y7.00088 Z-0.19077 I0.0125 J-0.02165
G3 X1.00905 Y7.02253 Z-0.2 I0.0125 J0.02165
G3 X0.97155 Y7.04419 I-0.025 J0.0
G3 Y7.00088 I0.0125 J-0.02165
G3 X1.00905 Y7.02253 I0.0125 J0.02165
G1 F75.0 X0.96483 Y7.03852
G3 F120.0 X0.97155 Y7.00088 Z-0.20768 I0.01922 J-0.01599
G3 X1.00905 Y7.02253 Z-0.21691 I0.0125 J0.02165
G3 X0.97155 Y7.04419 Z-0.22614 I-0.025 J0.0
G3 Y7.00088 Z-0.23537 I0.0125 J-0.02165
G3 X1.00905 Y7.02253 Z-0.24461 I0.0125 J0.02165
G3 X0.97155 Y7.04419 Z-0.25384 I-0.025 J0.0
G3 Y7.00088 Z-0.26307 I0.0125 J-0.02165
G3 X1.00905 Y7.02253 Z-0.2723 I0.0125 J0.02165
G3 X0.97155 Y7.04419 Z-0.28154 I-0.025 J0.0
G3 Y7.00088 Z-0.29077 I0.0125 J-0.02165
G3 X1.00905 Y7.02253 Z-0.3 I0.0125 J0.02165
G3 X0.97155 Y7.04419 I-0.025 J0.0
G3 Y7.00088 I0.0125 J-0.02165
G3 X1.00905 Y7.02253 I0.0125 J0.02165
G1 F75.0 X0.96057 Y7.01394
G3 F120.0 X0.97155 Y7.00088 Z-0.30307 I0.02348 J0.00859
G3 X1.00905 Y7.02253 Z-0.3123 I0.0125 J0.02165
G3 X0.97155 Y7.04419 Z-0.32154 I-0.025 J0.0
G3 Y7.00088 Z-0.33077 I0.0125 J-0.02165
G3 X1.00905 Y7.02253 Z-0.34 I0.0125 J0.02165
G3 X0.97155 Y7.04419 I-0.025 J0.0
G3 Y7.00088 I0.0125 J-0.02165
G3 X1.00905 Y7.02253 I0.0125 J0.02165
G1 F75.0 X0.99255 Y7.04604
G3 F120.0 X0.97155 Y7.04419 Z-0.34384 I-0.0085 J-0.02351
G3 Y7.00088 Z-0.35307 I0.0125 J-0.02165
G3 X1.00905 Y7.02253 Z-0.3623 I0.0125 J0.02165
G3 X0.97155 Y7.04419 Z-0.37154 I-0.025 J0.0
G3 Y7.00088 Z-0.38077 I0.0125 J-0.02165
G3 X1.00905 Y7.02253 Z-0.39 I0.0125 J0.02165
G3 X0.97155 Y7.04419 I-0.025 J0.0
G3 Y7.00088 I0.0125 J-0.02165
G3 X1.00905 Y7.02253 I0.0125 J0.02165
G1 F75.0 X1.01905
G3 F120.0 X0.96655 Y7.05285 I-0.035 J0.0
G3 Y6.99222 I0.0175 J-0.03031
G3 X1.01905 Y7.02253 I0.0175 J0.03031
G0 Z0.25
G0 X0.45909 Y6.52109
G1 F75.0 Z0.0
G3 F120.0 X0.47155 Y6.50088 Z-0.00436 I0.02496 J0.00144
G3 X0.50905 Y6.52253 Z-0.01359 I0.0125 J0.02165
G3 X0.50231 Y6.5396 Z-0.01691 I-0.025 J0.0
G3 X0.47155 Y6.54419 Z-0.02283 I-0.01827 J-0.01707
G3 Y6.50088 Z-0.03206 I0.0125 J-0.02165
G3 X0.50905 Y6.52253 Z-0.04129 I0.0125 J0.02165
G3 X0.50231 Y6.5396 Z-0.04461 I-0.025 J0.0
G3 X0.47155 Y6.54419 Z-0.05052 I-0.01827 J-0.01707
G3 Y6.50088 Z-0.05976 I0.0125 J-0.02165
G3 X0.50905 Y6.52253 Z-0.06899 I0.0125 J0.02165
G3 X0.50231 Y6.5396 Z-0.0723 I-0.025 J0.0
G3 X0.47155 Y6.54419 Z-0.07822 I-0.01827 J-0.01707
G3 Y6.50088 Z-0.08745 I0.0125 J-0.02165
G3 X0.50905 Y6.52253 Z-0.09669 I0.0125 J0.02165
G3 X0.50231 Y6.5396 Z-0.1 I-0.025 J0.0
G3 X0.47155 Y6.54419 I-0.01827 J-0.01707
G3 Y6.50088 I0.0125 J-0.02165
G3 X0.50905 Y6.52253 I0.0125 J0.02165
G3 X0.50231 Y6.5396 I-0.025 J0.0
G1 F75.0 X0.45909 Y6.52109
G3 F120.0 X0.47155 Y6.50088 Z-0.10436 I0.02496 J0.00144
G3 X0.50905 Y6.52253 Z-0.11359 I0.0125 J0.02165
G3 X0.50231 Y6.5396 Z-0.11691 I-0.025 J0.0
G3 X0.47155 Y6.54419 Z-0.12283 I-0.01827 J-0.01707
G3 Y6.50088 Z-0.13206 I0.0125 J-0.02165
G3 X0.50905 Y6.52253 Z-0.14129 I0.0125 J0.02165
G3 X0.50231 Y6.5396 Z-0.14461 I-0.025 J0.0
G3 X0.47155 Y6.54419 Z-0.15052 I-0.01827 J-0.01707
G3 Y6.50088 Z-0.15976 I0.0125 J-0.02165
G3 X0.50905 Y6.52253 Z-0.16899 I0.0125 J0.02165
G3 X0.50231 Y6.5396 Z-0.1723 I-0.025 J0.0
G3 X0.47155 Y6.54419 Z-0.17822 I-0.01827 J-0.01707
G3 Y6.50088 Z-0.18745 I0.0125 J-0.02165
G3 X0.50905 Y6.52253 Z-0.19669 I0.0125 J0.02165
G3 X0.50231 Y6.5396 Z-0.2 I-0.025 J0.0
G3 X0.47155 Y6.54419 I-0.01827 J-0.01707
G3 Y6.50088 I0.0125 J-0.02165
G3 X0.50905 Y6.52253 I0.0125 J0.02165
G3 X0.50231 Y6.5396 I-0.025 J0.0
G1 F75.0 X0.45909 Y6.52109
G3 F120.0 X0.47155 Y6.50088 Z-0.20436 I0.02496 J0.00144
G3 X0.50905 Y6.52253 Z-0.21359 I0.0125 J0.02165
G3 X0.50231 Y6.5396 Z-0.21691 I-0.025 J0.0
G3 X0.47155 Y6.54419 Z-0.22283 I-0.01827 J-0.01707
G3 Y6.50088 Z-0.23206 I0.0125 J-0.02165
G3 X0.50905 Y6.52253 Z-0.24129 I0.0125 J0.02165
G3 X0.50231 Y6.5396 Z-0.24461 I-0.025 J0.0
G3 X0.47155 Y6.54419 Z-0.25052 I-0.01827 J-0.01707
G3 Y6.50088 Z-0.25976 I0.0125 J-0.02165
G3 X0.50905 Y6.52253 Z-0.26899 I0.0125 J0.02165
G3 X0.50231 Y6.5396 Z-0.2723 I-0.025 J0.0
G3 X0.47155 Y6.54419 Z-0.27822 I-0.01827 J-0.01707
G3 Y6.50088 Z-0.28745 I0.0125 J-0.02165
G3 X0.50905 Y6.52253 Z-0.29669 I0.0125 J0.02165
G3 X0.50231 Y6.5396 Z-0.3 I-0.025 J0.0
G3 X0.47155 Y6.54419 I-0.01827 J-0.01707
G3 Y6.50088 I0.0125 J-0.02165
G3 X0.50905 Y6.52253 I0.0125 J0.02165
G3 X0.50231 Y6.5396 I-0.025 J0.0
G1 F75.0 X0.47276 Y6.50023
G3 F120.0 X0.50905 Y6.52253 Z-0.30899 I0.01129 J0.02231
G3 X0.50231 Y6.5396 Z-0.3123 I-0.025 J0.0
G3 X0.47155 Y6.54419 Z-0.31822 I-0.01827 J-0.01707
G3 Y6.50088 Z-0.32745 I0.0125 J-0.02165
G3 X0.50905 Y6.52253 Z-0.33669 I0.0125 J0.02165
G3 X0.50231 Y6.5396 Z-0.34 I-0.025 J0.0
G3 X0.47155 Y6.54419 I-0.01827 J-0.01707
G3 Y6.50088 I0.0125 J-0.02165
G3 X0.50905 Y6.52253 I0.0125 J0.02165
G3 X0.50231 Y6.5396 I-0.025 J0.0
G1 F75.0 X0.47421 Y6.54552
G3 F120.0 X0.47155 Y6.54419 Z-0.34052 I0.00984 J-0.02298
G3 Y6.50088 Z-0.34976 I0.0125 J-0.02165
G3 X0.50905 Y6.52253 Z-0.35899 I0.0125 J0.02165
G3 X0.50231 Y6.5396 Z-0.3623 I-0.025 J0.0
G3 X0.47155 Y6.54419 Z-0.36822 I-0.01827 J-0.01707
G3 Y6.50088 Z-0.37745 I0.0125 J-0.02165
G3 X0.50905 Y6.52253 Z-0.38669 I0.0125 J0.02165
G3 X0.50231 Y6.5396 Z-0.39 I-0.025 J0.0
G3 X0.47155 Y6.54419 I-0.01827 J-0.01707
G3 Y6.50088 I0.0125 J-0.02165
G3 X0.50905 Y6.52253 I0.0125 J0.02165
G3 X0.50231 Y6.5396 I-0.025 J0.0
G1 F75.0 X0.50962 Y6.54643
G3 F120.0 X0.46655 Y6.55285 I-0.02557 J-0.0239
G3 Y6.49222 I0.0175 J-0.03031
G3 X0.51905 Y6.52253 I0.0175 J0.03031
G3 X0.50962 Y6.54643 I-0.035 J0.0
G0 Z0.25
G0 X0.70877 Y4.86364
G1 F75.0 Z0.0
G3 F120.0 X0.71747 Y4.85512 Z-0.00217 I0.02095 J0.0127
G3 X0.75422 Y4.87634 Z-0.01122 I0.01225 J0.02122
G3 X0.72652 Y4.90063 Z-0.01857 I-0.0245 J0.0
G3 X0.71747 Y4.89756 Z-0.02027 I0.0032 J-0.02429
G3 Y4.85512 Z-0.02931 I0.01225 J-0.02122
G3 X0.75422 Y4.87634 Z-0.03836 I0.01225 J0.02122
G3 X0.72652 Y4.90063 Z-0.04571 I-0.0245 J0.0
G3 X0.71747 Y4.89756 Z-0.04741 I0.0032 J-0.02429
G3 Y4.85512 Z-0.05646 I0.01225 J-0.02122
G3 X0.75422 Y4.87634 Z-0.0655 I0.01225 J0.02122
G3 X0.72652 Y4.90063 Z-0.07286 I-0.0245 J0.0
G3 X0.71747 Y4.89756 Z-0.07455 I0.0032 J-0.02429
G3 Y4.85512 Z-0.0836 I0.01225 J-0.02122
G3 X0.75422 Y4.87634 Z-0.09265 I0.01225 J0.02122
G3 X0.72652 Y4.90063 Z-0.1 I-0.0245 J0.0
G3 X0.71747 Y4.89756 I0.0032 J-0.02429
G3 Y4.85512 I0.01225 J-0.02122
G3 X0.75422 Y4.87634 I0.01225 J0.02122
G3 X0.72652 Y4.90063 I-0.0245 J0.0
G1 F75.0 X0.70877 Y4.86364
G3 F120.0 X0.71747 Y4.85512 Z-0.10217 I0.02095 J0.0127
G3 X0.75422 Y4.87634 Z-0.11122 I0.01225 J0.02122
G3 X0.72652 Y4.90063 Z-0.11857 I-0.0245 J0.0
G3 X0.71747 Y4.89756 Z-0.12027 I0.0032 J-0.02429
G3 Y4.85512 Z-0.12931 I0.01225 J-0.02122
G3 X0.75422 Y4.87634 Z-0.13836 I0.01225 J0.02122
G3 X0.72652 Y4.90063 Z-0.14571 I-0.0245 J0.0
G3 X0.71747 Y4.89756 Z-0.14741 I0.0032 J-0.02429
G3 Y4.85512 Z-0.15646 I0.01225 J-0.02122
G3 X0.75422 Y4.87634 Z-0.1655 I0.01225 J0.02122
G3 X0.72652 Y4.90063 Z-0.17286 I-0.0245 J0.0
G3 X0.71747 Y4.89756 Z-0.17455 I0.0032 J-0.02429
G3 Y4.85512 Z-0.1836 I0.01225 J-0.02122
G3 X0.75422 Y4.87634 Z-0.19265 I0.01225 J0.02122
G3 X0.72652 Y4.90063 Z-0.2 I-0.0245 J0.0
G3 X0.71747 Y4.89756 I0.0032 J-0.02429
G3 Y4.85512 I0.01225 J-0.02122
G3 X0.75422 Y4.87634 I0.01225 J0.02122
G3 X0.72652 Y4.90063 I-0.0245 J0.0
G1 F75.0 X0.70877 Y4.86364
G3 F120.0 X0.71747 Y4.85512 Z-0.20217 I0.02095 J0.0127
G3 X0.75422 Y4.87634 Z-0.21122 I0.01225 J0.02122
G3 X0.72652 Y4.90063 Z-0.21857 I-0.0245 J0.0
G3 X0.71747 Y4.89756 Z-0.22027 I0.0032 J-0.02429
G3 Y4.85512 Z-0.22931 I0.01225 J-0.02122
G3 X0.75422 Y4.87634 Z-0.23836 I0.01225 J0.02122
G3 X0.72652 Y4.90063 Z-0.24571 I-0.0245 J0.0
G3 X0.71747 Y4.89756 Z-0.24741 I0.0032 J-0.02429
G3 Y4.85512 Z-0.25646 I0.01225 J-0.02122
G3 X0.75422 Y4.87634 Z-0.2655 I0.01225 J0.02122
G3 X0.72652 Y4.90063 Z-0.27286 I-0.0245 J0.0
G3 X0.71747 Y4.89756 Z-0.27455 I0.0032 J-0.02429
G3 Y4.85512 Z-0.2836 I0.01225 J-0.02122
G3 X0.75422 Y4.87634 Z-0.29265 I0.01225 J0.02122
G3 X0.72652 Y4.90063 Z-0.3 I-0.0245 J0.0
G3 X0.71747 Y4.89756 I0.0032 J-0.02429
G3 Y4.85512 I0.01225 J-0.02122
G3 X0.75422 Y4.87634 I0.01225 J0.02122
G3 X0.72652 Y4.90063 I-0.0245 J0.0
G1 F75.0 X0.73688 Y4.85291
G3 F120.0 X0.75422 Y4.87634 Z-0.3055 I-0.00716 J0.02343
G3 X0.72652 Y4.90063 Z-0.31286 I-0.0245 J0.0
G3 X0.71747 Y4.89756 Z-0.31455 I0.0032 J-0.02429
G3 Y4.85512 Z-0.3236 I0.01225 J-0.02122
G3 X0.75422 Y4.87634 Z-0.33265 I0.01225 J0.02122
G3 X0.72652 Y4.90063 Z-0.34 I-0.0245 J0.0
G3 X0.71747 Y4.89756 I0.0032 J-0.02429
G3 Y4.85512 I0.01225 J-0.02122
G3 X0.75422 Y4.87634 I0.01225 J0.02122
G3 X0.72652 Y4.90063 I-0.0245 J0.0
G1 F75.0 X0.70763 Y4.88694
G3 F120.0 X0.71747 Y4.85512 Z-0.34646 I0.02209 J-0.0106
G3 X0.75422 Y4.87634 Z-0.3555 I0.01225 J0.02122
G3 X0.72652 Y4.90063 Z-0.36286 I-0.0245 J0.0
G3 X0.71747 Y4.89756 Z-0.36455 I0.0032 J-0.02429
G3 Y4.85512 Z-0.3736 I0.01225 J-0.02122
G3 X0.75422 Y4.87634 Z-0.38265 I0.01225 J0.02122
G3 X0.72652 Y4.90063 Z-0.39 I-0.0245 J0.0
G3 X0.71747 Y4.89756 I0.0032 J-0.02429
G3 Y4.85512 I0.01225 J-0.02122
G3 X0.75422 Y4.87634 I0.01225 J0.02122
G3 X0.72652 Y4.90063 I-0.0245 J0.0
G1 F75.0 X0.72521 Y4.91054
G3 F120.0 X0.71247 Y4.90622 I0.00451 J-0.0342
G3 Y4.84646 I0.01725 J-0.02988
G3 X0.76422 Y4.87634 I0.01725 J0.02988
G3 X0.72521 Y4.91054 I-0.0345 J0.0
G0 Z0.25
G0 X0.7073 Y1.61645
G1 F75.0 Z0.0
G3 F120.0 X0.71747 Y1.60512 Z-0.00273 I0.02242 J0.00988
G3 X0.75422 Y1.62634 Z-0.01178 I0.01225 J0.02122
G3 X0.72969 Y1.65084 Z-0.01857 I-0.0245 J0.0
G3 X0.71747 Y1.64756 Z-0.02083 I0.00003 J-0.0245
G3 Y1.60512 Z-0.02987 I0.01225 J-0.02122
G3 X0.75422 Y1.62634 Z-0.03892 I0.01225 J0.02122
G3 X0.72969 Y1.65084 Z-0.04571 I-0.0245 J0.0
G3 X0.71747 Y1.64756 Z-0.04797 I0.00003 J-0.0245
G3 Y1.60512 Z-0.05702 I0.01225 J-0.02122
G3 X0.75422 Y1.62634 Z-0.06606 I0.01225 J0.02122
G3 X0.72969 Y1.65084 Z-0.07286 I-0.0245 J0.0
G3 X0.71747 Y1.64756 Z-0.07511 I0.00003 J-0.0245
G3 Y1.60512 Z-0.08416 I0.01225 J-0.02122
G3 X0.75422 Y1.62634 Z-0.09321 I0.01225 J0.02122
G3 X0.72969 Y1.65084 Z-0.1 I-0.0245 J0.0
G3 X0.71747 Y1.64756 I0.00003 J-0.0245
G3 Y1.60512 I0.01225 J-0.02122
G3 X0.75422 Y1.62634 I0.01225 J0.02122
G3 X0.72969 Y1.65084 I-0.0245 J0.0
G1 F75.0 X0.7073 Y1.61645
G3 F120.0 X0.71747 Y1.60512 Z-0.10273 I0.02242 J0.00988
G3 X0.75422 Y1.62634 Z-0.11178 I0.01225 J0.02122
G3 X0.72969 Y1.65084 Z-0.11857 I-0.0245 J0.0
G3 X0.71747 Y1.64756 Z-0.12083 I0.00003 J-0.0245
G3 Y1.60512 Z-0.12987 I0.01225 J-0.02122
G3 X0.75422 Y1.62634 Z-0.13892 I0.01225 J0.02122
G3 X0.72969 Y1.65084 Z-0.14571 I-0.0245 J0.0
G3 X0.71747 Y1.64756 Z-0.14797 I0.00003 J-0.0245
G3 Y1.60512 Z-0.15702 I0.01225 J-0.02122
G3 X0.75422 Y1.62634 Z-0.16606 I0.01225 J0.02122
G3 X0.72969 Y1.65084 Z-0.17286 I-0.0245 J0.0
G3 X0.71747 Y1.64756 Z-0.17511 I0.00003 J-0.0245
G3 Y1.60512 Z-0.18416 I0.01225 J-0.02122
G3 X0.75422 Y1.62634 Z-0.19321 I0.01225 J0.02122
G3 X0.72969 Y1.65084 Z-0.2 I-0.0245 J0.0
G3 X0.71747 Y1.64756 I0.00003 J-0.0245
G3 Y1.60512 I0.01225 J-0.02122
G3 X0.75422 Y1.62634 I0.01225 J0.02122
G3 X0.72969 Y1.65084 I-0.0245 J0.0
G1 F75.0 X0.7073 Y1.61645
G3 F120.0 X0.71747 Y1.60512 Z-0.20273 I0.02242 J0.00988
G3 X0.75422 Y1.62634 Z-0.21178 I0.01225 J0.02122
G3 X0.72969 Y1.65084 Z-0.21857 I-0.0245 J0.0
G3 X0.71747 Y1.64756 Z-0.22083 I0.00003 J-0.0245
G3 Y1.60512 Z-0.22987 I0.01225 J-0.02122
G3 X0.75422 Y1.62634 Z-0.23892 I0.01225 J0.02122
G3 X0.72969 Y1.65084 Z-0.24571 I-0.0245 J0.0
G3 X0.71747 Y1.64756 Z-0.24797 I0.00003 J-0.0245
G3 Y1.60512 Z-0.25702 I0.01225 J-0.02122
G3 X0.75422 Y1.62634 Z-0.26606 I0.01225 J0.02122
G3 X0.72969 Y1.65084 Z-0.27286 I-0.0245 J0.0
G3 X0.71747 Y1.64756 Z-0.27511 I0.00003 J-0.0245
G3 Y1.60512 Z-0.28416 I0.01225 J-0.02122
G3 X0.75422 Y1.62634 Z-0.29321 I0.01225 J0.02122
G3 X0.72969 Y1.65084 Z-0.3 I-0.0245 J0.0
G3 X0.71747 Y1.64756 I0.00003 J-0.0245
G3 Y1.60512 I0.01225 J-0.02122
G3 X0.75422 Y1.62634 I0.01225 J0.02122
G3 X0.72969 Y1.65084 I-0.0245 J0.0
G1 F75.0 X0.73379 Y1.60218
G3 F120.0 X0.75422 Y1.62634 Z-0.30606 I-0.00407 J0.02416
G3 X0.72969 Y1.65084 Z-0.31286 I-0.0245 J0.0
G3 X0.71747 Y1.64756 Z-0.31511 I0.00003 J-0.0245
G3 Y1.60512 Z-0.32416 I0.01225 J-0.02122
G3 X0.75422 Y1.62634 Z-0.33321 I0.01225 J0.02122
G3 X0.72969 Y1.65084 Z-0.34 I-0.0245 J0.0
G3 X0.71747 Y1.64756 I0.00003 J-0.0245
G3 Y1.60512 I0.01225 J-0.02122
G3 X0.75422 Y1.62634 I0.01225 J0.02122
G3 X0.72969 Y1.65084 I-0.0245 J0.0
G1 F75.0 X0.70919 Y1.6397
G3 F120.0 X0.71747 Y1.60512 Z-0.34702 I0.02053 J-0.01337
G3 X0.75422 Y1.62634 Z-0.35606 I0.01225 J0.02122
G3 X0.72969 Y1.65084 Z-0.36286 I-0.0245 J0.0
G3 X0.71747 Y1.64756 Z-0.36511 I0.00003 J-0.0245
G3 Y1.60512 Z-0.37416 I0.01225 J-0.02122
G3 X0.75422 Y1.62634 Z-0.38321 I0.01225 J0.02122
G3 X0.72969 Y1.65084 Z-0.39 I-0.0245 J0.0
G3 X0.71747 Y1.64756 I0.00003 J-0.0245
G3 Y1.60512 I0.01225 J-0.02122
G3 X0.75422 Y1.62634 I0.01225 J0.02122
G3 X0.72969 Y1.65084 I-0.0245 J0.0
G1 F75.0 X0.72968 Y1.66084
G3 F120.0 X0.71247 Y1.65622 I0.00005 J-0.0345
G3 Y1.59646 I0.01725 J-0.02988
G3 X0.76422 Y1.62634 I0.01725 J0.02988
G3 X0.72968 Y1.66084 I-0.0345 J0.0
G0 Z0.25
G0 X15.7489 Y1.6103
G1 F75.0 Z0.0
G3 F120.0 X15.75472 Y1.62634 Z-0.00307 I-0.01918 J0.01603
G3 X15.71722 Y1.64799 Z-0.0123 I-0.025 J0.0
G3 X15.70472 Y1.6264 Z-0.01691 I0.0125 J-0.02165
G3 X15.71722 Y1.60469 Z-0.02153 I0.025 J-0.00006
G3 X15.75472 Y1.62634 Z-0.03077 I0.0125 J0.02165
G3 X15.71722 Y1.64799 Z-0.04 I-0.025 J0.0
G3 X15.70472 Y1.6264 Z-0.04461 I0.0125 J-0.02165
G3 X15.71722 Y1.60469 Z-0.04923 I0.025 J-0.00006
G3 X15.75472 Y1.62634 Z-0.05846 I0.0125 J0.02165
G3 X15.71722 Y1.64799 Z-0.0677 I-0.025 J0.0
G3 X15.70472 Y1.6264 Z-0.0723 I0.0125 J-0.02165
G3 X15.71722 Y1.60469 Z-0.07693 I0.025 J-0.00006
G3 X15.75472 Y1.62634 Z-0.08616 I0.0125 J0.02165
G3 X15.71722 Y1.64799 Z-0.09539 I-0.025 J0.0
G3 X15.70472 Y1.6264 Z-0.1 I0.0125 J-0.02165
G3 X15.71722 Y1.60469 I0.025 J-0.00006
G3 X15.75472 Y1.62634 I0.0125 J0.02165
G3 X15.71722 Y1.64799 I-0.025 J0.0
G3 X15.70472 Y1.6264 I0.0125 J-0.02165
G1 F75.0 X15.7489 Y1.6103
G3 F120.0 X15.75472 Y1.62634 Z-0.10307 I-0.01918 J0.01603
G3 X15.71722 Y1.64799 Z-0.1123 I-0.025 J0.0
G3 X15.70472 Y1.6264 Z-0.11691 I0.0125 J-0.02165
G3 X15.71722 Y1.60469 Z-0.12153 I0.025 J-0.00006
G3 X15.75472 Y1.62634 Z-0.13077 I0.0125 J0.02165
G3 X15.71722 Y1.64799 Z-0.14 I-0.025 J0.0
G3 X15.70472 Y1.6264 Z-0.14461 I0.0125 J-0.02165
G3 X15.71722 Y1.60469 Z-0.14923 I0.025 J-0.00006
G3 X15.75472 Y1.62634 Z-0.15846 I0.0125 J0.02165
G3 X15.71722 Y1.64799 Z-0.1677 I-0.025 J0.0
G3 X15.70472 Y1.6264 Z-0.1723 I0.0125 J-0.02165
G3 X15.71722 Y1.60469 Z-0.17693 I0.025 J-0.00006
G3 X15.75472 Y1.62634 Z-0.18616 I0.0125 J0.02165
G3 X15.71722 Y1.64799 Z-0.19539 I-0.025 J0.0
G3 X15.70472 Y1.6264 Z-0.2 I0.0125 J-0.02165
G3 X15.71722 Y1.60469 I0.025 J-0.00006
G3 X15.75472 Y1.62634 I0.0125 J0.02165
G3 X15.71722 Y1.64799 I-0.025 J0.0
G3 X15.70472 Y1.6264 I0.0125 J-0.02165
G1 F75.0 X15.7489 Y1.6103
G3 F120.0 X15.75472 Y1.62634 Z-0.20307 I-0.01918 J0.01603
G3 X15.71722 Y1.64799 Z-0.2123 I-0.025 J0.0
G3 X15.70472 Y1.6264 Z-0.21691 I0.0125 J-0.02165
G3 X15.71722 Y1.60469 Z-0.22153 I0.025 J-0.00006
G3 X15.75472 Y1.62634 Z-0.23077 I0.0125 J0.02165
G3 X15.71722 Y1.64799 Z-0.24 I-0.025 J0.0
G3 X15.70472 Y1.6264 Z-0.24461 I0.0125 J-0.02165
G3 X15.71722 Y1.60469 Z-0.24923 I0.025 J-0.00006
G3 X15.75472 Y1.62634 Z-0.25846 I0.0125 J0.02165
G3 X15.71722 Y1.64799 Z-0.2677 I-0.025 J0.0
G3 X15.70472 Y1.6264 Z-0.2723 I0.0125 J-0.02165
G3 X15.71722 Y1.60469 Z-0.27693 I0.025 J-0.00006
G3 X15.75472 Y1.62634 Z-0.28616 I0.0125 J0.02165
G3 X15.71722 Y1.64799 Z-0.29539 I-0.025 J0.0
G3 X15.70472 Y1.6264 Z-0.3 I0.0125 J-0.02165
G3 X15.71722 Y1.60469 I0.025 J-0.00006
G3 X15.75472 Y1.62634 I0.0125 J0.02165
G3 X15.71722 Y1.64799 I-0.025 J0.0
G3 X15.70472 Y1.6264 I0.0125 J-0.02165
G1 F75.0 X15.75322 Y1.63487
G3 F120.0 X15.71722 Y1.64799 Z-0.3077 I-0.0235 J-0.00854
G3 X15.70472 Y1.6264 Z-0.3123 I0.0125 J-0.02165
G3 X15.71722 Y1.60469 Z-0.31693 I0.025 J-0.00006
G3 X15.75472 Y1.62634 Z-0.32616 I0.0125 J0.02165
G3 X15.71722 Y1.64799 Z-0.33539 I-0.025 J0.0
G3 X15.70472 Y1.6264 Z-0.34 I0.0125 J-0.02165
G3 X15.71722 Y1.60469 I0.025 J-0.00006
G3 X15.75472 Y1.62634 I0.0125 J0.02165
G3 X15.71722 Y1.64799 I-0.025 J0.0
G3 X15.70472 Y1.6264 I0.0125 J-0.02165
G1 F75.0 X15.72117 Y1.60285
G3 F120.0 X15.75472 Y1.62634 Z-0.34846 I0.00856 J0.02349
G3 X15.71722 Y1.64799 Z-0.3577 I-0.025 J0.0
G3 X15.70472 Y1.6264 Z-0.3623 I0.0125 J-0.02165
G3 X15.71722 Y1.60469 Z-0.36693 I0.025 J-0.00006
G3 X15.75472 Y1.62634 Z-0.37616 I0.0125 J0.02165
G3 X15.71722 Y1.64799 Z-0.38539 I-0.025 J0.0
G3 X15.70472 Y1.6264 Z-0.39 I0.0125 J-0.02165
G3 X15.71722 Y1.60469 I0.025 J-0.00006
G3 X15.75472 Y1.62634 I0.0125 J0.02165
G3 X15.71722 Y1.64799 I-0.025 J0.0
G3 X15.70472 Y1.6264 I0.0125 J-0.02165
G1 F75.0 X15.69472 Y1.62642
G3 F120.0 X15.71222 Y1.59603 I0.035 J-0.00008
G3 X15.76472 Y1.62634 I0.0175 J0.03031
G3 X15.71222 Y1.65665 I-0.035 J0.0
G3 X15.69472 Y1.62642 I0.0175 J-0.03031
G0 Z0.25
G0 X15.74592 Y4.89538
G1 F75.0 Z0.0
G3 F120.0 X15.71722 Y4.89799 Z-0.00541 I-0.0162 J-0.01904
G3 Y4.85469 Z-0.01465 I0.0125 J-0.02165
G3 X15.72945 Y4.85134 Z-0.01691 I0.0125 J0.02165
G3 X15.75472 Y4.87634 Z-0.02388 I0.00027 J0.025
G3 X15.71722 Y4.89799 Z-0.03311 I-0.025 J0.0
G3 Y4.85469 Z-0.04234 I0.0125 J-0.02165
G3 X15.72945 Y4.85134 Z-0.04461 I0.0125 J0.02165
G3 X15.75472 Y4.87634 Z-0.05158 I0.00027 J0.025
G3 X15.71722 Y4.89799 Z-0.06081 I-0.025 J0.0
G3 Y4.85469 Z-0.07004 I0.0125 J-0.02165
G3 X15.72945 Y4.85134 Z-0.0723 I0.0125 J0.02165
G3 X15.75472 Y4.87634 Z-0.07927 I0.00027 J0.025
G3 X15.71722 Y4.89799 Z-0.08851 I-0.025 J0.0
G3 Y4.85469 Z-0.09774 I0.0125 J-0.02165
G3 X15.72945 Y4.85134 Z-0.1 I0.0125 J0.02165
G3 X15.75472 Y4.87634 I0.00027 J0.025
G3 X15.71722 Y4.89799 I-0.025 J0.0
G3 Y4.85469 I0.0125 J-0.02165
G3 X15.72945 Y4.85134 I0.0125 J0.02165
G1 F75.0 X15.74592 Y4.89538
G3 F120.0 X15.71722 Y4.89799 Z-0.10541 I-0.0162 J-0.01904
G3 Y4.85469 Z-0.11465 I0.0125 J-0.02165
G3 X15.72945 Y4.85134 Z-0.11691 I0.0125 J0.02165
G3 X15.75472 Y4.87634 Z-0.12388 I0.00027 J0.025
G3 X15.71722 Y4.89799 Z-0.13311 I-0.025 J0.0
G3 Y4.85469 Z-0.14234 I0.0125 J-0.02165
G3 X15.72945 Y4.85134 Z-0.14461 I0.0125 J0.02165
G3 X15.75472 Y4.87634 Z-0.15158 I0.00027 J0.025
G3 X15.71722 Y4.89799 Z-0.16081 I-0.025 J0.0
G3 Y4.85469 Z-0.17004 I0.0125 J-0.02165
G3 X15.72945 Y4.85134 Z-0.1723 I0.0125 J0.02165
G3 X15.75472 Y4.87634 Z-0.17927 I0.00027 J0.025
G3 X15.71722 Y4.89799 Z-0.18851 I-0.025 J0.0
G3 Y4.85469 Z-0.19774 I0.0125 J-0.02165
G3 X15.72945 Y4.85134 Z-0.2 I0.0125 J0.02165
G3 X15.75472 Y4.87634 I0.00027 J0.025
G3 X15.71722 Y4.89799 I-0.025 J0.0
G3 Y4.85469 I0.0125 J-0.02165
G3 X15.72945 Y4.85134 I0.0125 J0.02165
G1 F75.0 X15.74592 Y4.89538
G3 F120.0 X15.71722 Y4.89799 Z-0.20541 I-0.0162 J-0.01904
G3 Y4.85469 Z-0.21465 I0.0125 J-0.02165
G3 X15.72945 Y4.85134 Z-0.21691 I0.0125 J0.02165
G3 X15.75472 Y4.87634 Z-0.22388 I0.00027 J0.025
G3 X15.71722 Y4.89799 Z-0.23311 I-0.025 J0.0
G3 Y4.85469 Z-0.24234 I0.0125 J-0.02165
G3 X15.72945 Y4.85134 Z-0.24461 I0.0125 J0.02165
G3 X15.75472 Y4.87634 Z-0.25158 I0.00027 J0.025
G3 X15.71722 Y4.89799 Z-0.26081 I-0.025 J0.0
G3 Y4.85469 Z-0.27004 I0.0125 J-0.02165
G3 X15.72945 Y4.85134 Z-0.2723 I0.0125 J0.02165
G3 X15.75472 Y4.87634 Z-0.27927 I0.00027 J0.025
G3 X15.71722 Y4.89799 Z-0.28851 I-0.025 J0.0
G3 Y4.85469 Z-0.29774 I0.0125 J-0.02165
G3 X15.72945 Y4.85134 Z-0.3 I0.0125 J0.02165
G3 X15.75472 Y4.87634 I0.00027 J0.025
G3 X15.71722 Y4.89799 I-0.025 J0.0
G3 Y4.85469 I0.0125 J-0.02165
G3 X15.72945 Y4.85134 I0.0125 J0.02165
G1 F75.0 X15.72139 Y4.89991
G3 F120.0 X15.71722 Y4.89799 Z-0.30081 I0.00834 J-0.02357
G3 Y4.85469 Z-0.31004 I0.0125 J-0.02165
G3 X15.72945 Y4.85134 Z-0.3123 I0.0125 J0.02165
G3 X15.75472 Y4.87634 Z-0.31927 I0.00027 J0.025
G3 X15.71722 Y4.89799 Z-0.32851 I-0.025 J0.0
G3 Y4.85469 Z-0.33774 I0.0125 J-0.02165
G3 X15.72945 Y4.85134 Z-0.34 I0.0125 J0.02165
G3 X15.75472 Y4.87634 I0.00027 J0.025
G3 X15.71722 Y4.89799 I-0.025 J0.0
G3 Y4.85469 I0.0125 J-0.02165
G3 X15.72945 Y4.85134 I0.0125 J0.02165
G1 F75.0 X15.75314 Y4.86758
G3 F120.0 X15.75472 Y4.87634 Z-0.34158 I-0.02342 J0.00875
G3 X15.71722 Y4.89799 Z-0.35081 I-0.025 J0.0
G3 Y4.85469 Z-0.36004 I0.0125 J-0.02165
G3 X15.72945 Y4.85134 Z-0.3623 I0.0125 J0.02165
G3 X15.75472 Y4.87634 Z-0.36927 I0.00027 J0.025
G3 X15.71722 Y4.89799 Z-0.37851 I-0.025 J0.0
G3 Y4.85469 Z-0.38774 I0.0125 J-0.02165
G3 X15.72945 Y4.85134 Z-0.39 I0.0125 J0.02165
G3 X15.75472 Y4.87634 I0.00027 J0.025
G3 X15.71722 Y4.89799 I-0.025 J0.0
G3 Y4.85469 I0.0125 J-0.02165
G3 X15.72945 Y4.85134 I0.0125 J0.02165
G1 F75.0 X15.72935 Y4.84134
G3 F120.0 X15.76472 Y4.87634 I0.00038 J0.035
G3 X15.71222 Y4.90665 I-0.035 J0.0
G3 Y4.84603 I0.0175 J-0.03031
G3 X15.72935 Y4.84134 I0.0175 J0.03031
G0 Z0.25
G0 X16.00274 Y6.53914
G1 F75.0 Z0.0
G3 F120.0 X15.97155 Y6.54419 Z-0.00603 I-0.01869 J-0.01661
G3 Y6.50088 Z-0.01526 I0.0125 J-0.02165
G3 X15.9803 Y6.49782 Z-0.01691 I0.0125 J0.02165
G3 X16.00905 Y6.52253 Z-0.0245 I0.00374 J0.02472
G3 X15.97155 Y6.54419 Z-0.03373 I-0.025 J0.0
G3 Y6.50088 Z-0.04296 I0.0125 J-0.02165
G3 X15.9803 Y6.49782 Z-0.04461 I0.0125 J0.02165
G3 X16.00905 Y6.52253 Z-0.05219 I0.00374 J0.02472
G3 X15.97155 Y6.54419 Z-0.06142 I-0.025 J0.0
G3 Y6.50088 Z-0.07066 I0.0125 J-0.02165
G3 X15.9803 Y6.49782 Z-0.0723 I0.0125 J0.02165
G3 X16.00905 Y6.52253 Z-0.07989 I0.00374 J0.02472
G3 X15.97155 Y6.54419 Z-0.08912 I-0.025 J0.0
G3 Y6.50088 Z-0.09835 I0.0125 J-0.02165
G3 X15.9803 Y6.49782 Z-0.1 I0.0125 J0.02165
G3 X16.00905 Y6.52253 I0.00374 J0.02472
G3 X15.97155 Y6.54419 I-0.025 J0.0
G3 Y6.50088 I0.0125 J-0.02165
G3 X15.9803 Y6.49782 I0.0125 J0.02165
G1 F75.0 X16.00274 Y6.53914
G3 F120.0 X15.97155 Y6.54419 Z-0.10603 I-0.01869 J-0.01661
G3 Y6.50088 Z-0.11526 I0.0125 J-0.02165
G3 X15.9803 Y6.49782 Z-0.11691 I0.0125 J0.02165
G3 X16.00905 Y6.52253 Z-0.1245 I0.00374 J0.02472
G3 X15.97155 Y6.54419 Z-0.13373 I-0.025 J0.0
G3 Y6.50088 Z-0.14296 I0.0125 J-0.02165
G3 X15.9803 Y6.49782 Z-0.14461 I0.0125 J0.02165
G3 X16.00905 Y6.52253 Z-0.15219 I0.00374 J0.02472
G3 X15.97155 Y6.54419 Z-0.16142 I-0.025 J0.0
G3 Y6.50088 Z-0.17066 I0.0125 J-0.02165
G3 X15.9803 Y6.49782 Z-0.1723 I0.0125 J0.02165
G3 X16.00905 Y6.52253 Z-0.17989 I0.00374 J0.02472
G3 X15.97155 Y6.54419 Z-0.18912 I-0.025 J0.0
G3 Y6.50088 Z-0.19835 I0.0125 J-0.02165
G3 X15.9803 Y6.49782 Z-0.2 I0.0125 J0.02165
G3 X16.00905 Y6.52253 I0.00374 J0.02472
G3 X15.97155 Y6.54419 I-0.025 J0.0
G3 Y6.50088 I0.0125 J-0.02165
G3 X15.9803 Y6.49782 I0.0125 J0.02165
G1 F75.0 X16.00274 Y6.53914
G3 F120.0 X15.97155 Y6.54419 Z-0.20603 I-0.01869 J-0.01661
G3 Y6.50088 Z-0.21526 I0.0125 J-0.02165
G3 X15.9803 Y6.49782 Z-0.21691 I0.0125 J0.02165
G3 X16.00905 Y6.52253 Z-0.2245 I0.00374 J0.02472
G3 X15.97155 Y6.54419 Z-0.23373 I-0.025 J0.0
G3 Y6.50088 Z-0.24296 I0.0125 J-0.02165
G3 X15.9803 Y6.49782 Z-0.24461 I0.0125 J0.02165
G3 X16.00905 Y6.52253 Z-0.25219 I0.00374 J0.02472
G3 X15.97155 Y6.54419 Z-0.26142 I-0.025 J0.0
G3 Y6.50088 Z-0.27066 I0.0125 J-0.02165
G3 X15.9803 Y6.49782 Z-0.2723 I0.0125 J0.02165
G3 X16.00905 Y6.52253 Z-0.27989 I0.00374 J0.02472
G3 X15.97155 Y6.54419 Z-0.28912 I-0.025 J0.0
G3 Y6.50088 Z-0.29835 I0.0125 J-0.02165
G3 X15.9803 Y6.49782 Z-0.3 I0.0125 J0.02165
G3 X16.00905 Y6.52253 I0.00374 J0.02472
G3 X15.97155 Y6.54419 I-0.025 J0.0
G3 Y6.50088 I0.0125 J-0.02165
G3 X15.9803 Y6.49782 I0.0125 J0.02165
G1 F75.0 X15.97907 Y6.54703
G3 F120.0 X15.97155 Y6.54419 Z-0.30142 I0.00498 J-0.0245
G3 Y6.50088 Z-0.31066 I0.0125 J-0.02165
G3 X15.9803 Y6.49782 Z-0.3123 I0.0125 J0.02165
G3 X16.00905 Y6.52253 Z-0.31989 I0.00374 J0.02472
G3 X15.97155 Y6.54419 Z-0.32912 I-0.025 J0.0
G3 Y6.50088 Z-0.33835 I0.0125 J-0.02165
G3 X15.9803 Y6.49782 Z-0.34 I0.0125 J0.02165
G3 X16.00905 Y6.52253 I0.00374 J0.02472
G3 X15.97155 Y6.54419 I-0.025 J0.0
G3 Y6.50088 I0.0125 J-0.02165
G3 X15.9803 Y6.49782 I0.0125 J0.02165
G1 F75.0 X16.00602 Y6.51061
G3 F120.0 X16.00905 Y6.52253 Z-0.34219 I-0.02197 J0.01193
G3 X15.97155 Y6.54419 Z-0.35142 I-0.025 J0.0
G3 Y6.50088 Z-0.36066 I0.0125 J-0.02165
G3 X15.9803 Y6.49782 Z-0.3623 I0.0125 J0.02165
G3 X16.00905 Y6.52253 Z-0.36989 I0.00374 J0.02472
G3 X15.97155 Y6.54419 Z-0.37912 I-0.025 J0.0
G3 Y6.50088 Z-0.38835 I0.0125 J-0.02165
G3 X15.9803 Y6.49782 Z-0.39 I0.0125 J0.02165
G3 X16.00905 Y6.52253 I0.00374 J0.02472
G3 X15.97155 Y6.54419 I-0.025 J0.0
G3 Y6.50088 I0.0125 J-0.02165
G3 X15.9803 Y6.49782 I0.0125 J0.02165
G1 F75.0 X15.97881 Y6.48793
G3 F120.0 X16.01905 Y6.52253 I0.00524 J0.03461
G3 X15.96655 Y6.55285 I-0.035 J0.0
G3 Y6.49222 I0.0175 J-0.03031
G3 X15.97881 Y6.48793 I0.0175 J0.03031
G0 Z0.25
G0 X15.48273 Y7.0475
G1 F75.0 Z0.0
G3 F120.0 X15.47155 Y7.04419 Z-0.00208 I0.00132 J-0.02497
G3 Y7.00088 Z-0.01131 I0.0125 J-0.02165
G3 X15.50103 Y7.00419 Z-0.01691 I0.0125 J0.02165
G3 X15.50905 Y7.02253 Z-0.02054 I-0.01698 J0.01835
G3 X15.47155 Y7.04419 Z-0.02977 I-0.025 J0.0
G3 Y7.00088 Z-0.03901 I0.0125 J-0.02165
G3 X15.50103 Y7.00419 Z-0.04461 I0.0125 J0.02165
G3 X15.50905 Y7.02253 Z-0.04824 I-0.01698 J0.01835
G3 X15.47155 Y7.04419 Z-0.05747 I-0.025 J0.0
G3 Y7.00088 Z-0.0667 I0.0125 J-0.02165
G3 X15.50103 Y7.00419 Z-0.0723 I0.0125 J0.02165
G3 X15.50905 Y7.02253 Z-0.07594 I-0.01698 J0.01835
G3 X15.47155 Y7.04419 Z-0.08517 I-0.025 J0.0
G3 Y7.00088 Z-0.0944 I0.0125 J-0.02165
G3 X15.50103 Y7.00419 Z-0.1 I0.0125 J0.02165
G3 X15.50905 Y7.02253 I-0.01698 J0.01835
G3 X15.47155 Y7.04419 I-0.025 J0.0
G3 Y7.00088 I0.0125 J-0.02165
G3 X15.50103 Y7.00419 I0.0125 J0.02165
G1 F75.0 X15.48273 Y7.0475
G3 F120.0 X15.47155 Y7.04419 Z-0.10208 I0.00132 J-0.02497
G3 Y7.00088 Z-0.11131 I0.0125 J-0.02165
G3 X15.50103 Y7.00419 Z-0.11691 I0.0125 J0.02165
G3 X15.50905 Y7.02253 Z-0.12054 I-0.01698 J0.01835
G3 X15.47155 Y7.04419 Z-0.12977 I-0.025 J0.0
G3 Y7.00088 Z-0.13901 I0.0125 J-0.02165
G3 X15.50103 Y7.00419 Z-0.14461 I0.0125 J0.02165
G3 X15.50905 Y7.02253 Z-0.14824 I-0.01698 J0.01835
G3 X15.47155 Y7.04419 Z-0.15747 I-0.025 J0.0
G3 Y7.00088 Z-0.1667 I0.0125 J-0.02165
G3 X15.50103 Y7.00419 Z-0.1723 I0.0125 J0.02165
G3 X15.50905 Y7.02253 Z-0.17594 I-0.01698 J0.01835
G3 X15.47155 Y7.04419 Z-0.18517 I-0.025 J0.0
G3 Y7.00088 Z-0.1944 I0.0125 J-0.02165
G3 X15.50103 Y7.00419 Z-0.2 I0.0125 J0.02165
G3 X15.50905 Y7.02253 I-0.01698 J0.01835
G3 X15.47155 Y7.04419 I-0.025 J0.0
G3 Y7.00088 I0.0125 J-0.02165
G3 X15.50103 Y7.00419 I0.0125 J0.02165
G1 F75.0 X15.48273 Y7.0475
G3 F120.0 X15.47155 Y7.04419 Z-0.20208 I0.00132 J-0.02497
G3 Y7.00088 Z-0.21131 I0.0125 J-0.02165
G3 X15.50103 Y7.00419 Z-0.21691 I0.0125 J0.02165
G3 X15.50905 Y7.02253 Z-0.22054 I-0.01698 J0.01835
G3 X15.47155 Y7.04419 Z-0.22977 I-0.025 J0.0
G3 Y7.00088 Z-0.23901 I0.0125 J-0.02165
G3 X15.50103 Y7.00419 Z-0.24461 I0.0125 J0.02165
G3 X15.50905 Y7.02253 Z-0.24824 I-0.01698 J0.01835
G3 X15.47155 Y7.04419 Z-0.25747 I-0.025 J0.0
G3 Y7.00088 Z-0.2667 I0.0125 J-0.02165
G3 X15.50103 Y7.00419 Z-0.2723 I0.0125 J0.02165
G3 X15.50905 Y7.02253 Z-0.27594 I-0.01698 J0.01835
G3 X15.47155 Y7.04419 Z-0.28517 I-0.025 J0.0
G3 Y7.00088 Z-0.2944 I0.0125 J-0.02165
G3 X15.50103 Y7.00419 Z-0.3 I0.0125 J0.02165
G3 X15.50905 Y7.02253 I-0.01698 J0.01835
G3 X15.47155 Y7.04419 I-0.025 J0.0
G3 Y7.00088 I0.0125 J-0.02165
G3 X15.50103 Y7.00419 I0.0125 J0.02165
G1 F75.0 X15.4618 Y7.03393
G3 F120.0 X15.47155 Y7.00088 Z-0.3067 I0.02225 J-0.0114
G3 X15.50103 Y7.00419 Z-0.3123 I0.0125 J0.02165
G3 X15.50905 Y7.02253 Z-0.31594 I-0.01698 J0.01835
G3 X15.47155 Y7.04419 Z-0.32517 I-0.025 J0.0
G3 Y7.00088 Z-0.3344 I0.0125 J-0.02165
G3 X15.50103 Y7.00419 Z-0.34 I0.0125 J0.02165
G3 X15.50905 Y7.02253 I-0.01698 J0.01835
G3 X15.47155 Y7.04419 I-0.025 J0.0
G3 Y7.00088 I0.0125 J-0.02165
G3 X15.50103 Y7.00419 I0.0125 J0.02165
G1 F75.0 X15.50708 Y7.03226
G3 F120.0 X15.47155 Y7.04419 Z-0.34747 I-0.02303 J-0.00973
G3 Y7.00088 Z-0.3567 I0.0125 J-0.02165
G3 X15.50103 Y7.00419 Z-0.3623 I0.0125 J0.02165
G3 X15.50905 Y7.02253 Z-0.36594 I-0.01698 J0.01835
G3 X15.47155 Y7.04419 Z-0.37517 I-0.025 J0.0
G3 Y7.00088 Z-0.3844 I0.0125 J-0.02165
G3 X15.50103 Y7.00419 Z-0.39 I0.0125 J0.02165
G3 X15.50905 Y7.02253 I-0.01698 J0.01835
G3 X15.47155 Y7.04419 I-0.025 J0.0
G3 Y7.00088 I0.0125 J-0.02165
G3 X15.50103 Y7.00419 I0.0125 J0.02165
G1 F75.0 X15.50782 Y6.99685
G3 F120.0 X15.51905 Y7.02253 I-0.02377 J0.02569
G3 X15.46655 Y7.05285 I-0.035 J0.0
G3 Y6.99222 I0.0175 J-0.03031
G3 X15.50782 Y6.99685 I0.0175 J0.03031
( PinHoles )
S2000
G0 Z0.1
G0 X4.73405 Y6.89753
G83 Z-0.25 Q0.1 R0.1 F75.0
G83 X9.73405 Z-0.25 Q0.1 R0.1
G80
( Slots )
S2000
G0 Z0.25
G0 X14.24899 Y2.34884
G1 Z0.0
G1 F120.0 X14.72972 Z-0.08477
G3 Y2.40384 Z-0.1 I0.0 J0.0275
G1 X11.22972
G3 Y2.34884 I0.0 J-0.0275
G1 X14.72972
G3 Y2.40384 I0.0 J0.0275
G1 F75.0 Y2.45384
G1 F120.0 X11.22972
G3 Y2.29884 I0.0 J-0.0775
G1 X14.72972
G3 Y2.45384 I0.0 J0.0775
G1 F75.0 Y2.50384
G1 F120.0 X11.22972
G3 Y2.24884 I0.0 J-0.1275
G1 X14.72972
G3 Y2.50384 I0.0 J0.1275
G1 F75.0 Y2.55384
G1 F120.0 X11.22972
G3 Y2.19884 I0.0 J-0.1775
G1 X14.72972
G3 Y2.55384 I0.0 J0.1775
G0 Z0.25
G0 X14.24899 Y2.34884
G1 F75.0 Z-0.1
G1 F120.0 X14.72972 Z-0.18477
G3 Y2.40384 Z-0.2 I0.0 J0.0275
G1 X11.22972
G3 Y2.34884 I0.0 J-0.0275
G1 X14.72972
G3 Y2.40384 I0.0 J0.0275
G1 F75.0 Y2.45384
G1 F120.0 X11.22972
G3 Y2.29884 I0.0 J-0.0775
G1 X14.72972
G3 Y2.45384 I0.0 J0.0775
G1 F75.0 Y2.50384
G1 F120.0 X11.22972
G3 Y2.24884 I0.0 J-0.1275
G1 X14.72972
G3 Y2.50384 I0.0 J0.1275
G1 F75.0 Y2.55384
G1 F120.0 X11.22972
G3 Y2.19884 I0.0 J-0.1775
G1 X14.72972
G3 Y2.55384 I0.0 J0.1775
G0 Z0.25
G0 X14.56091 Y2.34884
G1 F75.0 Z-0.2
G1 F120.0 X14.72972 Z-0.22977
G3 Y2.40384 Z-0.245 I0.0 J0.0275
G1 X11.22972
G3 Y2.34884 I0.0 J-0.0275
G1 X14.72972
G3 Y2.40384 I0.0 J0.0275
G1 F75.0 Y2.45384
G1 F120.0 X11.22972
G3 Y2.29884 I0.0 J-0.0775
G1 X14.72972
G3 Y2.45384 I0.0 J0.0775
G1 F75.0 Y2.50384
G1 F120.0 X11.22972
G3 Y2.24884 I0.0 J-0.1275
G1 X14.72972
G3 Y2.50384 I0.0 J0.1275
G1 F75.0 Y2.55384
G1 F120.0 X11.22972
G3 Y2.19884 I0.0 J-0.1775
G1 X14.72972
G3 Y2.55384 I0.0 J0.1775
G0 Z0.25
G0 X14.75331 Y2.39047
G1 F75.0 Z-0.245
G3 F120.0 X14.72972 Y2.40384 Z-0.25 I-0.02359 J-0.01413
G1 X11.22972
G3 Y2.34884 I0.0 J-0.0275
G1 X14.72972
G3 Y2.40384 I0.0 J0.0275
G1 F75.0 Y2.45384
G1 F120.0 X11.22972
G3 Y2.29884 I0.0 J-0.0775
G1 X14.72972
G3 Y2.45384 I0.0 J0.0775
G1 F75.0 Y2.50384
G1 F120.0 X11.22972
G3 Y2.24884 I0.0 J-0.1275
G1 X14.72972
G3 Y2.50384 I0.0 J0.1275
G1 F75.0 Y2.55384
G1 F120.0 X11.22972
G3 Y2.19884 I0.0 J-0.1775
G1 X14.72972
G3 Y2.55384 I0.0 J0.1775
G1 F75.0 Y2.56384
G1 F120.0 X11.22972
G3 Y2.18884 I0.0 J-0.1875
G1 X14.72972
G3 Y2.56384 I0.0 J0.1875
G0 Z0.25
G0 X14.16259 Y4.84884
G1 F75.0 Z0.0
G1 F120.0 X14.72972 Z-0.1
G3 Y4.90384 I0.0 J0.0275
G1 X11.22972
G3 Y4.84884 I0.0 J-0.0275
G1 X14.72972
G1 F75.0 Y4.79884
G3 F120.0 Y4.95384 I0.0 J0.0775
G1 X11.22972
G3 Y4.79884 I0.0 J-0.0775
G1 X14.72972
G1 F75.0 Y4.74884
G3 F120.0 Y5.00384 I0.0 J0.1275
G1 X11.22972
G3 Y4.74884 I0.0 J-0.1275
G1 X14.72972
G1 F75.0 Y4.69884
G3 F120.0 Y5.05384 I0.0 J0.1775
G1 X11.22972
G3 Y4.69884 I0.0 J-0.1775
G1 X14.72972
G0 Z0.25
G0 X14.16259 Y4.84884
G1 F75.0 Z-0.1
G1 F120.0 X14.72972 Z-0.2
G3 Y4.90384 I0.0 J0.0275
G1 X11.22972
G3 Y4.84884 I0.0 J-0.0275
G1 X14.72972
G1 F75.0 Y4.79884
G3 F120.0 Y4.95384 I0.0 J0.0775
G1 X11.22972
G3 Y4.79884 I0.0 J-0.0775
G1 X14.72972
G1 F75.0 Y4.74884
G3 F120.0 Y5.00384 I0.0 J0.1275
G1 X11.22972
G3 Y4.74884 I0.0 J-0.1275
G1 X14.72972
G1 F75.0 Y4.69884
G3 F120.0 Y5.05384 I0.0 J0.1775
G1 X11.22972
G3 Y4.69884 I0.0 J-0.1775
G1 X14.72972
G0 Z0.25
G0 X14.47451 Y4.84884
G1 F75.0 Z-0.2
G1 F120.0 X14.72972 Z-0.245
G3 Y4.90384 I0.0 J0.0275
G1 X11.22972
G3 Y4.84884 I0.0 J-0.0275
G1 X14.72972
G1 F75.0 Y4.79884
G3 F120.0 Y4.95384 I0.0 J0.0775
G1 X11.22972
G3 Y4.79884 I0.0 J-0.0775
G1 X14.72972
G1 F75.0 Y4.74884
G3 F120.0 Y5.00384 I0.0 J0.1275
G1 X11.22972
G3 Y4.74884 I0.0 J-0.1275
G1 X14.72972
G1 F75.0 Y4.69884
G3 F120.0 Y5.05384 I0.0 J0.1775
G1 X11.22972
G3 Y4.69884 I0.0 J-0.1775
G1 X14.72972
G0 Z0.25
G0 X14.70137 Y4.84884
G1 F75.0 Z-0.245
G1 F120.0 X14.72972 Z-0.25
G3 Y4.90384 I0.0 J0.0275
G1 X11.22972
G3 Y4.84884 I0.0 J-0.0275
G1 X14.72972
G1 F75.0 Y4.79884
G3 F120.0 Y4.95384 I0.0 J0.0775
G1 X11.22972
G3 Y4.79884 I0.0 J-0.0775
G1 X14.72972
G1 F75.0 Y4.74884
G3 F120.0 Y5.00384 I0.0 J0.1275
G1 X11.22972
G3 Y4.74884 I0.0 J-0.1275
G1 X14.72972
G1 F75.0 Y4.69884
G3 F120.0 Y5.05384 I0.0 J0.1775
G1 X11.22972
G3 Y4.69884 I0.0 J-0.1775
G1 X14.72972
G1 F75.0 Y4.68884
G3 F120.0 Y5.06384 I0.0 J0.1875
G1 X11.22972
G3 Y4.68884 I0.0 J-0.1875
G1 X14.72972
( SlotsThru )
S2000
G0 Z0.25
G0 X11.79685 Y4.90084
G1 F75.0 Z0.0
G1 F120.0 X11.22972 Z-0.1
G3 Y4.85184 I0.0 J-0.0245
G1 X14.72972
G3 Y4.90084 I0.0 J0.0245
G1 X11.22972
G0 Z0.25
G0 X11.79685
G1 F75.0 Z-0.1
G1 F120.0 X11.22972 Z-0.2
G3 Y4.85184 I0.0 J-0.0245
G1 X14.72972
G3 Y4.90084 I0.0 J0.0245
G1 X11.22972
G0 Z0.25
G0 X11.79685
G1 F75.0 Z-0.2
G1 F120.0 X11.22972 Z-0.3
G3 Y4.85184 I0.0 J-0.0245
G1 X14.72972
G3 Y4.90084 I0.0 J0.0245
G1 X11.22972
G0 Z0.25
G0 X11.71178
G1 F75.0 Z-0.3
G1 F120.0 X11.22972 Z-0.385
G3 Y4.85184 I0.0 J-0.0245
G1 X14.72972
G3 Y4.90084 I0.0 J0.0245
G1 X11.22972
G1 F75.0 X11.25808
G1 F120.0 X11.22972 Z-0.39
G3 Y4.85184 I0.0 J-0.0245
G1 X14.72972
G3 Y4.90084 I0.0 J0.0245
G1 X11.22972
G1 F75.0 Y4.91084
G3 F120.0 Y4.84184 I0.0 J-0.0345
G1 X14.72972
G3 Y4.91084 I0.0 J0.0345
G1 X11.22972
G0 Z0.25
G0 X11.79685 Y2.40084
G1 F75.0 Z0.0
G1 F120.0 X11.22972 Z-0.1
G3 Y2.35184 I0.0 J-0.0245
G1 X14.72972
G3 Y2.40084 I0.0 J0.0245
G1 X11.22972
G0 Z0.25
G0 X11.79685
G1 F75.0 Z-0.1
G1 F120.0 X11.22972 Z-0.2
G3 Y2.35184 I0.0 J-0.0245
G1 X14.72972
G3 Y2.40084 I0.0 J0.0245
G1 X11.22972
G0 Z0.25
G0 X11.79685
G1 F75.0 Z-0.2
G1 F120.0 X11.22972 Z-0.3
G3 Y2.35184 I0.0 J-0.0245
G1 X14.72972
G3 Y2.40084 I0.0 J0.0245
G1 X11.22972
G0 Z0.25
G0 X11.71178
G1 F75.0 Z-0.3
G1 F120.0 X11.22972 Z-0.385
G3 Y2.35184 I0.0 J-0.0245
G1 X14.72972
G3 Y2.40084 I0.0 J0.0245
G1 X11.22972
G1 F75.0 X11.25808
G1 F120.0 X11.22972 Z-0.39
G3 Y2.35184 I0.0 J-0.0245
G1 X14.72972
G3 Y2.40084 I0.0 J0.0245
G1 X11.22972
G1 F75.0 Y2.41084
G3 F120.0 Y2.34184 I0.0 J-0.0345
G1 X14.72972
G3 Y2.41084 I0.0 J0.0345
G1 X11.22972
( RoughInnerPocket )
S2000
G0 Z0.25
G0 X2.92185 Y3.80384
G1 F75.0 Z0.0
G1 F120.0 X2.35472 Z-0.1
G3 X2.30222 Y3.75134 I0.0 J-0.0525
G1 Y1.00134
G3 X2.35472 Y0.94884 I0.0525 J0.0
G1 X10.10472
G3 X10.15722 Y1.00134 I0.0 J0.0525
G1 Y3.75134
G3 X10.10472 Y3.80384 I-0.0525 J0.0
G1 X2.35472
G0 Z0.25
G0 X2.92185
G1 F75.0 Z-0.1
G1 F120.0 X2.35472 Z-0.2
G3 X2.30222 Y3.75134 I0.0 J-0.0525
G1 Y1.00134
G3 X2.35472 Y0.94884 I0.0525 J0.0
G1 X10.10472
G3 X10.15722 Y1.00134 I0.0 J0.0525
G1 Y3.75134
G3 X10.10472 Y3.80384 I-0.0525 J0.0
G1 X2.35472
G0 Z0.25
G0 X2.92185
G1 F75.0 Z-0.2
G1 F120.0 X2.35472 Z-0.3
G3 X2.30222 Y3.75134 I0.0 J-0.0525
G1 Y1.00134
G3 X2.35472 Y0.94884 I0.0525 J0.0
G1 X10.10472
G3 X10.15722 Y1.00134 I0.0 J0.0525
G1 Y3.75134
G3 X10.10472 Y3.80384 I-0.0525 J0.0
G1 X2.35472
G0 Z0.25
G0 X2.66664
G1 F75.0 Z-0.3
G1 F120.0 X2.35472 Z-0.355
G3 X2.30222 Y3.75134 I0.0 J-0.0525
G1 Y1.00134
G3 X2.35472 Y0.94884 I0.0525 J0.0
G1 X10.10472
G3 X10.15722 Y1.00134 I0.0 J0.0525
G1 Y3.75134
G3 X10.10472 Y3.80384 I-0.0525 J0.0
G1 X2.35472
G1 F75.0 X2.41144
G1 F120.0 X2.35472 Z-0.365
G3 X2.30222 Y3.75134 I0.0 J-0.0525
G1 Y1.00134
G3 X2.35472 Y0.94884 I0.0525 J0.0
G1 X10.10472
G3 X10.15722 Y1.00134 I0.0 J0.0525
G1 Y3.75134
G3 X10.10472 Y3.80384 I-0.0525 J0.0
G1 X2.35472
( FinishInnerPocket )
S2000
G0 Z0.25
G0 X4.48145 Y3.81384
G1 F75.0 Z0.0
G1 F120.0 X2.35472 Z-0.375
G3 X2.29222 Y3.75134 I0.0 J-0.0625
G1 Y1.00134
G3 X2.35472 Y0.93884 I0.0625 J0.0
G1 X10.10472
G3 X10.16722 Y1.00134 I0.0 J0.0625
G1 Y3.75134
G3 X10.10472 Y3.81384 I-0.0625 J0.0
G1 X2.35472
G1 F75.0 X2.43979
G1 F120.0 X2.35472 Z-0.39
G3 X2.29222 Y3.75134 I0.0 J-0.0625
G1 Y1.00134
G3 X2.35472 Y0.93884 I0.0625 J0.0
G1 X10.10472
G3 X10.16722 Y1.00134 I0.0 J0.0625
G1 Y3.75134
G3 X10.10472 Y3.81384 I-0.0625 J0.0
G1 X2.35472
( RoughOuterProfile )
S2000
G0 Z0.25
G0 X0.16155 Y6.85496
G1 F75.0 Z0.0
G1 F120.0 Y7.21003 Z-0.06261
G2 X0.29655 Y7.34503 Z-0.1 I0.135 J0.0
G1 X16.17155
G2 X16.30655 Y7.21003 I0.0 J-0.135
G1 Y6.27253
G2 X15.98405 Y5.95003 I-0.3225 J0.0
G1 X0.48405
G2 X0.16155 Y6.27253 I0.0 J0.3225
G1 Y7.21003
G2 X0.29655 Y7.34503 I0.135 J0.0
G0 Z0.25
G0 X0.16155 Y6.85496
G1 F75.0 Z-0.1
G1 F120.0 Y7.21003 Z-0.16261
G2 X0.29655 Y7.34503 Z-0.2 I0.135 J0.0
G1 X16.17155
G2 X16.30655 Y7.21003 I0.0 J-0.135
G1 Y6.27253
G2 X15.98405 Y5.95003 I-0.3225 J0.0
G1 X0.48405
G2 X0.16155 Y6.27253 I0.0 J0.3225
G1 Y7.21003
G2 X0.29655 Y7.34503 I0.135 J0.0
G0 Z0.25
G0 X0.16155 Y6.85496
G1 F75.0 Z-0.2
G1 F120.0 Y7.21003 Z-0.26261
G2 X0.29655 Y7.34503 Z-0.3 I0.135 J0.0
G1 X16.17155
G2 X16.30655 Y7.21003 I0.0 J-0.135
G1 Y6.27253
G2 X15.98405 Y5.95003 I-0.3225 J0.0
G1 X0.48405
G2 X0.16155 Y6.27253 I0.0 J0.3225
G1 Y7.21003
G2 X0.29655 Y7.34503 I0.135 J0.0
G0 Z0.25
G0 X0.16155 Y7.13853
G1 F75.0 Z-0.3
G1 F120.0 Y7.21003 Z-0.31261
G2 X0.29655 Y7.34503 Z-0.35 I0.135 J0.0
G1 X16.17155
G2 X16.30655 Y7.21003 I0.0 J-0.135
G1 Y6.27253
G2 X15.98405 Y5.95003 I-0.3225 J0.0
G1 X0.48405
G2 X0.16155 Y6.27253 I0.0 J0.3225
G1 Y7.21003
G2 X0.29655 Y7.34503 I0.135 J0.0
G1 F75.0 X0.217 Y7.31911
G2 F120.0 X0.29655 Y7.34503 Z-0.365 I0.07955 J-0.10907
G1 X16.17155
G2 X16.30655 Y7.21003 I0.0 J-0.135
G1 Y6.27253
G2 X15.98405 Y5.95003 I-0.3225 J0.0
G1 X0.48405
G2 X0.16155 Y6.27253 I0.0 J0.3225
G1 Y7.21003
G2 X0.29655 Y7.34503 I0.135 J0.0
G0 Z0.25
G0 X0.15722 Y5.03923
G1 F75.0 Z0.0
G1 F120.0 Y5.12634 Z-0.01536
G2 X0.45319 Y5.44774 Z-0.1 I0.3225 J0.0
G2 X0.47972 Y5.44884 I0.02653 J-0.32141
G1 X15.97972
G2 X16.30222 Y5.12634 I0.0 J-0.3225
G1 Y0.43884
G2 X16.16722 Y0.30384 I-0.135 J0.0
G1 X0.29222
G2 X0.15722 Y0.43884 I0.0 J0.135
G1 Y5.12634
G2 X0.45319 Y5.44774 I0.3225 J0.0
G0 Z0.25
G0 X0.15722 Y5.03923
G1 F75.0 Z-0.1
G1 F120.0 Y5.12634 Z-0.11536
G2 X0.45319 Y5.44774 Z-0.2 I0.3225 J0.0
G2 X0.47972 Y5.44884 I0.02653 J-0.32141
G1 X15.97972
G2 X16.30222 Y5.12634 I0.0 J-0.3225
G1 Y0.43884
G2 X16.16722 Y0.30384 I-0.135 J0.0
G1 X0.29222
G2 X0.15722 Y0.43884 I0.0 J0.135
G1 Y5.12634
G2 X0.45319 Y5.44774 I0.3225 J0.0
G0 Z0.25
G0 X0.15722 Y5.03923
G1 F75.0 Z-0.2
G1 F120.0 Y5.12634 Z-0.21536
G2 X0.45319 Y5.44774 Z-0.3 I0.3225 J0.0
G2 X0.47972 Y5.44884 I0.02653 J-0.32141
G1 X15.97972
G2 X16.30222 Y5.12634 I0.0 J-0.3225
G1 Y0.43884
G2 X16.16722 Y0.30384 I-0.135 J0.0
G1 X0.29222
G2 X0.15722 Y0.43884 I0.0 J0.135
G1 Y5.12634
G2 X0.45319 Y5.44774 I0.3225 J0.0
G0 Z0.25
G0 X0.21523 Y5.31086
G1 F75.0 Z-0.3
G2 F120.0 X0.45319 Y5.44774 Z-0.35 I0.26449 J-0.18453
G2 X0.47972 Y5.44884 I0.02653 J-0.32141
G1 X15.97972
G2 X16.30222 Y5.12634 I0.0 J-0.3225
G1 Y0.43884
G2 X16.16722 Y0.30384 I-0.135 J0.0
G1 X0.29222
G2 X0.15722 Y0.43884 I0.0 J0.135
G1 Y5.12634
G2 X0.45319 Y5.44774 I0.3225 J0.0
G1 F75.0 X0.3703 Y5.42971
G2 F120.0 X0.45319 Y5.44774 Z-0.365 I0.10942 J-0.30337
G2 X0.47972 Y5.44884 I0.02653 J-0.32141
G1 X15.97972
G2 X16.30222 Y5.12634 I0.0 J-0.3225
G1 Y0.43884
G2 X16.16722 Y0.30384 I-0.135 J0.0
G1 X0.29222
G2 X0.15722 Y0.43884 I0.0 J0.135
G1 Y5.12634
G2 X0.45319 Y5.44774 I0.3225 J0.0
( FinishOuterProfiles )
S2000
G0 Z0.25
G0 X1.01441 Y5.96003
G1 F75.0 Z0.0
G1 F120.0 X0.48405 Z-0.09352
G2 X0.17155 Y6.27253 Z-0.18007 I0.0 J0.3125
G1 Y7.21003 Z-0.34538
G2 X0.29655 Y7.33503 Z-0.38 I0.125 J0.0
G1 X16.17155
G2 X16.29655 Y7.21003 I0.0 J-0.125
G1 Y6.27253
G2 X15.98405 Y5.96003 I-0.3125 J0.0
G1 X0.48405
G2 X0.17155 Y6.27253 I0.0 J0.3125
G1 Y7.21003
G2 X0.29655 Y7.33503 I0.125 J0.0
G1 F75.0 X0.24176 Y7.32239
G2 F120.0 X0.29655 Y7.33503 Z-0.39 I0.05479 J-0.11235
G1 X16.17155
G2 X16.29655 Y7.21003 I0.0 J-0.125
G1 Y6.27253
G2 X15.98405 Y5.96003 I-0.3125 J0.0
G1 X0.48405
G2 X0.17155 Y6.27253 I0.0 J0.3125
G1 Y7.21003
G2 X0.29655 Y7.33503 I0.125 J0.0
G0 Z0.25
G0 X0.16722 Y3.43627
G1 F75.0 Z0.0
G1 F120.0 Y5.12634 Z-0.29801
G2 X0.45389 Y5.43777 Z-0.38 I0.3125 J0.0
G2 X0.47972 Y5.43884 I0.02583 J-0.31143
G1 X15.97972
G2 X16.29222 Y5.12634 I0.0 J-0.3125
G1 Y0.43884
G2 X16.16722 Y0.31384 I-0.125 J0.0
G1 X0.29222
G2 X0.16722 Y0.43884 I0.0 J0.125
G1 Y5.12634
G2 X0.45389 Y5.43777 I0.3125 J0.0
G1 F75.0 X0.39811 Y5.42799
G2 F120.0 X0.45389 Y5.43777 Z-0.39 I0.08161 J-0.30165
G2 X0.47972 Y5.43884 I0.02583 J-0.31143
G1 X15.97972
G2 X16.29222 Y5.12634 I0.0 J-0.3125
G1 Y0.43884
G2 X16.16722 Y0.31384 I-0.125 J0.0
G1 X0.29222
G2 X0.16722 Y0.43884 I0.0 J0.125
G1 Y5.12634
G2 X0.45389 Y5.43777 I0.3125 J0.0
G0 Z0.25
M5
M30
