( Made using CamBam - http://www.cambam.co.uk )
( DustShoe2 2/20/2011 9:52:26 AM )
( T0 : 0.125 )
G20 G90 G64 G40
G0 Z0.125
( T0 : 0.125 )
T0 M6
( bristleholes )
G17
M3 S2000
G0 Z0.125
G0 X1.4915 Y6.4776
G83 Z-0.39 Q0.18 R0.125 F60.0
G83 X1.3634 Y6.1682 Z-0.39
G83 Y5.7932 Z-0.39
G83 Y5.4182 Z-0.39
G83 Y5.0432 Z-0.39
G83 Y4.6682 Z-0.39
G83 Y4.2932 Z-0.39
G83 Y3.9182 Z-0.39
G83 Y3.5432 Z-0.39
G83 Y3.1682 Z-0.39
G83 Y2.7932 Z-0.39
G83 Y2.4182 Z-0.39
G83 Y2.0432 Z-0.39
G83 X1.4561 Y1.6489 Z-0.39
G83 X1.8009 Y1.4807 Z-0.39
G83 X2.1759 Z-0.39
G83 X2.5509 Z-0.39
G83 X2.9259 Z-0.39
G83 X3.3009 Z-0.39
G83 X3.6759 Z-0.39
G83 X4.0509 Z-0.39
G83 X4.4259 Z-0.39
G83 X4.8009 Z-0.39
G83 X5.1759 Z-0.39
G83 X5.4842 Y1.496 Z-0.39
G83 X5.7985 Y1.6281 Z-0.39
G83 X6.1429 Y1.7764 Z-0.39
G83 X6.4874 Y1.9247 Z-0.39
G83 X6.8318 Y2.0731 Z-0.39
G83 X7.1762 Y2.2214 Z-0.39
G83 X7.5206 Y2.3697 Z-0.39
G83 X7.865 Y2.5181 Z-0.39
G83 X8.2094 Y2.6664 Z-0.39
G83 X8.5539 Y2.8147 Z-0.39
G83 X8.8983 Y2.963 Z-0.39
G83 X9.2427 Y3.1114 Z-0.39
G83 X9.5871 Y3.2597 Z-0.39
G83 X9.7384 Y3.5432 Z-0.39
G83 Y3.9182 Z-0.39
G83 Y4.2932 Z-0.39
G83 Y4.6682 Z-0.39
G83 Y5.0432 Z-0.39
G83 Y5.4182 Z-0.39
G83 Y5.7932 Z-0.39
G83 Y6.1682 Z-0.39
G83 X9.6102 Y6.4776 Z-0.39
G83 X9.3009 Y6.6057 Z-0.39
G83 X8.9259 Z-0.39
G83 X8.5509 Z-0.39
G83 X8.1759 Z-0.39
G83 X7.8009 Z-0.39
G83 X7.4259 Z-0.39
G83 X7.0509 Z-0.39
G83 X6.6759 Z-0.39
G83 X6.3009 Z-0.39
G83 X5.9259 Z-0.39
G83 X5.5509 Z-0.39
G83 X5.1759 Z-0.39
G83 X4.8009 Z-0.39
G83 X4.4259 Z-0.39
G83 X4.0509 Z-0.39
G83 X3.6759 Z-0.39
G83 X3.3009 Z-0.39
G83 X2.9259 Z-0.39
G83 X2.5509 Z-0.39
G83 X2.1759 Z-0.39
G83 X1.8009 Z-0.39
G80
( innerprof-rough )
S2000
G0 Z0.5
G0 X8.6921 Y3.3049
G1 Z0.0
G1 F120.0 X9.3434 Y3.5849 Z-0.125
G1 F140.0 Y6.1682
G3 X9.3009 Y6.2107 I-0.0425 J0.0
G1 X1.8009
G3 X1.7584 Y6.1682 I0.0 J-0.0425
G1 Y1.9182
G3 X1.8009 Y1.8757 I0.0425 J0.0
G1 X5.3675
G1 X9.3434 Y3.5849
G0 Z0.5
G0 X8.6921 Y3.3049
G1 F60.0 Z-0.125
G1 F120.0 X9.3434 Y3.5849 Z-0.25
G1 F140.0 Y6.1682
G3 X9.3009 Y6.2107 I-0.0425 J0.0
G1 X1.8009
G3 X1.7584 Y6.1682 I0.0 J-0.0425
G1 Y1.9182
G3 X1.8009 Y1.8757 I0.0425 J0.0
G1 X5.3675
G1 X9.3434 Y3.5849
G0 Z0.5
G0 X8.7442 Y3.3273
G1 F60.0 Z-0.25
G1 F120.0 X9.3434 Y3.5849 Z-0.365
G1 F140.0 Y6.1682
G3 X9.3009 Y6.2107 I-0.0425 J0.0
G1 X1.8009
G3 X1.7584 Y6.1682 I0.0 J-0.0425
G1 Y1.9182
G3 X1.8009 Y1.8757 I0.0425 J0.0
G1 X5.3675
G1 X9.3434 Y3.5849
G1 F60.0 X9.3173 Y3.5737
G1 F120.0 X9.3434 Y3.5849 Z-0.37
G1 F140.0 Y6.1682
G3 X9.3009 Y6.2107 I-0.0425 J0.0
G1 X1.8009
G3 X1.7584 Y6.1682 I0.0 J-0.0425
G1 Y1.9182
G3 X1.8009 Y1.8757 I0.0425 J0.0
G1 X5.3675
G1 X9.3434 Y3.5849
( innerprof-finish )
S2000
G0 Z0.5
G0 X8.0608 Y3.0118
G1 F60.0 Z0.0
G1 F120.0 X9.3634 Y3.5717 Z-0.25
G1 F140.0 Y6.1682
G3 X9.3009 Y6.2307 I-0.0625 J0.0
G1 X1.8009
G3 X1.7384 Y6.1682 I0.0 J-0.0625
G1 Y1.9182
G3 X1.8009 Y1.8557 I0.0625 J0.0
G1 X5.3716
G1 X9.3634 Y3.5717
G0 Z0.5
G0 X8.686 Y3.2805
G1 F60.0 Z-0.25
G1 F120.0 X9.3634 Y3.5717 Z-0.38
G1 F140.0 Y6.1682
G3 X9.3009 Y6.2307 I-0.0625 J0.0
G1 X1.8009
G3 X1.7384 Y6.1682 I0.0 J-0.0625
G1 Y1.9182
G3 X1.8009 Y1.8557 I0.0625 J0.0
G1 X5.3716
G1 X9.3634 Y3.5717
G1 F60.0 X9.3113 Y3.5493
G1 F120.0 X9.3634 Y3.5717 Z-0.39
G1 F140.0 Y6.1682
G3 X9.3009 Y6.2307 I-0.0625 J0.0
G1 X1.8009
G3 X1.7384 Y6.1682 I0.0 J-0.0625
G1 Y1.9182
G3 X1.8009 Y1.8557 I0.0625 J0.0
G1 X5.3716
G1 X9.3634 Y3.5717
( prof-rough )
S2000
G0 Z0.5
G0 X6.2915 Y1.413
G1 F60.0 Z0.0
G1 F120.0 X5.6402 Y1.1331 Z-0.125
G2 F140.0 X5.4102 Y1.0857 I-0.23 J0.5351
G1 X1.8009
G2 X0.9684 Y1.9182 I0.0 J0.8325
G1 Y6.1682
G2 X1.8009 Y7.0007 I0.8325 J0.0
G1 X9.3009
G2 X10.1334 Y6.1682 I0.0 J-0.8325
G1 Y3.4482
G2 X9.7809 Y2.9131 I-0.5825 J0.0
G1 X5.6402 Y1.1331
G0 Z0.5
G0 X6.2915 Y1.413
G1 F60.0 Z-0.125
G1 F120.0 X5.6402 Y1.1331 Z-0.25
G2 F140.0 X5.4102 Y1.0857 I-0.23 J0.5351
G1 X1.8009
G2 X0.9684 Y1.9182 I0.0 J0.8325
G1 Y6.1682
G2 X1.8009 Y7.0007 I0.8325 J0.0
G1 X9.3009
G2 X10.1334 Y6.1682 I0.0 J-0.8325
G1 Y3.4482
G2 X9.7809 Y2.9131 I-0.5825 J0.0
G1 X5.6402 Y1.1331
G0 Z0.5
G0 X6.2394 Y1.3906
G1 F60.0 Z-0.25
G1 F120.0 X5.6402 Y1.1331 Z-0.365
G2 F140.0 X5.4102 Y1.0857 I-0.23 J0.5351
G1 X1.8009
G2 X0.9684 Y1.9182 I0.0 J0.8325
G1 Y6.1682
G2 X1.8009 Y7.0007 I0.8325 J0.0
G1 X9.3009
G2 X10.1334 Y6.1682 I0.0 J-0.8325
G1 Y3.4482
G2 X9.7809 Y2.9131 I-0.5825 J0.0
G1 X5.6402 Y1.1331
G1 F60.0 X5.6663 Y1.1443
G1 F120.0 X5.6402 Y1.1331 Z-0.37
G2 F140.0 X5.4102 Y1.0857 I-0.23 J0.5351
G1 X1.8009
G2 X0.9684 Y1.9182 I0.0 J0.8325
G1 Y6.1682
G2 X1.8009 Y7.0007 I0.8325 J0.0
G1 X9.3009
G2 X10.1334 Y6.1682 I0.0 J-0.8325
G1 Y3.4482
G2 X9.7809 Y2.9131 I-0.5825 J0.0
G1 X5.6402 Y1.1331
( prof-finish )
S2000
G0 Z0.5
G0 X6.9349 Y1.7114
G1 F60.0 Z0.0
G1 F120.0 X5.6323 Y1.1514 Z-0.25
G2 F140.0 X5.4102 Y1.1057 I-0.2222 J0.5168
G1 X1.8009
G2 X0.9884 Y1.9182 I0.0 J0.8125
G1 Y6.1682
G2 X1.8009 Y6.9807 I0.8125 J0.0
G1 X9.3009
G2 X10.1134 Y6.1682 I0.0 J-0.8125
G1 Y3.4482
G2 X9.773 Y2.9314 I-0.5625 J0.0
G1 X5.6323 Y1.1514
G0 Z0.5
G0 X6.2836 Y1.4314
G1 F60.0 Z-0.25
G1 F120.0 X5.6323 Y1.1514 Z-0.375
G2 F140.0 X5.4102 Y1.1057 I-0.2222 J0.5168
G1 X1.8009
G2 X0.9884 Y1.9182 I0.0 J0.8125
G1 Y6.1682
G2 X1.8009 Y6.9807 I0.8125 J0.0
G1 X9.3009
G2 X10.1134 Y6.1682 I0.0 J-0.8125
G1 Y3.4482
G2 X9.773 Y2.9314 I-0.5625 J0.0
G1 X5.6323 Y1.1514
G1 F60.0 X5.7105 Y1.185
G1 F120.0 X5.6323 Y1.1514 Z-0.39
G2 F140.0 X5.4102 Y1.1057 I-0.2222 J0.5168
G1 X1.8009
G2 X0.9884 Y1.9182 I0.0 J0.8125
G1 Y6.1682
G2 X1.8009 Y6.9807 I0.8125 J0.0
G1 X9.3009
G2 X10.1134 Y6.1682 I0.0 J-0.8125
G1 Y3.4482
G2 X9.773 Y2.9314 I-0.5625 J0.0
G1 X5.6323 Y1.1514
G0 Z0.5
M5
M30
