( Made using CamBam - http://www.cambam.co.uk )
( fixturepocket 5/4/2011 7:54:37 PM )
( T0 : 0.25 )
G20 G90 G64 G40
G0 Z0.1
( T0 : 0.25 )
( Pocket1 )
G17
M3 S2000
G0 X0.8631 Y0.568
G1 F20.0 Z0.0
G1 F120.0 X0.432 Z-0.076
G1 Y0.432 Z-0.1
G1 X7.568
G1 Y0.568
G1 X0.432
G1 Y0.432
G1 F20.0 X0.332
G1 F120.0 Y0.332
G1 X7.668
G1 Y0.668
G1 X0.332
G1 Y0.432
G1 F20.0 X0.232
G1 F120.0 Y0.232
G1 X7.768
G1 Y0.768
G1 X0.232
G1 Y0.432
G1 F20.0 X0.132
G1 F120.0 Y0.132
G1 X7.868
G1 Y0.868
G1 X0.132
G1 Y0.432
G1 F20.0 X0.127
G1 F120.0 Y0.127
G1 X7.873
G1 Y0.873
G1 X0.127
G1 Y0.432
G0 Z0.1
G0 X0.693 Y0.568
G1 F20.0 Z-0.1
G1 F120.0 X0.432 Z-0.146
G1 Y0.432 Z-0.17
G1 X7.568
G1 Y0.568
G1 X0.432
G1 Y0.432
G1 F20.0 X0.332
G1 F120.0 Y0.332
G1 X7.668
G1 Y0.668
G1 X0.332
G1 Y0.432
G1 F20.0 X0.232
G1 F120.0 Y0.232
G1 X7.768
G1 Y0.768
G1 X0.232
G1 Y0.432
G1 F20.0 X0.132
G1 F120.0 Y0.132
G1 X7.868
G1 Y0.868
G1 X0.132
G1 Y0.432
G1 F20.0 X0.127
G1 F120.0 Y0.127
G1 X7.873
G1 Y0.873
G1 X0.127
G1 Y0.432
G0 Z0.1
G0 X0.432 Y0.4887
G1 F20.0 Z-0.17
G1 F120.0 Y0.432 Z-0.18
G1 X7.568
G1 Y0.568
G1 X0.432
G1 Y0.432
G1 F20.0 X0.332
G1 F120.0 Y0.332
G1 X7.668
G1 Y0.668
G1 X0.332
G1 Y0.432
G1 F20.0 X0.232
G1 F120.0 Y0.232
G1 X7.768
G1 Y0.768
G1 X0.232
G1 Y0.432
G1 F20.0 X0.132
G1 F120.0 Y0.132
G1 X7.868
G1 Y0.868
G1 X0.132
G1 Y0.432
G1 F20.0 X0.127
G1 F120.0 Y0.127
G1 X7.873
G1 Y0.873
G1 X0.127
G1 Y0.432
G0 Z0.1
M5
M30
