( RipMaster Base Plate)
( Feeds/Speeds: single-o flute, 18k rpm, 150in/min )
( 4/23/2010  )
( T0 : 0.125 Single flute carbide )
( T1 : 0.015 Ball Nose Endmill)
( At prompt, fixture part using the holes created by the first part of the program )
( make sure hal_manualtoolchange is loaded ! )

( FeedRate )
#4=-.010 ( Logo Depth of Cut )


G20
G90
G64
M03 
G00 Z0.1
F140

( Drill Holes )
( URHole )
G00 X15.298359 Y4.95296
G01 Z-0.185
G02 X15.269859 Y4.936506 I-0.019 J0
G02 Y4.969415 I0.0095 J0.016454
G02 X15.298359 Y4.95296 I0.0095 J-0.016454
G01 X15.323359
G02 X15.257359 Y4.914855 I-0.044 J0
G02 Y4.991065 I0.022 J0.038105
G02 X15.323359 Y4.95296 I0.022 J-0.038105
G01 X15.373359
G02 X15.232359 Y4.871554 I-0.094 J0
G02 Y5.034366 I0.047 J0.081406
G02 X15.373359 Y4.95296 I0.047 J-0.081406

( LRHole )
G00 Z0.1
G00 X15.298359 Y1.70296
G01 Z-0.185
G02 X15.269859 Y1.686506 I-0.019 J0
G02 Y1.719415 I0.0095 J0.016454
G02 X15.298359 Y1.70296 I0.0095 J-0.016454
G01 X15.323359
G02 X15.257359 Y1.664855 I-0.044 J0
G02 Y1.741065 I0.022 J0.038105
G02 X15.323359 Y1.70296 I0.022 J-0.038105
G01 X15.373359
G02 X15.232359 Y1.621554 I-0.094 J0
G02 Y1.784366 I0.047 J0.081406
G02 X15.373359 Y1.70296 I0.047 J-0.081406

( LLHole )
G00 Z0.1
G00 X1.048359
G01 Z-0.185
G02 X1.019859 Y1.686506 I-0.019 J0
G02 Y1.719415 I0.0095 J0.016454
G02 X1.048359 Y1.70296 I0.0095 J-0.016454
G01 X1.073359
G02 X1.007359 Y1.664855 I-0.044 J0
G02 Y1.741065 I0.022 J0.038105
G02 X1.073359 Y1.70296 I0.022 J-0.038105
G01 X1.123359
G02 X0.982359 Y1.621554 I-0.094 J0
G02 Y1.784366 I0.047 J0.081406
G02 X1.123359 Y1.70296 I0.047 J-0.081406

( ULHole )
G00 Z0.1
G00 X1.048359 Y4.95296
G01 Z-0.185
G02 X1.019859 Y4.936506 I-0.019 J0
G02 Y4.969415 I0.0095 J0.016454
G02 X1.048359 Y4.95296 I0.0095 J-0.016454
G01 X1.073359
G02 X1.007359 Y4.914855 I-0.044 J0
G02 Y4.991065 I0.022 J0.038105
G02 X1.073359 Y4.95296 I0.022 J-0.038105
G01 X1.123359
G02 X0.982359 Y4.871554 I-0.094 J0
G02 Y5.034366 I0.047 J0.081406
G02 X1.123359 Y4.95296 I0.047 J-0.081406


( URThruHole -- steps of 1/8" DOC)
G00 Z0.1
G00 X15.314359 Y4.95296
G01 Z-0.125
G02 X15.261859 Y4.922649 I-0.035 J0
G02 Y4.983271 I0.0175 J0.030311
G02 X15.314359 Y4.95296 I0.0175 J-0.030311

G00 Z0.1
G00 X15.314359 Y4.95296
G01 Z-0.25
G02 X15.261859 Y4.922649 I-0.035 J0
G02 Y4.983271 I0.0175 J0.030311
G02 X15.314359 Y4.95296 I0.0175 J-0.030311

G00 Z0.1
G00 X15.314359 Y4.95296
G01 Z-0.385
G02 X15.261859 Y4.922649 I-0.035 J0
G02 Y4.983271 I0.0175 J0.030311
G02 X15.314359 Y4.95296 I0.0175 J-0.030311


( LRThruHole )
G00 Z0.1
G00 Y1.70296
G01 Z-0.125
G02 X15.261859 Y1.672649 I-0.035 J0
G02 Y1.733271 I0.0175 J0.030311
G02 X15.314359 Y1.70296 I0.0175 J-0.030311

G00 Z0.1
G00 Y1.70296
G01 Z-0.25
G02 X15.261859 Y1.672649 I-0.035 J0
G02 Y1.733271 I0.0175 J0.030311
G02 X15.314359 Y1.70296 I0.0175 J-0.030311

G00 Z0.1
G00 Y1.70296
G01 Z-0.385
G02 X15.261859 Y1.672649 I-0.035 J0
G02 Y1.733271 I0.0175 J0.030311
G02 X15.314359 Y1.70296 I0.0175 J-0.030311

( LLThruHole )
G00 Z0.1
G00 X1.063859
G01 Z-0.125
G02 X1.012109 Y1.673082 I-0.0345 J0
G02 Y1.732838 I0.01725 J0.029878
G02 X1.063859 Y1.70296 I0.01725 J-0.029878

G00 Z0.1
G00 X1.063859
G01 Z-0.25
G02 X1.012109 Y1.673082 I-0.0345 J0
G02 Y1.732838 I0.01725 J0.029878
G02 X1.063859 Y1.70296 I0.01725 J-0.029878

G00 Z0.1
G00 X1.063859
G01 Z-0.385
G02 X1.012109 Y1.673082 I-0.0345 J0
G02 Y1.732838 I0.01725 J0.029878
G02 X1.063859 Y1.70296 I0.01725 J-0.029878

( ULThruHole )
G00 Z0.1
G00 Y4.95296
G01 Z-0.125
G02 X1.012109 Y4.923082 I-0.0345 J0
G02 Y4.982838 I0.01725 J0.029878
G02 X1.063859 Y4.95296 I0.01725 J-0.029878

G00 Z0.1
G00 Y4.95296
G01 Z-0.25
G02 X1.012109 Y4.923082 I-0.0345 J0
G02 Y4.982838 I0.01725 J0.029878
G02 X1.063859 Y4.95296 I0.01725 J-0.029878

G00 Z0.1
G00 Y4.95296
G01 Z-0.385
G02 X1.012109 Y4.923082 I-0.0345 J0
G02 Y4.982838 I0.01725 J0.029878
G02 X1.063859 Y4.95296 I0.01725 J-0.029878

G00 Z4.0 ( Make room for operator to install screws )
(Pause here: operator should secure work using screws in the newly created holes )
M00

M03
( OuterProfile )
G00 Z0.1
G00 X15.841859 Y5.20296
G01 Z-0.125
G03 X15.529359 Y5.51546 I-0.3125 J0
G01 X0.779359
G03 X0.466859 Y5.20296 I0 J-0.3125
G01 Y0.51546
G03 X0.591859 Y0.39046 I0.125 J0
G01 X15.716859
G03 X15.841859 Y0.51546 I0 J0.125
G01 Y5.20296

G00 Z0.1
G00 X15.841859 Y5.20296
G01 Z-0.25
G03 X15.529359 Y5.51546 I-0.3125 J0
G01 X0.779359
G03 X0.466859 Y5.20296 I0 J-0.3125
G01 Y0.51546
G03 X0.591859 Y0.39046 I0.125 J0
G01 X15.716859
G03 X15.841859 Y0.51546 I0 J0.125
G01 Y5.20296

G00 Z0.1
G00 X15.841859 Y5.20296
G01 Z-0.385
G03 X15.529359 Y5.51546 I-0.3125 J0
G01 X0.779359
G03 X0.466859 Y5.20296 I0 J-0.3125
G01 Y0.51546
G03 X0.591859 Y0.39046 I0.125 J0
G01 X15.716859
G03 X15.841859 Y0.51546 I0 J0.125
G01 Y5.20296

( InnerPocket )
G00 Z0.1
G00 X10.404359 Y3.89046
G01 Z-0.125
G02 X10.466859 Y3.82796 I0 J-0.0625
G01 Y1.07796
G02 X10.404359 Y1.01546 I-0.0625 J0
G01 X2.654359
G02 X2.591859 Y1.07796 I0 J0.0625
G01 Y3.82796
G02 X2.654359 Y3.89046 I0.0625 J0
G01 X10.404359

G00 Z0.1
G00 X10.404359 Y3.89046
G01 Z-0.25
G02 X10.466859 Y3.82796 I0 J-0.0625
G01 Y1.07796
G02 X10.404359 Y1.01546 I-0.0625 J0
G01 X2.654359
G02 X2.591859 Y1.07796 I0 J0.0625
G01 Y3.82796
G02 X2.654359 Y3.89046 I0.0625 J0
G01 X10.404359

G00 Z0.1
G00 X10.404359 Y3.89046
G01 Z-0.385
G02 X10.466859 Y3.82796 I0 J-0.0625
G01 Y1.07796
G02 X10.404359 Y1.01546 I-0.0625 J0
G01 X2.654359
G02 X2.591859 Y1.07796 I0 J0.0625
G01 Y3.82796
G02 X2.654359 Y3.89046 I0.0625 J0
G01 X10.404359

( UpperSlot )
G00 Z0.1
G00 X14.279359 Y4.96546
G01 Z-0.125
G02 Y4.94046 I0 J-0.0125
G01 X11.779359
G02 Y4.96546 I0 J0.0125
G01 X14.279359
G01 Y4.99046
G02 Y4.91546 I0 J-0.0375
G01 X11.779359
G02 Y4.99046 I0 J0.0375
G01 X14.279359
G01 Y5.04046
G02 Y4.86546 I0 J-0.0875
G01 X11.779359
G02 Y5.04046 I0 J0.0875
G01 X14.279359
G01 Y5.09046
G02 Y4.81546 I0 J-0.1375
G01 X11.779359
G02 Y5.09046 I0 J0.1375
G01 X14.279359
G01 Y5.14046
G02 Y4.76546 I0 J-0.1875
G01 X11.779359
G02 Y5.14046 I0 J0.1875
G01 X14.279359

G00 Z0.1
G00 X14.279359 Y4.96546
G01 Z-0.25
G02 Y4.94046 I0 J-0.0125
G01 X11.779359
G02 Y4.96546 I0 J0.0125
G01 X14.279359
G01 Y4.99046
G02 Y4.91546 I0 J-0.0375
G01 X11.779359
G02 Y4.99046 I0 J0.0375
G01 X14.279359
G01 Y5.04046
G02 Y4.86546 I0 J-0.0875
G01 X11.779359
G02 Y5.04046 I0 J0.0875
G01 X14.279359
G01 Y5.09046
G02 Y4.81546 I0 J-0.1375
G01 X11.779359
G02 Y5.09046 I0 J0.1375
G01 X14.279359
G01 Y5.14046
G02 Y4.76546 I0 J-0.1875
G01 X11.779359
G02 Y5.14046 I0 J0.1875
G01 X14.279359

( LowerSlot )
G00 Z0.1
G00 Y2.46546
G01 Z-0.125
G02 Y2.44046 I0 J-0.0125
G01 X11.779359
G02 Y2.46546 I0 J0.0125
G01 X14.279359
G01 Y2.49046
G02 Y2.41546 I0 J-0.0375
G01 X11.779359
G02 Y2.49046 I0 J0.0375
G01 X14.279359
G01 Y2.54046
G02 Y2.36546 I0 J-0.0875
G01 X11.779359
G02 Y2.54046 I0 J0.0875
G01 X14.279359
G01 Y2.59046
G02 Y2.31546 I0 J-0.1375
G01 X11.779359
G02 Y2.59046 I0 J0.1375
G01 X14.279359
G01 Y2.64046
G02 Y2.26546 I0 J-0.1875
G01 X11.779359
G02 Y2.64046 I0 J0.1875
G01 X14.279359

( LowerSlot )
G00 Z0.1
G00 Y2.46546
G01 Z-0.25
G02 Y2.44046 I0 J-0.0125
G01 X11.779359
G02 Y2.46546 I0 J0.0125
G01 X14.279359
G01 Y2.49046
G02 Y2.41546 I0 J-0.0375
G01 X11.779359
G02 Y2.49046 I0 J0.0375
G01 X14.279359
G01 Y2.54046
G02 Y2.36546 I0 J-0.0875
G01 X11.779359
G02 Y2.54046 I0 J0.0875
G01 X14.279359
G01 Y2.59046
G02 Y2.31546 I0 J-0.1375
G01 X11.779359
G02 Y2.59046 I0 J0.1375
G01 X14.279359
G01 Y2.64046
G02 Y2.26546 I0 J-0.1875
G01 X11.779359
G02 Y2.64046 I0 J0.1875
G01 X14.279359

( URInnerSlot )
G00 Z0.1
G00 X14.279359 Y4.91846
G01 Z-0.125
G01 X11.779359
G02 Y4.98746 I0 J0.0345
G01 X14.279359
G02 Y4.91846 I0 J-0.0345

G00 Z0.1
G00 X14.279359 Y4.91846
G01 Z-0.25
G01 X11.779359
G02 Y4.98746 I0 J0.0345
G01 X14.279359
G02 Y4.91846 I0 J-0.0345

G00 Z0.1
G00 X14.279359 Y4.91846
G01 Z-0.385
G01 X11.779359
G02 Y4.98746 I0 J0.0345
G01 X14.279359
G02 Y4.91846 I0 J-0.0345

( LRInnerSlot )
G00 Z0.1
G00 X11.779359 Y2.41846
G01 Z-0.125
G02 Y2.48746 I0 J0.0345
G01 X14.279359
G02 Y2.41846 I0 J-0.0345
G01 X11.779359

G00 Z0.1
G00 X11.779359 Y2.41846
G01 Z-0.25
G02 Y2.48746 I0 J0.0345
G01 X14.279359
G02 Y2.41846 I0 J-0.0345
G01 X11.779359

G00 Z0.1
G00 X11.779359 Y2.41846
G01 Z-0.385
G02 Y2.48746 I0 J0.0345
G01 X14.279359
G02 Y2.41846 I0 J-0.0345
G01 X11.779359

G00 Z4.0
M05
M30
