( Made using CamBam - http://www.cambam.co.uk )
( riprunnertext 6/16/2011 10:04:26 AM )
( T0 : 0.0 )
G20 G90 G64 G40
G0 Z0.125
( T0 : 0.0 )
( Engrave1 )
G17
M3 S1000
G0 X0.4941 Y0.2222
G1 F20.0 Z-0.015
G2 F80.0 X0.4887 Y0.2059 I-0.0386 J0.0036
G1 X0.3969 Y0.0321
G2 X0.383 Y0.014 I-0.0368 J0.0139
G2 X0.361 Y0.0079 I-0.0208 J0.0324
G2 X0.3413 Y0.0119 I-0.0011 J0.0451
G2 X0.3268 Y0.026 I0.0141 J0.0289
G1 X0.2568 Y0.1627
G1 X0.1855 Y0.0252
G2 X0.1704 Y0.0111 I-0.0286 J0.0154
G2 X0.1501 Y0.0072 I-0.0191 J0.0446
G2 X0.1294 Y0.0113 I-0.0013 J0.0478
G2 X0.1144 Y0.0262 I0.0137 J0.0287
G1 X0.0226 Y0.2083
G2 X0.019 Y0.2222 I0.0549 J0.0219
G2 X0.0211 Y0.2323 I0.0221 J0.0005
G2 X0.0328 Y0.2415 I0.0166 J-0.009
G2 X0.0475 Y0.2435 I0.0138 J-0.0467
G2 X0.0646 Y0.2412 I0.0011 J-0.0556
G2 X0.0783 Y0.2306 I-0.0063 J-0.0221
G1 X0.152 Y0.0824
G1 X0.2248 Y0.222
G2 X0.2383 Y0.2351 I0.0252 J-0.0126
G2 X0.2568 Y0.2386 I0.0173 J-0.0405
G2 X0.2762 Y0.234 I0.0009 J-0.0391
G2 X0.29 Y0.2196 I-0.0181 J-0.0311
G1 X0.361 Y0.0824
G1 X0.434 Y0.2296
G2 X0.4475 Y0.2409 I0.0206 J-0.0108
G2 X0.465 Y0.2435 I0.0163 J-0.05
G2 X0.4845 Y0.2396 I0.0018 J-0.0421
G2 X0.4941 Y0.2222 I-0.0086 J-0.0161
G0 Z0.125
G0 X0.5109 Y0.2225
G1 F20.0 Z-0.015
G2 F80.0 X0.513 Y0.2323 I0.0221 J0.0003
G2 X0.5247 Y0.2415 I0.0166 J-0.009
G2 X0.5395 Y0.2435 I0.0138 J-0.0467
G2 X0.5566 Y0.2412 I0.0011 J-0.0556
G2 X0.5702 Y0.2306 I-0.0063 J-0.0221
G1 X0.644 Y0.0824
G1 X0.7167 Y0.222
G2 X0.7302 Y0.2351 I0.0252 J-0.0126
G2 X0.7487 Y0.2386 I0.0173 J-0.0405
G2 X0.7681 Y0.234 I0.0009 J-0.0391
G2 X0.7819 Y0.2196 I-0.0181 J-0.0311
G1 X0.8529 Y0.0824
G1 X0.9259 Y0.2296
G2 X0.9395 Y0.2409 I0.0206 J-0.0108
G2 X0.9569 Y0.2435 I0.0163 J-0.05
G2 X0.9764 Y0.2396 I0.0018 J-0.0421
G2 X0.986 Y0.2222 I-0.0086 J-0.0161
G2 X0.9806 Y0.2059 I-0.0386 J0.0036
G1 X0.8888 Y0.0321
G2 X0.8749 Y0.014 I-0.0368 J0.0139
G2 X0.8529 Y0.0079 I-0.0208 J0.0324
G2 X0.8332 Y0.0119 I-0.0011 J0.0451
G2 X0.8188 Y0.026 I0.0141 J0.0289
G1 X0.7487 Y0.1627
G1 X0.6774 Y0.0252
G2 X0.6623 Y0.0111 I-0.0286 J0.0154
G2 X0.642 Y0.0072 I-0.0191 J0.0446
G2 X0.6213 Y0.0113 I-0.0013 J0.0478
G2 X0.6064 Y0.0262 I0.0137 J0.0287
G1 X0.5146 Y0.2083
G2 X0.5109 Y0.2222 I0.0549 J0.0219
G2 Y0.2225 I0.0221 J0.0005
G0 Z0.125
G0 X1.0028 Y0.2228
G1 F20.0 Z-0.015
G2 F80.0 X1.005 Y0.2323 I0.0221 J0.0
G2 X1.0166 Y0.2415 I0.0166 J-0.009
G2 X1.0314 Y0.2435 I0.0138 J-0.0467
G2 X1.0485 Y0.2412 I0.0011 J-0.0556
G2 X1.0622 Y0.2306 I-0.0063 J-0.0221
G1 X1.1359 Y0.0824
G1 X1.2087 Y0.222
G2 X1.2222 Y0.2351 I0.0252 J-0.0126
G2 X1.2406 Y0.2386 I0.0173 J-0.0405
G2 X1.2601 Y0.234 I0.0009 J-0.0391
G2 X1.2738 Y0.2196 I-0.0181 J-0.0311
G1 X1.3449 Y0.0824
G1 X1.4179 Y0.2296
G2 X1.4314 Y0.2409 I0.0206 J-0.0108
G2 X1.4489 Y0.2435 I0.0163 J-0.05
G2 X1.4684 Y0.2396 I0.0018 J-0.0421
G2 X1.4779 Y0.2222 I-0.0086 J-0.0161
G2 X1.4726 Y0.2059 I-0.0386 J0.0036
G1 X1.3808 Y0.0321
G2 X1.3669 Y0.014 I-0.0368 J0.0139
G2 X1.3449 Y0.0079 I-0.0208 J0.0324
G2 X1.3251 Y0.0119 I-0.0011 J0.0451
G2 X1.3107 Y0.026 I0.0141 J0.0289
G1 X1.2406 Y0.1627
G1 X1.1694 Y0.0252
G2 X1.1543 Y0.0111 I-0.0286 J0.0154
G2 X1.134 Y0.0072 I-0.0191 J0.0446
G2 X1.1132 Y0.0113 I-0.0013 J0.0478
G2 X1.0983 Y0.0262 I0.0137 J0.0287
G1 X1.0065 Y0.2083
G2 X1.0028 Y0.2222 I0.0549 J0.0219
G2 Y0.2228 I0.0221 J0.0005
G0 Z0.125
G0 X1.4994 Y0.044
G1 F20.0 Z-0.015
G2 F80.0 X1.5114 Y0.0587 I0.0267 J-0.0096
G2 X1.5353 Y0.065 I0.0228 J-0.0375
G2 X1.5597 Y0.0584 I0.0011 J-0.0443
G2 X1.5699 Y0.0482 I-0.0177 J-0.0278
G2 X1.5736 Y0.0343 I-0.0227 J-0.0136
G2 X1.5607 Y0.0106 I-0.0277 J-0.0002
G2 X1.5356 Y0.0035 I-0.024 J0.0369
G2 X1.5102 Y0.0103 I-0.0015 J0.045
G2 X1.4977 Y0.0343 I0.0153 J0.0232
G2 X1.4994 Y0.044 I0.0283 J0.0002
G0 Z0.125
G0 X1.5878
G1 F20.0 Z-0.015
G1 F80.0 Y0.1666
G2 X1.5904 Y0.1878 I0.0817 J0.0007
G2 X1.6066 Y0.2153 I0.0558 J-0.0144
G2 X1.6342 Y0.2313 I0.0511 J-0.0563
G2 X1.678 Y0.2406 I0.0622 J-0.1855
G2 X1.7228 Y0.2428 I0.0427 J-0.4149
G2 X1.7335 Y0.2409 I0.0006 J-0.0278
G2 X1.7443 Y0.2293 I-0.0075 J-0.0179
G2 X1.7467 Y0.2137 I-0.0415 J-0.0145
G2 X1.745 Y0.2034 I-0.0288 J-0.0005
G2 X1.7343 Y0.1926 I-0.0175 J0.0066
G2 X1.7192 Y0.19 I-0.014 J0.0373
G2 X1.7099 Y0.1903 I0.0017 J0.2418
G3 X1.7013 Y0.1908 I-0.0113 J-0.122
G3 X1.6707 Y0.1878 I-0.0025 J-0.1338
G3 X1.6557 Y0.1812 I0.0086 J-0.04
G3 X1.6484 Y0.1666 I0.0103 J-0.0143
G1 Y0.0269
G2 X1.6452 Y0.0133 I-0.0269 J-0.0009
G2 X1.6342 Y0.0047 I-0.0168 J0.0101
G2 X1.6224 Y0.0035 I-0.0127 J0.0631
G2 X1.6105 Y0.0033 I-0.0111 J0.3057
G2 X1.6012 Y0.0046 I-0.0005 J0.0309
G2 X1.5905 Y0.0135 I0.0048 J0.0166
G2 X1.5878 Y0.0272 I0.0281 J0.0127
G1 Y0.044
G0 Z0.125
G0 X1.7743
G1 F20.0 Z-0.015
G1 F80.0 Y0.2196
G2 X1.7755 Y0.229 I0.0342 J0.0005
G2 X1.7842 Y0.2403 I0.0174 J-0.0044
G2 X1.798 Y0.2432 I0.0128 J-0.0258
G2 X1.8098 Y0.243 I0.0008 J-0.222
G2 X1.8157 Y0.2425 I-0.0043 J-0.0851
G2 X1.8215 Y0.241 I-0.0016 J-0.0188
G2 X1.8318 Y0.2326 I-0.0055 J-0.0173
G2 X1.8346 Y0.2196 I-0.0242 J-0.0121
G1 Y0.0269
G2 X1.8334 Y0.0174 I-0.0334 J-0.0005
G2 X1.8245 Y0.0062 I-0.0173 J0.0047
G2 X1.8105 Y0.0033 I-0.013 J0.0271
G2 X1.7986 Y0.0035 I-0.0008 J0.2539
G2 X1.7868 Y0.0052 I0.0002 J0.0428
G2 X1.7769 Y0.014 I0.0057 J0.0164
G2 X1.7743 Y0.0269 I0.0268 J0.0121
G1 Y0.044
G1 Y0.2196
G2 X1.7755 Y0.229 I0.0342 J0.0005
G2 X1.7842 Y0.2403 I0.0174 J-0.0044
G2 X1.798 Y0.2432 I0.0128 J-0.0258
G2 X1.8098 Y0.243 I0.0008 J-0.222
G2 X1.8157 Y0.2425 I-0.0043 J-0.0851
G2 X1.8215 Y0.241 I-0.0016 J-0.0188
G2 X1.8318 Y0.2326 I-0.0055 J-0.0173
G2 X1.8346 Y0.2196 I-0.0242 J-0.0121
G1 Y0.0269
G2 X1.8334 Y0.0174 I-0.0334 J-0.0005
G2 X1.8245 Y0.0062 I-0.0173 J0.0047
G2 X1.8105 Y0.0033 I-0.013 J0.0271
G2 X1.7986 Y0.0035 I-0.0008 J0.2539
G2 X1.7868 Y0.0052 I0.0002 J0.0428
G2 X1.7769 Y0.014 I0.0057 J0.0164
G2 X1.7743 Y0.0269 I0.0268 J0.0121
G1 Y0.044
G0 Z0.125
G0 X1.8647
G1 F20.0 Z-0.015
G1 F80.0 Y0.1695
G2 X1.8752 Y0.2077 I0.0669 J0.0021
G2 X1.9067 Y0.2318 I0.0549 J-0.0392
G2 X1.9256 Y0.2377 I0.0387 J-0.0897
G2 X1.9551 Y0.2418 I0.0436 J-0.2098
G2 X1.9848 Y0.2428 I0.0285 J-0.4066
G1 X2.0651
G2 X2.1045 Y0.2407 I0.0016 J-0.3399
G2 X2.1344 Y0.235 I-0.0219 J-0.1965
G2 X2.1561 Y0.2267 I-0.0309 J-0.1137
G2 X2.1825 Y0.2039 I-0.0284 J-0.0595
G2 X2.1916 Y0.1702 I-0.0522 J-0.0322
G1 Y0.0811
G2 X2.1816 Y0.043 I-0.0705 J-0.002
G2 X2.1608 Y0.0228 I-0.0534 J0.0342
G2 X2.1202 Y0.0085 I-0.0581 J0.1008
G2 X2.0773 Y0.0052 I-0.0408 J0.2468
G1 X1.9252
G1 Y-0.0368
G2 X1.9223 Y-0.0499 I-0.0266 J-0.0009
G2 X1.9118 Y-0.0583 I-0.016 J0.0092
G2 X1.9 Y-0.06 I-0.012 J0.041
G2 X1.8881 Y-0.0602 I-0.0111 J0.2583
G2 X1.8787 Y-0.059 I-0.0005 J0.0338
G2 X1.8676 Y-0.0505 I0.0044 J0.0172
G2 X1.8647 Y-0.0368 I0.0256 J0.0127
G1 Y0.044
G0 Z0.125
G0 X1.9252 Y0.0572
G1 F20.0 Z-0.015
G1 F80.0 X2.0773
G3 X2.1078 Y0.06 I0.0024 J0.1417
G3 X2.1228 Y0.0661 I-0.0085 J0.0425
G3 X2.1305 Y0.0804 I-0.0091 J0.0141
G1 Y0.1695
G3 X2.1217 Y0.1831 I-0.0154 J-0.0003
G3 X2.1064 Y0.1883 I-0.0237 J-0.0449
G3 X2.086 Y0.1902 I-0.0234 J-0.1439
G3 X2.0656 Y0.1905 I-0.0192 J-0.5505
G1 X1.987
G3 X1.953 Y0.1881 I-0.0026 J-0.2037
G3 X1.9358 Y0.1829 I0.0096 J-0.0625
G3 X1.9283 Y0.1771 I0.0098 J-0.0204
G3 X1.9252 Y0.1683 I0.0106 J-0.0087
G1 Y0.0572
G0 Z0.125
G0 X1.8256 Y0.2436
G1 F20.0 Z-0.015
G2 F80.0 X1.8036 Y0.2384 I-0.0208 J0.0388
G2 X1.7785 Y0.2454 I-0.0014 J0.0434
G2 X1.7658 Y0.2691 I0.0143 J0.0229
G2 X1.7785 Y0.2926 I0.0268 J0.0006
G2 X1.8036 Y0.2999 I0.024 J-0.0356
G2 X1.8288 Y0.2926 I0.0011 J-0.0429
G2 X1.8415 Y0.2691 I-0.0141 J-0.0228
G2 X1.8288 Y0.2454 I-0.027 J-0.0008
G2 X1.8256 Y0.2436 I-0.024 J0.0369
G2 X1.8036 Y0.2384 I-0.0208 J0.0388
G2 X1.7785 Y0.2454 I-0.0014 J0.0434
G2 X1.7658 Y0.2691 I0.0143 J0.0229
G2 X1.7785 Y0.2926 I0.0268 J0.0006
G2 X1.8036 Y0.2999 I0.024 J-0.0356
G2 X1.8288 Y0.2926 I0.0011 J-0.0429
G2 X1.8415 Y0.2691 I-0.0141 J-0.0228
G2 X1.8288 Y0.2454 I-0.027 J-0.0008
G2 X1.8256 Y0.2436 I-0.024 J0.0369
G0 Z0.125
G0 X2.2168 Y0.1803
G1 F20.0 Z-0.015
G2 F80.0 X2.2184 Y0.1878 I0.0806 J-0.013
G2 X2.2345 Y0.2153 I0.0558 J-0.0144
G2 X2.2621 Y0.2313 I0.0511 J-0.0563
G2 X2.306 Y0.2406 I0.0622 J-0.1855
G2 X2.3507 Y0.2428 I0.0427 J-0.4149
G2 X2.3614 Y0.2409 I0.0006 J-0.0278
G2 X2.3722 Y0.2293 I-0.0075 J-0.0179
G2 X2.3747 Y0.2137 I-0.0415 J-0.0145
G2 X2.373 Y0.2034 I-0.0288 J-0.0005
G2 X2.3622 Y0.1926 I-0.0175 J0.0066
G2 X2.3471 Y0.19 I-0.014 J0.0373
G2 X2.3378 Y0.1903 I0.0017 J0.2418
G3 X2.3293 Y0.1908 I-0.0113 J-0.122
G3 X2.2986 Y0.1878 I-0.0025 J-0.1338
G3 X2.2836 Y0.1812 I0.0086 J-0.04
G3 X2.2763 Y0.1666 I0.0103 J-0.0143
G1 Y0.0269
G2 X2.2731 Y0.0133 I-0.0269 J-0.0009
G2 X2.2621 Y0.0047 I-0.0168 J0.0101
G2 X2.2503 Y0.0035 I-0.0127 J0.0631
G2 X2.2384 Y0.0033 I-0.0111 J0.3057
G2 X2.2291 Y0.0046 I-0.0005 J0.0309
G2 X2.2184 Y0.0135 I0.0048 J0.0166
G2 X2.2157 Y0.0272 I0.0281 J0.0127
G1 Y0.1666
G2 X2.2168 Y0.1803 I0.0817 J0.0007
G0 Z0.125
G0 X2.3976
G1 F20.0 Z-0.015
G1 F80.0 Y0.2186
G2 X2.3988 Y0.228 I0.0353 J0.0005
G2 X2.4072 Y0.2394 I0.0176 J-0.0043
G2 X2.4211 Y0.2425 I0.0128 J-0.0248
G2 X2.4328 Y0.2423 I0.0008 J-0.2537
G2 X2.4387 Y0.2418 I-0.0041 J-0.0955
G2 X2.4445 Y0.2406 I-0.0014 J-0.0199
G2 X2.4552 Y0.2321 I-0.0054 J-0.0178
G2 X2.4582 Y0.2188 I-0.0238 J-0.0124
G1 Y0.0765
G3 X2.4622 Y0.0674 I0.0122 J0.0
G3 X2.4769 Y0.0602 I0.0227 J0.0274
G3 X2.501 Y0.0564 I0.0326 J0.1273
G3 X2.5253 Y0.0555 I0.0231 J0.3122
G1 X2.6007
G3 X2.6363 Y0.0576 I0.0027 J0.2599
G3 X2.6544 Y0.062 I-0.0103 J0.082
G3 X2.6628 Y0.0669 I-0.0095 J0.0257
G3 X2.6669 Y0.0758 I-0.0076 J0.0089
G1 Y0.2188
G2 X2.6698 Y0.232 I0.0273 J0.0009
G2 X2.6803 Y0.2406 I0.016 J-0.009
G2 X2.6921 Y0.2423 I0.0119 J-0.04
G2 X2.704 Y0.2425 I0.0111 J-0.2635
G2 X2.7136 Y0.2413 I0.0005 J-0.0353
G2 X2.7251 Y0.2326 I-0.0044 J-0.0177
G2 X2.7282 Y0.2186 I-0.0257 J-0.013
G1 Y0.0765
G2 X2.7087 Y0.0329 I-0.0552 J-0.0014
G2 X2.6785 Y0.016 I-0.061 J0.0736
G2 X2.6281 Y0.0051 I-0.0721 J0.211
G2 X2.5766 Y0.0025 I-0.0492 J0.4632
G2 X2.5658 Y0.0028 I0.0018 J0.3164
G2 X2.5487 Y0.003 I0.0027 J0.7854
G2 X2.549 Y0.0033 I0.0001 J0.0001
G1 X2.5468
G1 X2.5431
G1 X2.5361
G1 X2.5253
G2 X2.4855 Y0.0054 I-0.0016 J0.3435
G2 X2.4554 Y0.0111 I0.0221 J0.1984
G2 X2.4334 Y0.0195 I0.0312 J0.1148
G2 X2.4068 Y0.0425 I0.0287 J0.0601
G2 X2.3976 Y0.0765 I0.0528 J0.0325
G1 Y0.1803
G0 Z0.125
G0 X2.7616 Y0.1751
G1 F20.0 Z-0.015
G2 F80.0 X2.7741 Y0.2104 I0.0583 J-0.0008
G2 X2.7973 Y0.2281 I0.0518 J-0.0437
G2 X2.839 Y0.24 I0.0594 J-0.1299
G2 X2.8822 Y0.2428 I0.0412 J-0.3025
G1 X2.9648
G2 X3.0023 Y0.2407 I0.0016 J-0.3167
G2 X3.0308 Y0.2352 I-0.0208 J-0.1827
G2 X3.0514 Y0.2271 I-0.0294 J-0.1057
G2 X3.0762 Y0.2051 I-0.0276 J-0.056
G2 X3.0846 Y0.1729 I-0.0515 J-0.0307
G1 Y0.0269
G2 X3.0834 Y0.0174 I-0.0334 J-0.0005
G2 X3.0745 Y0.0062 I-0.0173 J0.0047
G2 X3.0605 Y0.0033 I-0.013 J0.0271
G2 X3.0484 Y0.0035 I-0.0008 J0.2629
G2 X3.0365 Y0.0052 I0.0002 J0.0435
G2 X3.0263 Y0.0138 I0.0056 J0.0169
G2 X3.0236 Y0.0269 I0.0256 J0.0122
G1 Y0.1729
G3 X3.0208 Y0.1801 I-0.0104 J0.0
G3 X3.0112 Y0.1859 I-0.0171 J-0.0173
G3 X3.0004 Y0.1888 I-0.0228 J-0.0637
G3 X2.988 Y0.1898 I-0.0129 J-0.0845
G3 X2.9648 Y0.1903 I-0.0212 J-0.4547
G1 X2.8776
G3 X2.8559 Y0.1898 I-0.0017 J-0.4079
G3 X2.8434 Y0.1886 I0.0044 J-0.1093
G3 X2.8301 Y0.1842 I0.0081 J-0.047
G3 X2.8245 Y0.1796 I0.008 J-0.0156
G3 X2.8222 Y0.1727 I0.0088 J-0.0068
G1 Y0.0269
G2 X2.821 Y0.0174 I-0.0338 J-0.0005
G2 X2.8122 Y0.0062 I-0.0173 J0.0045
G2 X2.7983 Y0.0033 I-0.0129 J0.0265
G2 X2.7862 Y0.0035 I-0.0008 J0.2629
G2 X2.7743 Y0.0052 I0.0002 J0.0435
G2 X2.7643 Y0.0139 I0.0056 J0.0166
G2 X2.7616 Y0.0269 I0.0262 J0.0121
G1 Y0.1724
G2 Y0.1751 I0.0583 J0.0019
G0 Z0.125
G0 X3.1171 Y0.1744
G1 F20.0 Z-0.015
G2 F80.0 X3.1296 Y0.2104 I0.0584 J-0.0001
G2 X3.1528 Y0.2281 I0.0518 J-0.0437
G2 X3.1945 Y0.24 I0.0594 J-0.1299
G2 X3.2377 Y0.2428 I0.0412 J-0.3025
G1 X3.3202
G2 X3.3578 Y0.2407 I0.0016 J-0.3167
G2 X3.3862 Y0.2352 I-0.0208 J-0.1827
G2 X3.4069 Y0.2271 I-0.0294 J-0.1057
G2 X3.4317 Y0.2051 I-0.0276 J-0.056
G2 X3.4401 Y0.1729 I-0.0515 J-0.0307
G1 Y0.0269
G2 X3.4388 Y0.0174 I-0.0334 J-0.0005
G2 X3.4299 Y0.0062 I-0.0173 J0.0047
G2 X3.4159 Y0.0033 I-0.013 J0.0271
G2 X3.4039 Y0.0035 I-0.0008 J0.2629
G2 X3.392 Y0.0052 I0.0002 J0.0435
G2 X3.3818 Y0.0138 I0.0056 J0.0169
G2 X3.3791 Y0.0269 I0.0256 J0.0122
G1 Y0.1729
G3 X3.3762 Y0.1801 I-0.0104 J0.0
G3 X3.3667 Y0.1859 I-0.0171 J-0.0173
G3 X3.3559 Y0.1888 I-0.0228 J-0.0637
G3 X3.3434 Y0.1898 I-0.0129 J-0.0845
G3 X3.3202 Y0.1903 I-0.0212 J-0.4547
G1 X3.2331
G3 X3.2113 Y0.1898 I-0.0017 J-0.4079
G3 X3.1989 Y0.1886 I0.0044 J-0.1093
G3 X3.1856 Y0.1842 I0.0081 J-0.047
G3 X3.18 Y0.1796 I0.008 J-0.0156
G3 X3.1777 Y0.1727 I0.0088 J-0.0068
G1 Y0.0269
G2 X3.1764 Y0.0174 I-0.0338 J-0.0005
G2 X3.1676 Y0.0062 I-0.0173 J0.0045
G2 X3.1537 Y0.0033 I-0.0129 J0.0265
G2 X3.1417 Y0.0035 I-0.0008 J0.2629
G2 X3.1298 Y0.0052 I0.0002 J0.0435
G2 X3.1198 Y0.0139 I0.0056 J0.0166
G2 X3.1171 Y0.0269 I0.0262 J0.0121
G1 Y0.1724
G2 Y0.1744 I0.0583 J0.0019
G0 Z0.125
G0 X3.465 Y0.1676
G1 F20.0 Z-0.015
G2 F80.0 X3.4785 Y0.2047 I0.0611 J-0.0012
G2 X3.5124 Y0.2291 I0.0678 J-0.0585
G2 X3.5509 Y0.2403 I0.0569 J-0.1244
G2 X3.591 Y0.243 I0.0383 J-0.2657
G1 X3.6852
G2 X3.72 Y0.24 I0.0012 J-0.1903
G2 X3.7531 Y0.2291 I-0.021 J-0.119
G2 X3.7814 Y0.208 I-0.0292 J-0.0687
G2 X3.7924 Y0.1744 I-0.0422 J-0.0324
G1 Y0.119
G2 X3.7888 Y0.1016 I-0.0359 J-0.0016
G2 X3.7731 Y0.0933 I-0.0144 J0.0084
G1 X3.5273
G1 Y0.0965
G3 X3.5378 Y0.071 I0.0331 J-0.0012
G3 X3.5627 Y0.0589 I0.0364 J0.0433
G3 X3.5846 Y0.0565 I0.0316 J0.1843
G3 X3.6252 Y0.0555 I0.0367 J0.6806
G2 X3.6357 Y0.0537 I0.0006 J-0.0283
G2 X3.6466 Y0.0424 I-0.0072 J-0.0178
G2 X3.6491 Y0.0269 I-0.0399 J-0.0144
G2 X3.6479 Y0.0174 I-0.0338 J-0.0005
G2 X3.6391 Y0.0062 I-0.0173 J0.0045
G2 X3.6252 Y0.0033 I-0.0129 J0.0265
G2 X3.5832 Y0.0037 I-0.0033 J1.5244
G2 X3.558 Y0.005 I0.0017 J0.2947
G2 X3.5251 Y0.011 I0.0181 J0.1905
G2 X3.4948 Y0.0255 I0.023 J0.0872
G2 X3.4732 Y0.0495 I0.0501 J0.0667
G2 X3.465 Y0.0806 I0.0535 J0.0308
G1 Y0.1651
G2 Y0.1676 I0.061 J0.0013
G0 Z0.125
G0 X3.5256
G1 F20.0 Z-0.015
G1 F80.0 Y0.1468
G1 X3.7331
G1 Y0.17
G3 X3.7303 Y0.1765 I-0.0094 J-0.0001
G3 X3.7197 Y0.1828 I-0.0193 J-0.0204
G3 X3.699 Y0.1877 I-0.0353 J-0.1036
G3 X3.6352 Y0.1912 I-0.0577 J-0.4599
G3 X3.596 Y0.1907 I-0.0025 J-1.2975
G3 X3.5765 Y0.1898 I0.0162 J-0.5543
G3 X3.557 Y0.1876 I0.0091 J-0.1651
G3 X3.5386 Y0.1824 I0.0155 J-0.0913
G3 X3.53 Y0.1773 I0.0115 J-0.0289
G3 X3.5256 Y0.1683 I0.0075 J-0.0093
G1 Y0.1676
G0 Z0.125
G0 X3.81 Y0.1674
G1 F20.0 Z-0.015
G2 F80.0 X3.8126 Y0.1878 I0.0817 J-0.0001
G2 X3.8288 Y0.2153 I0.0558 J-0.0144
G2 X3.8564 Y0.2313 I0.0511 J-0.0563
G2 X3.9002 Y0.2406 I0.0622 J-0.1855
G2 X3.945 Y0.2428 I0.0427 J-0.4149
G2 X3.9556 Y0.2409 I0.0006 J-0.0278
G2 X3.9665 Y0.2293 I-0.0075 J-0.0179
G2 X3.9689 Y0.2137 I-0.0415 J-0.0145
G2 X3.9672 Y0.2034 I-0.0288 J-0.0005
G2 X3.9564 Y0.1926 I-0.0175 J0.0066
G2 X3.9413 Y0.19 I-0.014 J0.0373
G2 X3.932 Y0.1903 I0.0017 J0.2418
G3 X3.9235 Y0.1908 I-0.0113 J-0.122
G3 X3.8929 Y0.1878 I-0.0025 J-0.1338
G3 X3.8779 Y0.1812 I0.0086 J-0.04
G3 X3.8705 Y0.1666 I0.0103 J-0.0143
G1 Y0.0269
G2 X3.8674 Y0.0133 I-0.0269 J-0.0009
G2 X3.8564 Y0.0047 I-0.0168 J0.0101
G2 X3.8446 Y0.0035 I-0.0127 J0.0631
G2 X3.8327 Y0.0033 I-0.0111 J0.3057
G2 X3.8233 Y0.0046 I-0.0005 J0.0309
G2 X3.8127 Y0.0135 I0.0048 J0.0166
G2 X3.81 Y0.0272 I0.0281 J0.0127
G1 Y0.1666
G2 Y0.1674 I0.0817 J0.0007
G0 Z0.125
G0 X3.9894 Y0.0499
G1 F20.0 Z-0.015
G2 F80.0 X3.9985 Y0.0587 I0.0237 J-0.0155
G2 X4.0224 Y0.065 I0.0228 J-0.0375
G2 X4.0468 Y0.0584 I0.0011 J-0.0443
G2 X4.057 Y0.0482 I-0.0177 J-0.0278
G2 X4.0607 Y0.0343 I-0.0227 J-0.0136
G2 X4.0478 Y0.0106 I-0.0277 J-0.0002
G2 X4.0226 Y0.0035 I-0.024 J0.0369
G2 X3.9972 Y0.0103 I-0.0015 J0.045
G2 X3.9848 Y0.0343 I0.0153 J0.0232
G2 X3.9894 Y0.0499 I0.0283 J0.0002
G0 Z0.125
G0 X4.0746 Y0.0642
G1 F20.0 Z-0.015
G2 F80.0 X4.0736 Y0.0775 I0.0715 J0.012
G1 Y0.1681
G2 X4.0834 Y0.2056 I0.0693 J0.002
G2 X4.104 Y0.2255 I0.0525 J-0.0338
G2 X4.144 Y0.2395 I0.0572 J-0.0995
G2 X4.1862 Y0.2428 I0.0402 J-0.2434
G1 X4.3864
G2 X4.3966 Y0.2413 I0.0005 J-0.033
G2 X4.4082 Y0.2314 I-0.0055 J-0.018
G2 X4.4111 Y0.2164 I-0.0317 J-0.0139
G2 X4.4099 Y0.2063 I-0.0402 J-0.0005
G2 X4.4012 Y0.1938 I-0.0194 J0.0043
G2 X4.3864 Y0.1903 I-0.0137 J0.0247
G1 X4.1899
G3 X4.159 Y0.188 I-0.0024 J-0.1766
G3 X4.1434 Y0.183 I0.0087 J-0.0539
G3 X4.1369 Y0.1776 I0.0091 J-0.0179
G3 X4.1342 Y0.1695 I0.0104 J-0.0079
G1 Y0.0797
G3 X4.1447 Y0.064 I0.0176 J0.0005
G3 X4.1575 Y0.0593 I0.0248 J0.0472
G3 X4.1982 Y0.0555 I0.0369 J0.1761
G1 X4.3881
G2 X4.3987 Y0.0537 I0.0006 J-0.0289
G2 X4.4097 Y0.0425 I-0.007 J-0.0179
G2 X4.4123 Y0.0269 I-0.0394 J-0.0144
G2 X4.4104 Y0.0164 I-0.0277 J-0.0006
G2 X4.3991 Y0.0057 I-0.0177 J0.0073
G2 X4.3837 Y0.0033 I-0.0143 J0.0405
G1 X4.1967
G2 X4.1567 Y0.005 I-0.0022 J0.411
G2 X4.1368 Y0.0079 I0.0197 J0.2057
G2 X4.1176 Y0.0135 I0.0187 J0.0994
G2 X4.0994 Y0.0234 I0.0315 J0.0795
G2 X4.0797 Y0.0472 I0.0346 J0.0488
G2 X4.0746 Y0.0642 I0.0664 J0.029
G0 Z0.125
G0 X4.4352 Y0.0761
G1 F20.0 Z-0.015
G2 F80.0 Y0.0794 I0.0603 J0.002
G1 Y0.1639
G2 X4.4467 Y0.2016 I0.0626 J0.0014
G2 X4.4777 Y0.2259 I0.0633 J-0.0486
G2 X4.5163 Y0.239 I0.0663 J-0.1318
G2 X4.5568 Y0.2428 I0.0393 J-0.2047
G1 X4.641
G2 X4.6797 Y0.2402 I0.0017 J-0.266
G2 X4.7087 Y0.2331 I-0.0211 J-0.1503
G2 X4.7291 Y0.2231 I-0.0307 J-0.0875
G2 X4.7514 Y0.1976 I-0.0344 J-0.0527
G2 X4.7582 Y0.1644 I-0.0702 J-0.0317
G1 Y0.0794
G2 X4.7476 Y0.0423 I-0.0642 J-0.0017
G2 X4.7174 Y0.0181 I-0.0591 J0.0429
G2 X4.6801 Y0.0063 I-0.0586 J0.1205
G2 X4.641 Y0.0033 I-0.0375 J0.2265
G1 X4.557
G2 X4.4799 Y0.0174 I-0.0031 J0.2005
G2 X4.4477 Y0.0413 I0.0325 J0.0774
G2 X4.4352 Y0.0761 I0.0479 J0.0368
G0 Z0.125
G0 X4.4958 Y0.0793
G1 F20.0 Z-0.015
G3 F80.0 X4.504 Y0.0663 I0.0158 J0.0008
G3 X4.5182 Y0.0601 I0.0283 J0.0459
G3 X4.5578 Y0.0555 I0.0371 J0.1451
G1 X4.6398
G3 X4.6757 Y0.0609 I0.001 J0.1161
G3 X4.6891 Y0.067 I-0.0155 J0.0516
G3 X4.6946 Y0.0722 I-0.0114 J0.0176
G3 X4.6969 Y0.0794 I-0.0101 J0.0072
G1 Y0.1678
G3 X4.6878 Y0.1822 I-0.0163 J-0.0003
G3 X4.6641 Y0.1889 I-0.0294 J-0.0583
G3 X4.6396 Y0.1903 I-0.0231 J-0.1991
G1 X4.5575
G3 X4.5114 Y0.1844 I0.0015 J-0.1963
G3 X4.5004 Y0.1766 I0.0121 J-0.0288
G3 X4.4958 Y0.1639 I0.0144 J-0.0124
G1 Y0.0794
G1 Y0.0793
G0 Z0.125
G0 X4.789
G1 F20.0 Z-0.015
G1 F80.0 Y0.1627
G2 X4.7983 Y0.2018 I0.078 J0.0021
G2 X4.8187 Y0.2235 I0.0559 J-0.0323
G2 X4.8599 Y0.2391 I0.0592 J-0.0938
G2 X4.9037 Y0.2428 I0.0417 J-0.2342
G2 X4.9384 Y0.2423 I0.0015 J-1.1243
G2 X4.9611 Y0.2408 I-0.0052 J-0.2578
G2 X5.0124 Y0.223 I-0.0137 J-0.122
G2 X5.0376 Y0.2346 I0.0537 J-0.0837
G2 X5.0649 Y0.2403 I0.0466 J-0.1543
G2 X5.0933 Y0.2424 I0.035 J-0.2889
G2 X5.1217 Y0.2428 I0.0268 J-0.8862
G2 X5.1597 Y0.2399 I0.0017 J-0.233
G2 X5.1878 Y0.2322 I-0.0205 J-0.1303
G2 X5.2071 Y0.2213 I-0.0307 J-0.0769
G2 X5.2272 Y0.1952 I-0.038 J-0.05
G2 X5.2331 Y0.1627 I-0.079 J-0.031
G1 Y0.0269
G2 X5.2318 Y0.0174 I-0.0338 J-0.0005
G2 X5.2231 Y0.0062 I-0.0173 J0.0045
G2 X5.2091 Y0.0033 I-0.0129 J0.0265
G2 X5.1971 Y0.0035 I-0.0008 J0.2629
G2 X5.1852 Y0.0052 I0.0002 J0.0435
G2 X5.175 Y0.0138 I0.0056 J0.0169
G2 X5.1723 Y0.0269 I0.0256 J0.0122
G1 Y0.1685
G3 X5.1625 Y0.1831 I-0.0164 J-0.0005
G3 X5.138 Y0.1897 I-0.0305 J-0.0641
G3 X5.1127 Y0.191 I-0.0238 J-0.2153
G1 X5.1061
G1 X5.1029
G3 X5.1022 Y0.1908 I-0.0001 J-0.001
G3 X5.0812 Y0.1896 I0.0174 J-0.4883
G3 X5.0605 Y0.1864 I0.0065 J-0.1115
G3 X5.0466 Y0.1776 I0.0062 J-0.0253
G3 X5.0419 Y0.1619 I0.0205 J-0.0147
G1 Y0.0269
G2 X5.039 Y0.0137 I-0.0273 J-0.0009
G2 X5.0285 Y0.0052 I-0.016 J0.009
G2 X5.0166 Y0.0035 I-0.0121 J0.0417
G2 X5.0046 Y0.0033 I-0.0112 J0.2616
G2 X4.9951 Y0.0045 I-0.0005 J0.0342
G2 X4.9839 Y0.0131 I0.0044 J0.0174
G2 X4.9809 Y0.0269 I0.0258 J0.0128
G1 Y0.1624
G3 X4.9784 Y0.1758 I-0.0329 J0.0009
G3 X4.9689 Y0.1856 I-0.0179 J-0.0078
G3 X4.9539 Y0.1895 I-0.0192 J-0.0436
G3 X4.9384 Y0.1903 I-0.0146 J-0.1346
G1 X4.932
G1 X4.9279
G1 X4.9259
G2 X4.9215 Y0.1905 I-0.0008 J0.0245
G3 X4.915 Y0.1908 I-0.0065 J-0.0866
G3 X4.9093 Y0.191 I-0.0064 J-0.0836
G3 X4.876 Y0.1884 I-0.0026 J-0.1838
G3 X4.8592 Y0.1828 I0.0094 J-0.0558
G3 X4.8523 Y0.1768 I0.0101 J-0.0188
G3 X4.8495 Y0.1681 I0.012 J-0.0086
G1 Y0.0269
G2 X4.8467 Y0.0138 I-0.0278 J-0.0009
G2 X4.8363 Y0.0052 I-0.0159 J0.0086
G2 X4.8244 Y0.0035 I-0.0121 J0.0417
G2 X4.8124 Y0.0033 I-0.0112 J0.2616
G2 X4.803 Y0.0045 I-0.0005 J0.0334
G2 X4.7919 Y0.0132 I0.0045 J0.0172
G2 X4.789 Y0.0269 I0.0262 J0.0128
G1 Y0.0793
G0 Z0.125
M5
M30
