( Made using CamBam - http://www.cambam.co.uk )
( slide arm 5/8/2011 7:23:34 PM )
( T0 : 0.125 )
G20 G90 G64 G40
G0 Z0.25
( T0 : 0.125 )
( Slot )
G17
M3 S2000
G0 X5.889 Y0.5555
G1 F40.0 Z0.0
G1 F75.0 X6.02 Z-0.0231
G2 Y0.4945 Z-0.04 I0.0 J-0.0305
G1 X0.27
G2 Y0.5555 I0.0 J0.0305
G1 X6.02
G2 Y0.4945 I0.0 J-0.0305
G1 F40.0 Y0.4895
G1 F75.0 X0.27
G2 Y0.5605 I0.0 J0.0355
G1 X6.02
G2 Y0.4895 I0.0 J-0.0355
G0 Z0.25
G0 X5.889 Y0.5555
G1 F40.0 Z-0.04
G1 F75.0 X6.02 Z-0.0631
G2 Y0.4945 Z-0.08 I0.0 J-0.0305
G1 X0.27
G2 Y0.5555 I0.0 J0.0305
G1 X6.02
G2 Y0.4945 I0.0 J-0.0305
G1 F40.0 Y0.4895
G1 F75.0 X0.27
G2 Y0.5605 I0.0 J0.0355
G1 X6.02
G2 Y0.4895 I0.0 J-0.0355
G0 Z0.25
G0 X5.889 Y0.5555
G1 F40.0 Z-0.08
G1 F75.0 X6.02 Z-0.1031
G2 Y0.4945 Z-0.12 I0.0 J-0.0305
G1 X0.27
G2 Y0.5555 I0.0 J0.0305
G1 X6.02
G2 Y0.4945 I0.0 J-0.0305
G1 F40.0 Y0.4895
G1 F75.0 X0.27
G2 Y0.5605 I0.0 J0.0355
G1 X6.02
G2 Y0.4895 I0.0 J-0.0355
G0 Z0.25
G0 X5.889 Y0.5555
G1 F40.0 Z-0.12
G1 F75.0 X6.02 Z-0.1431
G2 Y0.4945 Z-0.16 I0.0 J-0.0305
G1 X0.27
G2 Y0.5555 I0.0 J0.0305
G1 X6.02
G2 Y0.4945 I0.0 J-0.0305
G1 F40.0 Y0.4895
G1 F75.0 X0.27
G2 Y0.5605 I0.0 J0.0355
G1 X6.02
G2 Y0.4895 I0.0 J-0.0355
G0 Z0.25
G0 X5.9457 Y0.5555
G1 F40.0 Z-0.16
G1 F75.0 X6.02 Z-0.1731
G2 Y0.4945 Z-0.19 I0.0 J-0.0305
G1 X0.27
G2 Y0.5555 I0.0 J0.0305
G1 X6.02
G2 Y0.4945 I0.0 J-0.0305
G1 F40.0 Y0.4895
G1 F75.0 X0.27
G2 Y0.5605 I0.0 J0.0355
G1 X6.02
G2 Y0.4895 I0.0 J-0.0355
G1 F40.0 X6.0492 Y0.5337
G2 F75.0 X6.02 Y0.4945 Z-0.2 I-0.0292 J-0.0087
G1 X0.27
G2 Y0.5555 I0.0 J0.0305
G1 X6.02
G2 Y0.4945 I0.0 J-0.0305
G1 F40.0 Y0.4895
G1 F75.0 X0.27
G2 Y0.5605 I0.0 J0.0355
G1 X6.02
G2 Y0.4895 I0.0 J-0.0355
( Clr Holes )
S2000
G0 Z0.25
G0 X6.7397 Y0.7789
G1 F20.0 Z0.0
G2 F75.0 X6.7548 Y0.8014 Z-0.0049 I0.0303 J-0.0039
G2 X6.8005 Y0.775 Z-0.0162 I0.0153 J-0.0264
G2 X6.7548 Y0.7486 Z-0.0275 I-0.0305 J0.0
G2 Y0.8014 Z-0.0387 I0.0153 J0.0264
G2 X6.8005 Y0.775 Z-0.05 I0.0153 J-0.0264
G2 X6.7548 Y0.7486 I-0.0305 J0.0
G2 Y0.8014 I0.0153 J0.0264
G2 X6.8005 Y0.775 I0.0153 J-0.0264
G1 F20.0 X6.8025
G2 F75.0 X6.7538 Y0.7469 I-0.0325 J0.0
G2 Y0.8031 I0.0163 J0.0281
G2 X6.8025 Y0.775 I0.0163 J-0.0281
G1 F20.0 X6.7397 Y0.7789
G2 F75.0 X6.7548 Y0.8014 Z-0.0549 I0.0303 J-0.0039
G2 X6.8005 Y0.775 Z-0.0662 I0.0153 J-0.0264
G2 X6.7548 Y0.7486 Z-0.0775 I-0.0305 J0.0
G2 Y0.8014 Z-0.0887 I0.0153 J0.0264
G2 X6.8005 Y0.775 Z-0.1 I0.0153 J-0.0264
G2 X6.7548 Y0.7486 I-0.0305 J0.0
G2 Y0.8014 I0.0153 J0.0264
G2 X6.8005 Y0.775 I0.0153 J-0.0264
G1 F20.0 X6.8025
G2 F75.0 X6.7538 Y0.7469 I-0.0325 J0.0
G2 Y0.8031 I0.0163 J0.0281
G2 X6.8025 Y0.775 I0.0163 J-0.0281
G1 F20.0 X6.7397 Y0.7789
G2 F75.0 X6.7548 Y0.8014 Z-0.1049 I0.0303 J-0.0039
G2 X6.8005 Y0.775 Z-0.1162 I0.0153 J-0.0264
G2 X6.7548 Y0.7486 Z-0.1275 I-0.0305 J0.0
G2 Y0.8014 Z-0.1387 I0.0153 J0.0264
G2 X6.8005 Y0.775 Z-0.15 I0.0153 J-0.0264
G2 X6.7548 Y0.7486 I-0.0305 J0.0
G2 Y0.8014 I0.0153 J0.0264
G2 X6.8005 Y0.775 I0.0153 J-0.0264
G1 F20.0 X6.8025
G2 F75.0 X6.7538 Y0.7469 I-0.0325 J0.0
G2 Y0.8031 I0.0163 J0.0281
G2 X6.8025 Y0.775 I0.0163 J-0.0281
G1 F20.0 X6.755 Y0.8016
G2 F75.0 X6.8005 Y0.775 Z-0.1612 I0.015 J-0.0266
G2 X6.7548 Y0.7486 Z-0.1725 I-0.0305 J0.0
G2 Y0.8014 Z-0.1837 I0.0153 J0.0264
G2 X6.8005 Y0.775 Z-0.195 I0.0153 J-0.0264
G2 X6.7548 Y0.7486 I-0.0305 J0.0
G2 Y0.8014 I0.0153 J0.0264
G2 X6.8005 Y0.775 I0.0153 J-0.0264
G1 F20.0 X6.8025
G2 F75.0 X6.7538 Y0.7469 I-0.0325 J0.0
G2 Y0.8031 I0.0163 J0.0281
G2 X6.8025 Y0.775 I0.0163 J-0.0281
G1 F20.0 X6.7882 Y0.7994
G2 F75.0 X6.8005 Y0.775 Z-0.2 I-0.0182 J-0.0244
G2 X6.7548 Y0.7486 I-0.0305 J0.0
G2 Y0.8014 I0.0153 J0.0264
G2 X6.8005 Y0.775 I0.0153 J-0.0264
G1 F20.0 X6.8025
G2 F75.0 X6.7538 Y0.7469 I-0.0325 J0.0
G2 Y0.8031 I0.0163 J0.0281
G2 X6.8025 Y0.775 I0.0163 J-0.0281
G0 Z0.25
G0 X7.2878 Y0.2503
G1 F20.0 Z0.0
G2 F75.0 X7.2548 Y0.2486 Z-0.0062 I-0.0178 J0.0247
G2 X7.2492 Y0.2973 Z-0.0162 I0.0153 J0.0264
G2 X7.2548 Y0.3014 Z-0.0174 I0.0208 J-0.0223
G2 X7.3005 Y0.275 Z-0.0287 I0.0153 J-0.0264
G2 X7.2548 Y0.2486 Z-0.04 I-0.0305 J0.0
G2 X7.2492 Y0.2973 Z-0.05 I0.0153 J0.0264
G2 X7.2548 Y0.3014 I0.0208 J-0.0223
G2 X7.3005 Y0.275 I0.0153 J-0.0264
G2 X7.2548 Y0.2486 I-0.0305 J0.0
G2 X7.2492 Y0.2973 I0.0153 J0.0264
G1 F20.0 X7.2478 Y0.2987
G2 F75.0 X7.2538 Y0.3031 I0.0222 J-0.0237
G2 X7.3025 Y0.275 I0.0163 J-0.0281
G2 X7.2538 Y0.2469 I-0.0325 J0.0
G2 X7.2478 Y0.2987 I0.0163 J0.0281
G1 F20.0 X7.2878 Y0.2503
G2 F75.0 X7.2548 Y0.2486 Z-0.0562 I-0.0178 J0.0247
G2 X7.2492 Y0.2973 Z-0.0662 I0.0153 J0.0264
G2 X7.2548 Y0.3014 Z-0.0674 I0.0208 J-0.0223
G2 X7.3005 Y0.275 Z-0.0787 I0.0153 J-0.0264
G2 X7.2548 Y0.2486 Z-0.09 I-0.0305 J0.0
G2 X7.2492 Y0.2973 Z-0.1 I0.0153 J0.0264
G2 X7.2548 Y0.3014 I0.0208 J-0.0223
G2 X7.3005 Y0.275 I0.0153 J-0.0264
G2 X7.2548 Y0.2486 I-0.0305 J0.0
G2 X7.2492 Y0.2973 I0.0153 J0.0264
G1 F20.0 X7.2478 Y0.2987
G2 F75.0 X7.2538 Y0.3031 I0.0222 J-0.0237
G2 X7.3025 Y0.275 I0.0163 J-0.0281
G2 X7.2538 Y0.2469 I-0.0325 J0.0
G2 X7.2478 Y0.2987 I0.0163 J0.0281
G1 F20.0 X7.2878 Y0.2503
G2 F75.0 X7.2548 Y0.2486 Z-0.1062 I-0.0178 J0.0247
G2 X7.2492 Y0.2973 Z-0.1162 I0.0153 J0.0264
G2 X7.2548 Y0.3014 Z-0.1174 I0.0208 J-0.0223
G2 X7.3005 Y0.275 Z-0.1287 I0.0153 J-0.0264
G2 X7.2548 Y0.2486 Z-0.14 I-0.0305 J0.0
G2 X7.2492 Y0.2973 Z-0.15 I0.0153 J0.0264
G2 X7.2548 Y0.3014 I0.0208 J-0.0223
G2 X7.3005 Y0.275 I0.0153 J-0.0264
G2 X7.2548 Y0.2486 I-0.0305 J0.0
G2 X7.2492 Y0.2973 I0.0153 J0.0264
G1 F20.0 X7.2478 Y0.2987
G2 F75.0 X7.2538 Y0.3031 I0.0222 J-0.0237
G2 X7.3025 Y0.275 I0.0163 J-0.0281
G2 X7.2538 Y0.2469 I-0.0325 J0.0
G2 X7.2478 Y0.2987 I0.0163 J0.0281
G1 F20.0 X7.2608 Y0.2459
G2 F75.0 X7.2548 Y0.2486 Z-0.1512 I0.0092 J0.0291
G2 X7.2492 Y0.2973 Z-0.1612 I0.0153 J0.0264
G2 X7.2548 Y0.3014 Z-0.1624 I0.0208 J-0.0223
G2 X7.3005 Y0.275 Z-0.1737 I0.0153 J-0.0264
G2 X7.2548 Y0.2486 Z-0.185 I-0.0305 J0.0
G2 X7.2492 Y0.2973 Z-0.195 I0.0153 J0.0264
G2 X7.2548 Y0.3014 I0.0208 J-0.0223
G2 X7.3005 Y0.275 I0.0153 J-0.0264
G2 X7.2548 Y0.2486 I-0.0305 J0.0
G2 X7.2492 Y0.2973 I0.0153 J0.0264
G1 F20.0 X7.2478 Y0.2987
G2 F75.0 X7.2538 Y0.3031 I0.0222 J-0.0237
G2 X7.3025 Y0.275 I0.0163 J-0.0281
G2 X7.2538 Y0.2469 I-0.0325 J0.0
G2 X7.2478 Y0.2987 I0.0163 J0.0281
G1 F20.0 X7.2397 Y0.2716
G2 F75.0 X7.2492 Y0.2973 Z-0.2 I0.0303 J0.0034
G2 X7.2548 Y0.3014 I0.0208 J-0.0223
G2 X7.3005 Y0.275 I0.0153 J-0.0264
G2 X7.2548 Y0.2486 I-0.0305 J0.0
G2 X7.2492 Y0.2973 I0.0153 J0.0264
G1 F20.0 X7.2478 Y0.2987
G2 F75.0 X7.2538 Y0.3031 I0.0222 J-0.0237
G2 X7.3025 Y0.275 I0.0163 J-0.0281
G2 X7.2538 Y0.2469 I-0.0325 J0.0
G2 X7.2478 Y0.2987 I0.0163 J0.0281
( Sides )
S2000
G0 Z0.25
G0 X7.5825 Y0.2519
G1 F20.0 Z0.0
G1 F75.0 Y0.025 Z-0.04
G1 Y1.025
G0 Z0.25
G0 Y0.2519
G1 F20.0 Z-0.04
G1 F75.0 Y0.025 Z-0.08
G1 Y1.025
G0 Z0.25
G0 Y0.2519
G1 F20.0 Z-0.08
G1 F75.0 Y0.025 Z-0.12
G1 Y1.025
G0 Z0.25
G0 Y0.2519
G1 F20.0 Z-0.12
G1 F75.0 Y0.025 Z-0.16
G1 Y1.025
G0 Z0.25
G0 Y0.1951
G1 F20.0 Z-0.16
G1 F75.0 Y0.025 Z-0.19
G1 Y1.025
G0 Z0.25
G0 Y0.0817
G1 F20.0 Z-0.19
G1 F75.0 Y0.025 Z-0.2
G1 Y1.025
G0 Z0.25
G0 X-0.0425 Y0.7981
G1 F20.0 Z0.0
G1 F75.0 Y1.025 Z-0.04
G1 Y0.025
G0 Z0.25
G0 Y0.7981
G1 F20.0 Z-0.04
G1 F75.0 Y1.025 Z-0.08
G1 Y0.025
G0 Z0.25
G0 Y0.7981
G1 F20.0 Z-0.08
G1 F75.0 Y1.025 Z-0.12
G1 Y0.025
G0 Z0.25
G0 Y0.7981
G1 F20.0 Z-0.12
G1 F75.0 Y1.025 Z-0.16
G1 Y0.025
G0 Z0.25
G0 Y0.8549
G1 F20.0 Z-0.16
G1 F75.0 Y1.025 Z-0.19
G1 Y0.025
G0 Z0.25
G0 Y0.9683
G1 F20.0 Z-0.19
G1 F75.0 Y1.025 Z-0.2
G1 Y0.025
G0 Z0.25
M5
M30
